assets/luts/look.cube
TITLE "Generated by Resolve"
LUT_3D_SIZE 65
0.0471809 0.0500191 0.0505074
0.0531624 0.0491493 0.049546
0.0585336 0.0483558 0.0488136
0.0641794 0.0474861 0.0480659
0.0719921 0.0462043 0.0469062
0.0793622 0.0450904 0.045716
0.0927596 0.0430304 0.0438392
0.126223 0.0368658 0.0396735
0.160143 0.0299382 0.0348974
0.21387 0.0225834 0.0273442
0.308019 0.012192 0.0185092
0.526055 0 0.00456245
0.630243 0 0.00268559
0.65951 0 0.00202945
0.634775 0 0.00236515
0.603189 0 0.00260929
0.631006 0 0.00215152
0.675944 0.342428 0.0601968
0.648127 0.0694133 0.0280613
0.609018 0 0.000350958
0.587991 0 0.000656138
0.547173 0 0.00328069
0.516762 0 0.00547799
0.506859 0.00105287 0.00672923
0.534081 0 0.00419623
0.604135 0 0
0.709209 0 0
0.799786 0 0
0.805524 0 0
0.891325 0.169512 0.0741588
0.908873 0.478004 0.0867323
0.820829 0 0.00320439
0.82182 0 0.00720226
0.8224 0 0.010132
0.823117 0 0.0197147
0.825666 0 0.0468299
0.91133 0.176242 0.166674
0.910414 0.285451 0.192859
0.826246 0 0.0908522
0.825986 0 0.108202
0.827298 0 0.136904
0.9066 0.45597 0.516045
0.931914 0.580941 0.684321
0.93518 0.608789 0.740246
0.937682 0.619532 0.769818
0.938293 0.623789 0.789303
0.937148 0.62533 0.803372
0.93611 0.626245 0.815473
0.934966 0.62681 0.82649
0.933593 0.627115 0.83653
0.932174 0.627375 0.845685
0.930617 0.627558 0.853788
0.928969 0.627726 0.861006
0.927199 0.627848 0.867384
0.925353 0.627955 0.872602
0.923415 0.628016 0.877348
0.923125 0.628031 0.877943
0.923125 0.628031 0.877943
0.92311 0.628 0.877913
0.923064 0.627955 0.877867
0.922957 0.627832 0.877745
0.922744 0.627588 0.877516
0.922423 0.626459 0.876448
0.918746 0.59794 0.856962
0.377707 0.605829 0.33257
0.0443275 0.0534829 0.0490272
0.0514687 0.0538338 0.0513008
0.0576486 0.0532998 0.051545
0.0650797 0.0523079 0.050248
0.0773022 0.0504158 0.0474403
0.0932937 0.0472725 0.0439918
0.121187 0.0408637 0.0385595
0.174456 0.0295415 0.0314946
0.219593 0.0217746 0.0267491
0.294865 0.012192 0.0169528
0.383734 0.00361639 0.00993362
0.465492 0 0.00575265
0.589273 0 0.00376898
0.675868 0 0.00202945
0.705135 0 0.00173953
0.717968 0 0.00132753
0.761074 0.28632 0.0839399
0.74316 0.282109 0.0809491
0.685802 0.0333104 0.0188602
0.660105 0 0.000671397
0.633585 0 0
0.595789 0 1.5259e-05
0.569604 0 0.00172427
0.56492 0 0.00207523
0.590051 0 0.000213626
0.654887 0 0
0.764965 0 0
0.799786 0 0
0.805524 0 0
0.891966 0.173007 0.0746777
0.825879 0.00764477 0.00941482
0.820813 0 0.00315862
0.822019 0 0.00872816
0.822431 0 0.0103304
0.823148 0 0.0199588
0.823682 0 0.0316167
0.824216 0 0.0452888
0.916243 0.213718 0.193133
0.908049 0.414862 0.231647
0.836057 0.00761425 0.143648
0.827192 0 0.13518
0.910582 0.473503 0.536187
0.931365 0.585611 0.692668
0.935347 0.610208 0.742184
0.937667 0.620127 0.770596
0.938308 0.624002 0.789563
0.937179 0.625437 0.803464
0.936126 0.626291 0.815518
0.934966 0.626825 0.826535
0.933593 0.627115 0.8365
0.932174 0.627375 0.845655
0.930617 0.627573 0.853773
0.928985 0.627726 0.860975
0.927199 0.627863 0.867399
0.925353 0.627955 0.872602
0.923415 0.628016 0.877363
0.923125 0.628046 0.877943
0.923125 0.628031 0.877943
0.92311 0.628016 0.877928
0.923064 0.627955 0.877867
0.922957 0.627832 0.87776
0.922759 0.627588 0.877531
0.922408 0.626413 0.876402
0.919127 0.600595 0.858259
0.377707 0.605829 0.33257
0.0441749 0.0573434 0.0484016
0.0474861 0.0583505 0.0500191
0.0560464 0.0581979 0.0514382
0.0628672 0.0570382 0.0520027
0.0743114 0.0550393 0.0497749
0.0885176 0.0528115 0.0460365
0.107042 0.0493019 0.0417487
0.154284 0.0382544 0.0340276
0.198947 0.0274357 0.0285344
0.240711 0.021561 0.0251011
0.319997 0.0104982 0.0168154
0.420584 0.0015259 0.00885023
0.518746 0 0.00387579
0.56759 0 0.00375372
0.431464 0.00273136 0.0109865
0.53463 0 0.0041352
0.565988 0 0.00227359
0.806012 0.235218 0.0767681
0.726085 0 0
0.714702 0 0
0.673869 0 0
0.643015 0 0
0.625956 0 0
0.622309 0 0
0.645335 0 0
0.708263 0 0
0.794156 0 0
0.799771 0 0
0.805508 0 0
0.891539 0.17084 0.0742962
0.8168 0 0.000808728
0.820813 0 0.0031281
0.821668 0 0.00619516
0.822431 0 0.0103609
0.823178 0 0.0200504
0.823743 0 0.0320745
0.824201 0 0.0449836
0.82446 0 0.0591897
0.908141 0.307164 0.216052
0.906981 0.480385 0.28397
0.826627 0 0.127123
0.914549 0.49189 0.554879
0.931319 0.589136 0.697688
0.935637 0.611841 0.744335
0.937667 0.620691 0.771237
0.938338 0.624216 0.789792
0.937224 0.625544 0.80351
0.936156 0.626352 0.815564
0.934966 0.626841 0.82652
0.933593 0.627131 0.836561
0.932189 0.627375 0.84567
0.930617 0.627573 0.853819
0.928985 0.627726 0.860975
0.927199 0.627863 0.867414
0.925353 0.627955 0.872633
0.92343 0.628016 0.877348
0.923125 0.628046 0.877943
0.923125 0.628046 0.877943
0.92311 0.628016 0.877928
0.923064 0.627955 0.877867
0.922957 0.627832 0.87776
0.922759 0.627604 0.877546
0.922438 0.626566 0.876539
0.919051 0.600092 0.857984
0.377707 0.605829 0.33257
0.0442054 0.0606241 0.0479133
0.0449531 0.0624552 0.0485084
0.0508736 0.0634623 0.0492866
0.0597848 0.0635233 0.0504158
0.0722972 0.060853 0.0515145
0.0866712 0.0584878 0.0494392
0.103731 0.0561379 0.045304
0.144839 0.0478218 0.0376593
0.191531 0.0361639 0.0298924
0.230335 0.0287175 0.0272374
0.288029 0.0182803 0.0221561
0.353307 0.00755322 0.0146944
0.331685 0.0121004 0.0198978
0.355138 0.0106661 0.0192111
0.455695 0.000442512 0.0096437
0.514046 0 0.00534066
0.535195 0 0.00402838
0.741985 0 0.00015259
0.750973 0 0
0.757351 0 0
0.721965 0 0
0.693965 0 0
0.675746 0 0
0.672496 0 0
0.697276 0 0
0.764248 0 0
0.794156 0 0
0.799771 0 0
0.805508 0 0
0.890074 0.16466 0.0729839
0.8168 0 0.000793469
0.820798 0 0.00311284
0.821653 0 0.00616464
0.82237 0 0.00991836
0.823102 0 0.0194705
0.823758 0 0.0321202
0.824247 0 0.0454261
0.824842 0 0.0617533
0.824979 0 0.0768139
0.905165 0.416175 0.265171
0.826474 0 0.12491
0.919402 0.508965 0.57026
0.931594 0.592844 0.702632
0.935897 0.613092 0.745953
0.937667 0.62118 0.771771
0.938338 0.624414 0.78999
0.937224 0.62562 0.803632
0.936156 0.626383 0.815579
0.934981 0.626856 0.826551
0.933593 0.627131 0.836561
0.932189 0.62739 0.845655
0.930632 0.627573 0.853758
0.928985 0.627741 0.86099
0.927199 0.627863 0.867414
0.925353 0.627955 0.872618
0.92343 0.628016 0.877363
0.92314 0.628046 0.877958
0.92314 0.628046 0.877958
0.92311 0.628016 0.877928
0.923064 0.627955 0.877867
0.922957 0.627832 0.87776
0.922759 0.627604 0.877546
0.922423 0.626474 0.876448
0.919661 0.60444 0.860426
0.377707 0.605829 0.33257
0.0436103 0.0642405 0.046952
0.0431983 0.0673686 0.046952
0.0456855 0.0697032 0.0473945
0.0543069 0.0714885 0.0484169
0.0671855 0.071046 0.0493629
0.0818189 0.0681773 0.0495766
0.0979171 0.0654002 0.0478828
0.137911 0.0572518 0.0409857
0.177554 0.0485695 0.0346227
0.215198 0.0417334 0.0295262
0.246418 0.0355535 0.0304112
0.270268 0.0218967 0.0283055
0.304067 0.0152895 0.0263676
0.353017 0.0106661 0.0205844
0.408774 0.00517281 0.0141451
0.461997 0.000762951 0.0090486
0.529 0 0.00445563
0.701732 0 0.000106813
0.751019 0 0
0.757382 0 0
0.762646 0 0
0.755932 0 0
0.742199 0 0
0.740169 0 0
0.763302 0 0
0.788891 0 0
0.794156 0 0
0.799756 0 0
0.805493 0 0
0.887495 0.154421 0.0706951
0.816785 0 0.000762951
0.820829 0 0.00325017
0.821653 0 0.00613413
0.822354 0 0.00978103
0.823056 0 0.019089
0.823575 0 0.0307469
0.824186 0 0.0447852
0.824842 0 0.0616464
0.825269 0 0.0795148
0.825223 0 0.0970779
0.82829 0 0.153674
0.926925 0.525597 0.582925
0.931914 0.595544 0.706523
0.936217 0.614282 0.747707
0.937667 0.621622 0.772229
0.938338 0.624582 0.790188
0.93724 0.625711 0.803769
0.936172 0.626429 0.81561
0.934997 0.626871 0.826551
0.933608 0.627146 0.836515
0.932189 0.62739 0.84567
0.930632 0.627588 0.853788
0.928985 0.627741 0.861021
0.927199 0.627863 0.867414
0.925368 0.627955 0.872602
0.923415 0.628016 0.877363
0.92314 0.628046 0.877958
0.923125 0.628046 0.877943
0.92311 0.628016 0.877928
0.923064 0.627955 0.877867
0.922957 0.627848 0.87776
0.922759 0.627604 0.877546
0.922438 0.626627 0.8766
0.919051 0.600061 0.857969
0.377707 0.605829 0.33257
0.043122 0.0682536 0.0463264
0.0426337 0.0734112 0.0459297
0.0423438 0.0769055 0.0457465
0.0455177 0.0793622 0.0459907
0.0563211 0.0821546 0.0474708
0.0724498 0.0817273 0.0486
0.0874037 0.0762036 0.0545815
0.110704 0.0718547 0.060914
0.13872 0.0673533 0.0600137
0.173098 0.0605783 0.0571908
0.207523 0.0452735 0.049546
0.255955 0.0319677 0.0390936
0.291783 0.0207523 0.0306859
0.337438 0.0131838 0.0231937
0.382834 0.0087129 0.0174105
0.421042 0.00538643 0.0135653
0.491203 0 0.00709544
0.742153 0 0.000122072
0.751064 0 0
0.757412 0 0
0.762676 0 0
0.767834 0 0
0.773159 0 0
0.778363 0 0
0.783627 0 0
0.788891 0 0
0.794156 0 0
0.799756 0 0
0.805493 0 0
0.81117 0 0
0.81677 0 0.000747692
0.820859 0 0.00352483
0.821637 0 0.00610361
0.822339 0 0.00970474
0.823041 0 0.0189364
0.823514 0 0.0302434
0.823941 0 0.0426642
0.82443 0 0.0588846
0.825238 0 0.0792401
0.825589 0 0.10161
0.90428 0.139132 0.292119
0.933608 0.540413 0.596292
0.932342 0.598215 0.709987
0.936431 0.615351 0.749126
0.937667 0.622049 0.772763
0.938323 0.62472 0.790356
0.93727 0.625818 0.803845
0.936187 0.626474 0.815686
0.934997 0.626886 0.826581
0.933623 0.627146 0.836515
0.932189 0.62739 0.845685
0.930632 0.627588 0.853788
0.928985 0.627741 0.86099
0.927214 0.627863 0.867399
0.925368 0.627955 0.872618
0.92343 0.628031 0.877363
0.92314 0.628046 0.877958
0.92314 0.628046 0.877958
0.92311 0.628016 0.877928
0.923064 0.62797 0.877882
0.922972 0.627848 0.877775
0.922774 0.627619 0.877546
0.922438 0.626627 0.8766
0.919524 0.60351 0.859907
0.377707 0.605829 0.33257
0.0411078 0.0740063 0.0454871
0.0403296 0.0814069 0.0447089
0.0395819 0.0864881 0.0439765
0.042359 0.0853742 0.0452277
0.0536202 0.08542 0.0507362
0.0601968 0.0870222 0.0574502
0.0649729 0.0901045 0.0635233
0.0810712 0.090547 0.0740673
0.113542 0.0845808 0.078233
0.151003 0.0777447 0.0721447
0.198749 0.0689097 0.0614633
0.270359 0.0556191 0.0468605
0.337942 0.039704 0.0352483
0.408011 0.0194247 0.0199435
0.472404 0 0.00827039
0.518669 0 0.00466926
0.534508 0 0.00389105
0.741939 0 4.57771e-05
0.750988 0 0
0.757397 0 0
0.762707 0 0
0.767865 0 0
0.773159 0 0
0.778378 0 0
0.783642 0 0
0.788907 0 0
0.794156 0 0
0.799756 0 0
0.805478 0 0
0.811154 0 0
0.816754 0 0.000701915
0.820768 0 0.00300603
0.821622 0 0.00605783
0.822324 0 0.00967422
0.823026 0 0.0187991
0.823484 0 0.029984
0.82385 0 0.0419165
0.824125 0 0.0565652
0.824781 0 0.0749828
0.825559 0 0.101152
0.904692 0.32517 0.376577
0.935729 0.552071 0.611368
0.932815 0.600793 0.713405
0.936614 0.616373 0.750317
0.937682 0.622415 0.773236
0.938338 0.624857 0.790524
0.937301 0.625895 0.803906
0.936202 0.62652 0.815747
0.935012 0.626917 0.826612
0.933623 0.627146 0.836469
0.932204 0.627405 0.84567
0.930648 0.627588 0.853788
0.929 0.627741 0.860975
0.927214 0.627878 0.867414
0.925368 0.62797 0.872633
0.92343 0.628031 0.877363
0.92314 0.628046 0.877958
0.92314 0.628046 0.877958
0.923125 0.628031 0.877943
0.923064 0.62797 0.877882
0.922972 0.627848 0.87776
0.922759 0.627604 0.877546
0.922438 0.626581 0.876554
0.919783 0.605249 0.860899
0.377707 0.605829 0.33257
0.0297398 0.0873579 0.0413977
0.032929 0.0911879 0.0422522
0.0348363 0.0911421 0.0447089
0.0363928 0.0919051 0.0494087
0.0344091 0.0950027 0.0528267
0.0289158 0.101595 0.0531624
0.0291447 0.105043 0.0538796
0.0536507 0.108995 0.0658885
0.0939803 0.108919 0.0731975
0.133989 0.100237 0.0760052
0.175921 0.0915999 0.0697032
0.248356 0.075288 0.0509346
0.314702 0.0647746 0.0387427
0.383734 0.0507973 0.0251316
0.455924 0.0257877 0.01561
0.534966 0 0.00205997
0.618296 0 0.000808728
0.73875 0 0
0.748791 0 0
0.755825 0 0
0.761563 0 0
0.766644 0 0
0.772091 0 0
0.777325 0 0
0.782773 0 0
0.788159 0 0
0.793698 0 0
0.799405 0 0
0.805295 0 0
0.811139 0 0
0.816754 0 0.000701915
0.820768 0 0.00299077
0.821622 0 0.00604257
0.822324 0 0.0096437
0.823026 0 0.018677
0.823468 0 0.0298161
0.823789 0 0.0415351
0.824018 0 0.0554665
0.824414 0 0.0723735
0.82533 0 0.0981155
0.901564 0.404395 0.41767
0.936156 0.561364 0.626871
0.933165 0.602884 0.716365
0.93669 0.617197 0.751369
0.937697 0.622797 0.773693
0.938354 0.624979 0.790722
0.937316 0.625971 0.803937
0.936233 0.626551 0.815702
0.935027 0.626932 0.826612
0.933623 0.627161 0.836545
0.932204 0.627405 0.84567
0.930648 0.627588 0.853803
0.929 0.627756 0.861006
0.927214 0.627878 0.867399
0.925368 0.62797 0.872618
0.92343 0.628031 0.877379
0.92314 0.628061 0.877958
0.92314 0.628046 0.877958
0.923125 0.628031 0.877943
0.923064 0.62797 0.877882
0.922972 0.627848 0.877775
0.922759 0.627604 0.877546
0.922454 0.626734 0.876707
0.91989 0.60589 0.861295
0.377707 0.605829 0.33257
0.0293126 0.0955062 0.0418097
0.0307622 0.0964523 0.0461891
0.0302892 0.0990463 0.0524453
0.0265507 0.105989 0.0495155
0.0232242 0.113832 0.0433661
0.0204166 0.121996 0.037232
0.0195621 0.125444 0.0395209
0.0317388 0.128191 0.0493782
0.0679332 0.130541 0.0622721
0.110948 0.129473 0.0675364
0.160128 0.120043 0.0720531
0.224903 0.103639 0.0590677
0.299733 0.0862898 0.0454871
0.371237 0.0721904 0.0292515
0.436835 0.0546273 0.0195468
0.504768 0.0288548 0.0120851
0.569482 0.000885023 6.10361e-05
0.664836 0 0
0.746349 0 0
0.754391 0 0
0.760388 0 0
0.765743 0 0
0.77084 0 0
0.776165 0 0
0.781552 0 0
0.787015 0 0
0.79263 0 0
0.798352 0 0
0.804395 0 0
0.810468 0 0
0.816541 0 4.57771e-05
0.821027 0 0.00260929
0.821729 0 0.00593576
0.822324 0 0.00962844
0.823011 0 0.018616
0.823453 0 0.0296788
0.823774 0 0.0413062
0.823957 0 0.0548562
0.824186 0 0.0708782
0.824765 0 0.0919509
0.901305 0.438895 0.446479
0.935088 0.569482 0.64213
0.933501 0.605081 0.719188
0.936797 0.618021 0.752422
0.937713 0.623117 0.774029
0.938369 0.625101 0.790814
0.937346 0.626047 0.804059
0.936248 0.626596 0.815824
0.935042 0.626963 0.826627
0.933639 0.627161 0.836561
0.932219 0.627405 0.845655
0.930648 0.627604 0.853788
0.929 0.627756 0.861006
0.927214 0.627878 0.86743
0.925368 0.62797 0.872618
0.92343 0.628031 0.877363
0.92314 0.628061 0.877958
0.92314 0.628046 0.877958
0.923125 0.628031 0.877943
0.923064 0.62797 0.877882
0.922972 0.627863 0.877775
0.922789 0.627634 0.877562
0.922454 0.626734 0.876707
0.920516 0.609369 0.863493
0.377707 0.605829 0.33257
0.0280766 0.102708 0.0522011
0.0246891 0.110506 0.0460212
0.0215457 0.118578 0.0396277
0.0190127 0.126879 0.0343633
0.0166018 0.13521 0.0301213
0.0145418 0.14316 0.0264591
0.0120241 0.148348 0.0261997
0.0117952 0.152438 0.03122
0.0393835 0.154696 0.0421454
0.0800793 0.155367 0.0515602
0.131014 0.152636 0.0544442
0.206088 0.137453 0.0547799
0.28275 0.115633 0.0516213
0.354757 0.099794 0.0362249
0.417334 0.0820935 0.0247196
0.488212 0.0601053 0.0163272
0.559976 0.0319982 0.00906386
0.614878 0.0030518 0
0.728649 0 0
0.753201 0 0
0.759274 0 0
0.764797 0 0
0.769848 0 0
0.775158 0 0
0.780423 0 0
0.785977 0 0
0.791424 0 0
0.797299 0 0
0.803464 0 0
0.809659 0 0
0.815824 0 0
0.820584 0 0.0016022
0.822095 0 0.00509651
0.822858 0 0.00923171
0.823178 0 0.0183108
0.823438 0 0.0295415
0.823743 0 0.0410925
0.823926 0 0.0545052
0.824063 0 0.0699016
0.824552 0 0.0899062
0.903609 0.455177 0.472328
0.932967 0.576303 0.656275
0.933852 0.606928 0.721691
0.936873 0.618799 0.75346
0.937713 0.623423 0.774334
0.938399 0.625193 0.790906
0.937362 0.626108 0.804059
0.936263 0.626627 0.815824
0.935058 0.626978 0.826658
0.933639 0.627176 0.836484
0.932219 0.62742 0.84564
0.930648 0.627604 0.853803
0.929 0.627756 0.861006
0.927214 0.627878 0.86743
0.925368 0.62797 0.872633
0.923445 0.628031 0.877363
0.92314 0.628061 0.877974
0.92314 0.628061 0.877958
0.923125 0.628031 0.877943
0.923079 0.62797 0.877882
0.922972 0.627863 0.877775
0.922789 0.627634 0.877577
0.922454 0.626734 0.876707
0.920333 0.608698 0.863005
0.377707 0.605829 0.33257
0.0198825 0.123323 0.0361791
0.0174716 0.131655 0.0317845
0.0153964 0.139864 0.0278325
0.0133211 0.148058 0.024033
0.011841 0.156024 0.021149
0.0100252 0.163241 0.0185245
0.00700389 0.170764 0.0163729
0.00462348 0.177508 0.0164034
0.00860609 0.180911 0.01944
0.0413062 0.185016 0.024506
0.0861067 0.18587 0.0257572
0.166003 0.17734 0.0290684
0.265309 0.153643 0.0420386
0.332784 0.134478 0.0424659
0.396994 0.117388 0.0318303
0.469657 0.0966201 0.0213626
0.544915 0.0708171 0.0162509
0.60943 0.0380102 0.00920119
0.667063 0.0059968 0
0.752316 0.00224308 0
0.759197 0 0
0.76437 0 0
0.768933 0 0
0.773907 0 0
0.779431 0 0
0.785031 0 0
0.790372 0 0
0.796384 0 0
0.802518 0 0
0.808728 0 0
0.815015 0 0
0.819974 0 0.000564584
0.821653 0 0.0041352
0.823194 0 0.0087892
0.823865 0 0.0175784
0.823987 0 0.0290379
0.823713 0 0.0408942
0.823911 0 0.0543526
0.824002 0 0.0694743
0.824399 0 0.0881971
0.906966 0.470741 0.496788
0.931151 0.581445 0.666773
0.934295 0.608728 0.724269
0.936934 0.619455 0.754376
0.937743 0.623697 0.774685
0.938445 0.62533 0.791074
0.937377 0.626169 0.804166
0.936278 0.626673 0.815869
0.935058 0.627008 0.826673
0.933654 0.627176 0.83653
0.932219 0.62742 0.845685
0.930663 0.627604 0.853788
0.929015 0.627756 0.860975
0.927214 0.627878 0.867414
0.925383 0.62797 0.872602
0.923445 0.628031 0.877363
0.92314 0.628061 0.877974
0.92314 0.628061 0.877974
0.923125 0.628031 0.877943
0.923079 0.62797 0.877897
0.922988 0.627863 0.877791
0.922789 0.627634 0.877562
0.922454 0.626734 0.876707
0.91989 0.605951 0.861311
0.377707 0.605829 0.33257
0.013611 0.147097 0.0245365
0.0119936 0.155062 0.0214542
0.0108034 0.162661 0.0189975
0.00988785 0.169284 0.0172885
0.00929274 0.175113 0.0159915
0.00741588 0.181918 0.0138705
0.00367742 0.192447 0.0102998
0.00215152 0.201236 0.00935378
0.0039826 0.205295 0.011841
0.0128481 0.209293 0.0143282
0.0454719 0.217121 0.0133364
0.104646 0.220523 0.0122683
0.205097 0.207263 0.0209659
0.296056 0.186816 0.030869
0.373053 0.166888 0.0281987
0.449973 0.143145 0.0264134
0.527703 0.118914 0.0241093
0.598566 0.0907149 0.0201419
0.652583 0.0460365 0.0101015
0.717357 0.00958267 0
0.759319 0.00680552 0
0.765484 0.00358587 0
0.769574 0.000747692 0
0.773587 0 0
0.778332 0 0
0.783398 0 0
0.789044 0 0
0.79527 0 0
0.801434 0 0
0.807752 0 0
0.814237 0 0
0.819211 0 0
0.82092 0 0.00297551
0.823163 0 0.00920119
0.824506 0 0.0176089
0.824689 0 0.0281987
0.824552 0 0.0400854
0.82388 0 0.0540627
0.823941 0 0.0689403
0.824323 0 0.0873732
0.910475 0.486732 0.519005
0.930404 0.586313 0.676234
0.934478 0.6103 0.726513
0.936934 0.620172 0.755322
0.937758 0.623972 0.77496
0.938491 0.625437 0.791135
0.937407 0.62623 0.804227
0.936309 0.626703 0.815869
0.935073 0.627024 0.826688
0.933654 0.627176 0.83653
0.932219 0.62742 0.845685
0.930663 0.627604 0.853773
0.929015 0.627756 0.860975
0.92723 0.627894 0.867414
0.925383 0.627985 0.872602
0.923445 0.628031 0.877363
0.923156 0.628061 0.877974
0.92314 0.628061 0.877974
0.923125 0.628031 0.877943
0.923079 0.627985 0.877897
0.922988 0.627863 0.877791
0.922805 0.627649 0.877577
0.922454 0.626734 0.876707
0.920348 0.608759 0.863035
0.377707 0.605829 0.33257
0.00953689 0.172183 0.0165866
0.00929274 0.177478 0.0157015
0.00923171 0.181796 0.0151522
0.00907912 0.18558 0.0145571
0.00872816 0.190158 0.0138247
0.00573739 0.19823 0.0107881
0.00256352 0.212131 0.00761425
0.00645457 0.222995 0.0115053
0.00714122 0.230838 0.0121157
0.00654612 0.237201 0.0106203
0.0122225 0.242924 0.0102846
0.0592355 0.254673 0.0171817
0.130968 0.260853 0.0223545
0.237858 0.249622 0.0250553
0.341466 0.22826 0.0270848
0.430503 0.205386 0.0290379
0.511376 0.177798 0.0319677
0.585748 0.146715 0.031342
0.645548 0.115038 0.0279088
0.700679 0.0635996 0.0134585
0.753201 0.0187228 0
0.765011 0.0127108 0
0.770687 0.00810254 0
0.774975 0.00477607 0
0.77882 0.00178531 0
0.783139 0 0
0.787991 0 0
0.793622 0 0
0.799847 0 0
0.806653 0 0
0.813382 0 0
0.818326 0 0
0.820356 0 0.00138857
0.822721 0 0.00941482
0.825513 0 0.0208743
0.825742 0 0.0292973
0.825406 0 0.038941
0.825025 0 0.0526894
0.823896 0 0.0685435
0.824277 0 0.0868849
0.914214 0.504646 0.540383
0.930343 0.591089 0.684459
0.934874 0.612314 0.729335
0.936919 0.620905 0.756054
0.937789 0.624262 0.775341
0.938521 0.625589 0.791272
0.937423 0.626307 0.804227
0.936324 0.626749 0.8159
0.935088 0.627054 0.826719
0.933669 0.627192 0.83653
0.932235 0.627436 0.84567
0.930678 0.627619 0.853788
0.929015 0.627771 0.860975
0.92723 0.627878 0.867384
0.925383 0.627985 0.872618
0.923445 0.628046 0.877363
0.923156 0.628061 0.877974
0.923156 0.628061 0.877974
0.923125 0.628031 0.877943
0.923079 0.627985 0.877897
0.922988 0.627878 0.877791
0.922805 0.627649 0.877577
0.922484 0.626871 0.876829
0.920272 0.608392 0.862791
0.377707 0.605829 0.33257
0.00857557 0.191104 0.013611
0.00798047 0.196002 0.012665
0.00709544 0.20119 0.0114595
0.00573739 0.208194 0.00987259
0.00489815 0.212589 0.00889601
0.00425727 0.214252 0.00825513
0.00437934 0.229435 0.0083772
0.00679026 0.246891 0.0107729
0.00311284 0.263188 0.0071107
0.00146487 0.273869 0.005066
0.00210575 0.281605 0.00387579
0.00868238 0.289403 0.00456245
0.0707256 0.308324 0.0157626
0.160601 0.315358 0.0227359
0.282841 0.300999 0.0256199
0.398093 0.275288 0.0292668
0.488182 0.248157 0.0348669
0.569421 0.211032 0.0386053
0.635309 0.181552 0.0417792
0.697719 0.146197 0.0384375
0.749325 0.0925002 0.0221866
0.765057 0.0360876 0
0.769436 0.0239872 0
0.775494 0.0182193 0
0.780179 0.012192 0
0.784329 0.00582895 0
0.78851 0.00276188 0
0.793149 0.000106813 0
0.798749 0 0
0.804944 0 0
0.811749 0 0
0.81709 0 0
0.819196 0 0
0.822278 0 0.00975052
0.826139 0 0.0250553
0.828092 0 0.0357061
0.827161 0 0.0417487
0.826154 0 0.0511635
0.82536 0 0.066804
0.824445 0 0.0881514
0.920317 0.522713 0.55906
0.930816 0.595712 0.691112
0.935378 0.614359 0.732113
0.936934 0.621759 0.757076
0.937774 0.624537 0.775555
0.938552 0.625742 0.791485
0.937453 0.626398 0.804318
0.936355 0.626795 0.815961
0.935119 0.627085 0.826734
0.933684 0.627207 0.8365
0.93225 0.627436 0.84567
0.930678 0.627619 0.853788
0.929015 0.627771 0.861006
0.92723 0.627894 0.86743
0.925383 0.627985 0.872633
