assets/luts/look_2.cube
TITLE "Generated by Resolve"
LUT_3D_SIZE 9
0.0466773 0.0490883 0.0528115
0.188785 0.0249943 0.0303349
0.576226 0 0.00187686
0.522652 0 0.00517281
0.82356 0 0.0191348
0.830243 0 0.212024
0.934508 0.627253 0.831495
0.923369 0.628321 0.878218
0.923445 0.628412 0.878309
0.0301823 0.0887312 0.041413
0.0854658 0.138918 0.0266423
0.586465 0 0
0.781491 0 0
0.822934 0 0.0137026
0.829419 0 0.172045
0.934524 0.627268 0.831464
0.923369 0.628321 0.878218
0.923445 0.628412 0.878309
0.612284 0.695338 0.0884565
0.00244144 0.385122 0.00444038
0.339406 0.466148 0.0432441
0.86186 0.269001 0.0720531
0.876478 0.118807 0.0693065
0.842008 0.00801099 0.205142
0.934524 0.627237 0.831373
0.923354 0.628305 0.878202
0.923445 0.628412 0.878309
0.62211 0.830701 0.544427
0.0673991 0.70135 0.0679942
0.078645 0.741436 0.213031
0.686793 0.750561 0.0810559
0.897215 0.705058 0.129046
0.930739 0.752239 0.594934
0.966094 0.728542 0.879667
0.923354 0.62829 0.878202
0.923445 0.628412 0.878294
0.0835126 0.857435 0.0840467
0.0843977 0.871565 0.0850538
0.0849165 0.873304 0.110231
0.522789 0.865141 0.253208
0.831174 0.871794 0.548791
0.870604 0.894072 0.683513
0.893721 0.901427 0.826658
0.927901 0.870222 0.916442
0.923445 0.628397 0.878294
0.638727 0.913985 0.734722
0.645289 0.915267 0.737072
0.652186 0.91603 0.739986
0.714092 0.916609 0.743618
0.880064 0.898604 0.724376
0.887114 0.900938 0.761807
0.895338 0.901427 0.853773
0.89987 0.903578 0.9075
0.899962 0.903655 0.907576
0.794171 0.918639 0.895003
0.809125 0.916304 0.892912
0.829602 0.913039 0.890135
0.874617 0.905119 0.883467
0.896132 0.901564 0.879149
0.896681 0.9019 0.885298
0.898543 0.902831 0.900832
0.899916 0.903624 0.907546
0.899962 0.90367 0.907576
0.899825 0.903563 0.907469
0.899825 0.903563 0.907469
0.899825 0.903563 0.907469
0.89984 0.903563 0.907485
0.899855 0.903578 0.907485
0.89987 0.903593 0.907515
0.899916 0.903624 0.907546
0.899947 0.903655 0.907576
0.899962 0.90367 0.907591
0.899947 0.903655 0.907576
0.899947 0.903655 0.907576
0.899947 0.903655 0.907576
0.899947 0.903655 0.907576
0.899947 0.903655 0.907576
0.899947 0.903655 0.907576
0.899962 0.90367 0.907591
0.899962 0.90367 0.907591
0.899977 0.90367 0.907591
0.0354009 0.0438544 0.133318
0.424491 0.00105287 0.174105
0.301808 0.606485 0.103426
0.516945 0.589288 0.0948043
0.828656 0 0.091371
0.908263 0.14313 0.416266
0.934264 0.62739 0.834058
0.923384 0.628336 0.878233
0.923445 0.628412 0.878309
0.0170291 0.134524 0.201205
0.125109 0.121187 0.147005
0.556786 0 0.0284123
0.873503 0.5019 0.220737
0.82771 0 0.0769665
0.908476 0.339635 0.455772
0.934249 0.62739 0.834134
0.923384 0.628336 0.878233
0.923445 0.628412 0.878309
0.610071 0.679423 0.0961471
3.0518e-05 0.339986 0.0133669
0.419776 0.44564 0.066392
0.865232 0.242405 0.087541
0.83357 0.018967 0.0704204
0.909606 0.45359 0.524453
0.934203 0.627359 0.834287
0.923384 0.628336 0.878218
0.923445 0.628412 0.878309
0.626123 0.841779 0.606836
0.605478 0.783673 0.241428
0.0853285 0.778988 0.0871595
0.715404 0.767239 0.0876936
0.905684 0.716365 0.183307
0.932113 0.770321 0.679072
0.966964 0.728283 0.885374
0.923369 0.628321 0.878218
0.923445 0.628412 0.878309
0.0866407 0.856077 0.113695
0.0938735 0.886168 0.120073
0.094667 0.890105 0.157122
0.524712 0.881621 0.327733
0.852979 0.881926 0.593591
0.878447 0.8963 0.713008
0.894438 0.90135 0.837278
0.928008 0.8701 0.916487
0.923445 0.628412 0.878294
0.639109 0.915358 0.763165
0.646036 0.917159 0.765667
0.653147 0.918044 0.768231
0.723186 0.918273 0.77232
0.883833 0.899367 0.748623
0.889357 0.901122 0.781674
0.895567 0.901518 0.860716
0.899886 0.903578 0.9075
0.899962 0.903655 0.907576
0.793256 0.918807 0.898543
0.809049 0.916304 0.896422
0.830259 0.912978 0.893553
0.876081 0.905013 0.886976
0.89633 0.901656 0.883207
0.896864 0.901961 0.888472
0.898817 0.902953 0.902037
0.899916 0.903624 0.907546
0.899962 0.90367 0.907576
0.899825 0.903563 0.907469
0.899825 0.903563 0.907469
0.899825 0.903563 0.907469
0.89984 0.903563 0.907485
0.899855 0.903578 0.907485
0.89987 0.903593 0.907515
0.899916 0.903624 0.907546
0.899947 0.903655 0.907576
0.899962 0.90367 0.907591
0.899947 0.903655 0.907576
0.899947 0.903655 0.907576
0.899947 0.903655 0.907576
0.899947 0.903655 0.907576
0.899947 0.903655 0.907576
0.899947 0.903655 0.907576
0.899962 0.90367 0.907591
0.899962 0.90367 0.907591
0.899977 0.90367 0.907591
0.625803 0.644709 0.781842
0.0960555 0.621576 0.243061
0.297047 0.608087 0.235065
0.357336 0.605295 0.20502
0.83093 0 0.356649
0.907439 0.403052 0.567697
0.933104 0.627619 0.841978
0.923415 0.628367 0.878264
0.923461 0.628412 0.878309
0.0151522 0.072343 0.554162
0.0257267 0.0530556 0.450416
0.733227 0 0.49778
0.747127 0.600381 0.384253
0.831052 0 0.357992
0.940398 0.550973 0.686046
0.93315 0.62768 0.8421
0.923415 0.628367 0.878264
0.923461 0.628412 0.878309
0.0858473 0.473503 0.504005
0.0342107 0.476371 0.513283
0.451575 0.441077 0.501411
0.80795 0.0792248 0.230671
0.845685 0.0197757 0.241657
0.941222 0.571496 0.713314
0.933104 0.627649 0.842222
0.923415 0.628367 0.878264
0.923445 0.628412 0.878309
0.621225 0.841596 0.621836
0.60322 0.828946 0.385306
0.0822156 0.765835 0.197986
0.760769 0.770916 0.410254
0.903838 0.711681 0.399695
0.937316 0.781079 0.753582
0.966857 0.727901 0.894835
0.9234 0.628351 0.878248
0.923445 0.628412 0.878309
0.0884565 0.867643 0.170764
0.095079 0.89395 0.239414
0.0944228 0.896544 0.292546
0.516991 0.891752 0.500343
0.867506 0.886412 0.667338
0.885023 0.897993 0.753872
0.895186 0.901259 0.851774
0.928252 0.869734 0.91664
0.923445 0.628412 0.878309
0.6392 0.916381 0.798886
0.64593 0.918395 0.802213
0.653956 0.919707 0.805051
0.736339 0.919142 0.808957
0.887922 0.899748 0.782422
0.891737 0.900893 0.807874
0.89601 0.901656 0.870619
0.899886 0.903593 0.907515
0.899962 0.90367 0.907576
0.791714 0.919036 0.90341
0.807187 0.916609 0.901381
0.829557 0.91313 0.898299
0.878447 0.904799 0.891493
0.896651 0.901793 0.888579
0.897215 0.902098 0.892882
0.899138 0.903181 0.903944
0.899916 0.903624 0.907546
0.899962 0.90367 0.907591
0.89984 0.903563 0.907485
0.89984 0.903563 0.907485
0.89984 0.903563 0.907485
0.89984 0.903563 0.907485
0.899855 0.903578 0.907485
0.89987 0.903593 0.907515
0.899916 0.903624 0.907546
0.899947 0.903655 0.907576
0.899962 0.90367 0.907591
0.899947 0.903655 0.907576
0.899947 0.903655 0.907576
0.899947 0.903655 0.907576
0.899947 0.903655 0.907576
0.899947 0.903655 0.907576
0.899947 0.903655 0.907576
0.899962 0.90367 0.907591
0.899962 0.90367 0.907591
0.899977 0.90367 0.907591
0.0797284 0.625086 0.309773
0.627344 0.64625 0.862989
0.801816 0.632502 0.854398
0.34609 0.605875 0.300069
0.388785 0.605447 0.290822
0.902617 0.41619 0.699794
0.928512 0.627802 0.862913
0.923415 0.628367 0.878264
0.923461 0.628412 0.878309
0.00724804 0.041886 0.689876
0.00892653 0.0390326 0.694102
0.798642 0.637293 0.860624
0.33402 0.601144 0.635493
0.828473 0 0.715892
0.936553 0.53257 0.755734
0.928557 0.627878 0.863005
0.923415 0.628382 0.878264
0.923461 0.628412 0.878309
0.60676 0.268284 0.818494
0.0264744 0.286885 0.768978
0.168688 0.156435 0.733135
0.8056 0.0804608 0.765576
0.849088 0.0168765 0.681559
0.942763 0.551263 0.778424
0.928527 0.627863 0.86305
0.923415 0.628367 0.878264
0.923461 0.628412 0.878309
0.622812 0.835599 0.774899
0.0782788 0.79939 0.780072
0.0856184 0.812634 0.805112
0.792508 0.785901 0.817578
0.920974 0.572671 0.688167
0.944503 0.782544 0.84332
0.964431 0.726497 0.915969
0.9234 0.628351 0.878248
0.923445 0.628412 0.878309
0.0738842 0.870649 0.622568
0.0862745 0.8878 0.726253
0.0901198 0.894484 0.736248
0.40763 0.894804 0.744808
0.88188 0.888518 0.815946
0.892912 0.897627 0.850599
0.896742 0.901747 0.888472
0.928206 0.869825 0.916609
0.923445 0.628412 0.878309
0.638712 0.915846 0.868574
0.644846 0.918212 0.873121
0.653559 0.920562 0.878065
0.753231 0.919799 0.882551
0.893141 0.899275 0.86186
0.895155 0.900755 0.871733
0.89752 0.902205 0.895796
0.899886 0.903593 0.907515
0.899962 0.90367 0.907576
0.786404 0.919387 0.915602
0.802319 0.916991 0.913405
0.824537 0.913725 0.910552
0.881773 0.904677 0.903029
0.898482 0.902647 0.902281
0.898985 0.903044 0.904173
0.899794 0.903502 0.907423
0.899916 0.903624 0.907546
0.899962 0.90367 0.907591
0.89984 0.903563 0.907485
0.89984 0.903563 0.907485
0.89984 0.903563 0.907485
0.89984 0.903563 0.907485
0.899855 0.903578 0.907485
0.89987 0.903593 0.907515
0.899916 0.903624 0.907546
0.899947 0.903655 0.907576
0.899962 0.90367 0.907591
0.899947 0.903655 0.907576
0.899947 0.903655 0.907576
0.899947 0.903655 0.907576
0.899947 0.903655 0.907576
0.899947 0.903655 0.907576
0.899947 0.903655 0.907576
0.899962 0.90367 0.907591
0.899962 0.90367 0.907591
0.899977 0.90367 0.907591
0.00563058 0.0323033 0.763699
0.00714122 0.0306401 0.772122
0.759991 0.632975 0.886336
0.880507 0.629831 0.88098
0.817121 0 0.771984
0.926299 0.516533 0.863508
0.923064 0.627955 0.877867
0.923415 0.628367 0.878264
0.923461 0.628412 0.878309
0.00547799 0.0347906 0.781201
0.00749218 0.0326085 0.774121
0.255177 0.0114748 0.793698
0.280095 0.0293584 0.280507
0.910002 0.188281 0.864851
0.916671 0.580758 0.858579
0.92311 0.628016 0.877928
0.923415 0.628367 0.878264
0.923461 0.628412 0.878309
0.0275731 0.271077 0.819013
0.0270085 0.250431 0.82092
0.141802 0.173281 0.832441
0.353063 0.684489 0.366155
0.834928 0.00939956 0.793866
0.923323 0.586419 0.865705
0.923095 0.627985 0.877913
0.923415 0.628367 0.878264
0.923461 0.628412 0.878309
0.600259 0.579522 0.790188
0.0822156 0.774914 0.871168
0.0914168 0.76788 0.882856
0.689677 0.647547 0.886122
0.912367 0.622599 0.891585
0.947112 0.79556 0.913054
0.95967 0.715251 0.924819
0.9234 0.628351 0.878248
0.923445 0.628412 0.878309
0.0834821 0.87335 0.860456
0.0899062 0.885023 0.877226
0.247608 0.890669 0.883909
0.601846 0.916716 0.914137
0.890181 0.893614 0.899489
0.897642 0.899779 0.903899
0.899474 0.903105 0.907057
0.928298 0.869673 0.916671
0.923445 0.628412 0.878309
0.639231 0.913252 0.909483
0.646479 0.91603 0.912886
0.654337 0.918532 0.916289
0.75082 0.919631 0.919921
0.897307 0.901183 0.905119
0.898695 0.902419 0.906371
0.89958 0.903273 0.90721
0.899886 0.903578 0.907515
0.899962 0.903655 0.907576
0.794247 0.917693 0.918547
0.80798 0.915633 0.916732
0.829648 0.912413 0.914
0.882185 0.904372 0.907256
0.899397 0.903166 0.907088
0.899596 0.903319 0.90724
0.899794 0.903502 0.907423
0.899916 0.903624 0.907546
0.899962 0.90367 0.907576
0.89984 0.903563 0.907485
0.89984 0.903563 0.907485
0.89984 0.903563 0.907485
0.89984 0.903563 0.907485
0.899855 0.903578 0.9075
0.899886 0.903593 0.907515
0.899916 0.903624 0.907546
0.899947 0.903655 0.907576
0.899962 0.90367 0.907591
0.899947 0.903655 0.907576
0.899947 0.903655 0.907576
0.899947 0.903655 0.907576
0.899947 0.903655 0.907576
0.899947 0.903655 0.907576
0.899947 0.903655 0.907576
0.899962 0.90367 0.907591
0.899962 0.90367 0.907591
0.899977 0.90367 0.907591
0.0799573 0.629679 0.343023
0.120699 0.611902 0.624033
0.246998 0.607095 0.857862
0.336996 0.607034 0.335302
0.923461 0.628428 0.878309
0.917342 0.589044 0.87219
0.923125 0.628016 0.877943
0.923415 0.628367 0.878264
0.923461 0.628412 0.878309
0.00486763 0.0314641 0.791333
0.0603037 0.0178683 0.797101
0.246937 0.0134585 0.791211
0.882826 0.629618 0.881041
0.377707 0.605829 0.33257
0.920607 0.610651 0.874144
0.923156 0.628061 0.877989
0.923415 0.628382 0.878279
0.923461 0.628412 0.878309
0.0189212 0.138857 0.809506
0.0323796 0.129992 0.816358
0.205203 0.0989853 0.825589
0.788251 0.0220951 0.793683
0.933303 0.631037 0.888823
0.921675 0.616648 0.875013
0.92314 0.628031 0.877974
0.923415 0.628367 0.878264
0.923461 0.628412 0.878309
0.0851606 0.726528 0.873075
0.0880903 0.734356 0.880552
0.0949874 0.72694 0.887144
0.69514 0.637919 0.886702
0.922179 0.503822 0.899855
0.953017 0.800732 0.926879
0.950118 0.664546 0.91107
0.9234 0.628351 0.878248
0.923445 0.628412 0.878309
0.0885328 0.882368 0.874952
0.0918898 0.888365 0.883497
0.32372 0.886564 0.883223
0.642802 0.91339 0.919219
0.890929 0.895354 0.904372
0.898085 0.901091 0.905547
0.899519 0.903166 0.907134
0.931823 0.864302 0.918486
0.923445 0.628412 0.878309
0.645701 0.916304 0.913085
0.651423 0.918303 0.91574
0.657893 0.920272 0.918334
0.764446 0.919142 0.919768
0.897841 0.901701 0.90573
0.898909 0.902632 0.906615
0.899626 0.903319 0.907256
0.899886 0.903593 0.907515
0.899962 0.903655 0.907576
0.804135 0.916259 0.917403
0.817365 0.914366 0.915648
0.83621 0.911421 0.913054
0.884718 0.904143 0.907134
0.899458 0.903227 0.907149
0.899626 0.903365 0.907286
0.899809 0.903517 0.907439
0.899916 0.903624 0.907546
0.899962 0.90367 0.907576
0.899855 0.903578 0.907485
0.899855 0.903578 0.907485
0.899855 0.903578 0.907485
0.899855 0.903578 0.9075
0.89987 0.903578 0.9075
0.899886 0.903593 0.907515
0.899916 0.903624 0.907546
0.899947 0.903655 0.907576
0.899962 0.90367 0.907591
0.899947 0.903655 0.907576
0.899947 0.903655 0.907576
0.899947 0.903655 0.907576
0.899947 0.903655 0.907576
0.899947 0.903655 0.907576
0.899947 0.903655 0.907576
0.899962 0.90367 0.907591
0.899962 0.90367 0.907591
0.899977 0.90367 0.907591
0.806256 0.632349 0.882445
0.835584 0.631769 0.880278
0.860883 0.630945 0.879271
0.891768 0.629313 0.881529
0.923461 0.628428 0.878309
0.921981 0.622614 0.87657
0.92314 0.628077 0.878004
0.923415 0.628382 0.878279
0.923461 0.628412 0.878309
0.807095 0.632334 0.882383
0.835859 0.631769 0.880262
0.861204 0.630915 0.879255
0.891844 0.629313 0.881529
0.923461 0.628428 0.878309
0.921981 0.624887 0.87689
0.923186 0.628122 0.87805
0.923415 0.628382 0.878279
0.923461 0.628412 0.878309
0.18761 0.0114443 0.784588
0.216358 0.0109255 0.782528
0.316457 0.0116732 0.787335
0.785611 0 0.775189
0.923461 0.628428 0.878309
0.922179 0.626337 0.877195
0.923201 0.628138 0.878065
0.923415 0.628382 0.878279
0.923461 0.628412 0.878309
0.130816 0.626749 0.878614
0.172335 0.620859 0.879286
0.261677 0.615274 0.886061
0.750225 0.567605 0.894911
0.963058 0.648966 0.932647
0.959228 0.718776 0.925139
0.92314 0.628077 0.878004
0.9234 0.628367 0.878264
0.923445 0.628412 0.878309
0.623362 0.913481 0.912627
0.629938 0.91548 0.915297
0.640116 0.917678 0.918242
0.757565 0.917113 0.920104
0.896117 0.900755 0.906157
0.898711 0.902373 0.906477
0.901473 0.901411 0.907454
0.948058 0.830518 0.926848
0.923445 0.628412 0.878309
0.660044 0.921584 0.91986
0.662913 0.922148 0.921004
0.668406 0.923232 0.922576
0.811841 0.914076 0.915373
0.89868 0.90248 0.906508
0.899245 0.902968 0.90695
0.899702 0.903395 0.907347
0.899901 0.903609 0.90753
0.899962 0.90367 0.907576
0.839887 0.910994 0.912596
0.849012 0.909529 0.911543
0.862409 0.907561 0.909697
0.892805 0.903639 0.907012
0.899596 0.903334 0.907271
0.899702 0.903426 0.907362
0.89984 0.903548 0.907469
0.899916 0.903624 0.907546
0.899962 0.90367 0.907591
0.89987 0.903593 0.907515
0.89987 0.903593 0.907515
0.89987 0.903593 0.907515
0.89987 0.903593 0.907515
0.899886 0.903593 0.907515
0.899901 0.903609 0.90753
0.899931 0.903639 0.907561
0.899947 0.903655 0.907576
0.899962 0.90367 0.907591
0.899947 0.903655 0.907576
0.899947 0.903655 0.907576
0.899947 0.903655 0.907576
0.899947 0.903655 0.907576
0.899947 0.903655 0.907576
0.899962 0.90367 0.907576
0.899962 0.90367 0.907591
0.899962 0.90367 0.907591
0.899977 0.90367 0.907591
0.898787 0.628962 0.881392
0.901015 0.628733 0.881163
0.904356 0.628656 0.881071
0.916182 0.628504 0.880018
0.913466 0.614664 0.876081
0.922545 0.62742 0.877623
0.923247 0.628199 0.878111
0.92343 0.628382 0.878279
0.923461 0.628412 0.878309
0.898924 0.628931 0.881376
0.901183 0.628733 0.881163
0.904448 0.628656 0.881056
0.916274 0.628504 0.879988
0.91722 0.622705 0.877287
0.922667 0.627604 0.877684
0.923278 0.628229 0.878141
0.92343 0.628397 0.878294
0.923461 0.628412 0.878309
0.356069 0.34551 0.844572
0.689174 0.569268 0.852811
0.784817 0.605203 0.87602
0.897429 0.621485 0.877531
0.921065 0.626749 0.877745
0.922866 0.627832 0.877806
0.923293 0.62826 0.878172
0.92343 0.628382 0.878279
0.923461 0.628412 0.878309
0.884077 0.625116 0.879515
0.890639 0.625834 0.879927
0.89778 0.626444 0.880156
0.912245 0.626688 0.87924
0.921843 0.627253 0.877714
0.92285 0.627817 0.877791
0.923262 0.628214 0.878141
0.923415 0.628382 0.878279
0.923445 0.628412 0.878309
0.863371 0.894286 0.90927
0.870207 0.893523 0.908751
0.878706 0.892927 0.908324
0.900191 0.890562 0.908614
0.913207 0.887266 0.909606
0.915999 0.8851 0.910872
0.929961 0.866957 0.917494
0.9234 0.628367 0.878264
0.923445 0.628412 0.878309
0.845685 0.909697 0.911589
0.854398 0.9084 0.910506
0.865827 0.906737 0.909041
0.893629 0.903334 0.906828
0.899367 0.90312 0.907103
0.89958 0.903304 0.907271
0.899794 0.903502 0.907439
0.899916 0.903624 0.907546
0.899962 0.90367 0.907591
0.898878 0.903441 0.907439
0.899687 0.903426 0.907362
0.899687 0.903426 0.907362
0.899702 0.903441 0.907378
0.899733 0.903471 0.907408
0.899794 0.903517 0.907454
0.89987 0.903578 0.907515
0.899931 0.903639 0.907561
0.899962 0.90367 0.907591
0.899901 0.903609 0.90753
0.899901 0.903609 0.90753
0.899901 0.903609 0.90753
0.899901 0.903609 0.90753
0.899901 0.903624 0.907546
0.899916 0.903624 0.907546
0.899931 0.903639 0.907561
0.899947 0.903655 0.907576
0.899962 0.90367 0.907591
0.899962 0.90367 0.907576
0.899962 0.90367 0.907576
0.899962 0.90367 0.907576
0.899962 0.90367 0.907576
0.899962 0.90367 0.907576
0.899962 0.90367 0.907591
0.899962 0.90367 0.907591
0.899962 0.90367 0.907591
0.899977 0.90367 0.907591
0.920439 0.627253 0.877806
0.920638 0.627298 0.877821
0.921065 0.62742 0.877882
0.92192 0.627588 0.877913
0.922683 0.627787 0.877867
0.923095 0.628077 0.878019
0.923339 0.628305 0.878218
0.92343 0.628397 0.878294
0.923461 0.628428 0.878309
0.921492 0.627558 0.877913
0.921599 0.627573 0.877913
0.921874 0.627634 0.877928
0.922332 0.627741 0.877913
0.922805 0.627863 0.877867
0.92314 0.628122 0.87805
0.923354 0.628321 0.878218
0.92343 0.628397 0.878294
0.923461 0.628428 0.878309
0.922652 0.627863 0.877913
0.922667 0.627863 0.877913
0.922728 0.627878 0.877913
0.92285 0.627924 0.877913
0.923033 0.628031 0.877974
0.923232 0.628199 0.878126
0.923369 0.628336 0.878248
0.923445 0.628397 0.878294
0.923461 0.628428 0.878309
0.922927 0.627955 0.877913
0.922957 0.627985 0.877943
0.923018 0.628031 0.877974
0.923033 0.628046 0.877989
0.92311 0.628107 0.878035
0.923232 0.628214 0.878126
0.923369 0.628336 0.878233
0.92343 0.628397 0.878294
0.923461 0.628412 0.878309
0.923049 0.628061 0.878004
0.923049 0.628061 0.878004
0.923049 0.628061 0.878004
0.923079 0.628077 0.878019
0.92314 0.628122 0.878065
0.923247 0.628214 0.878141
0.923354 0.628321 0.878233
0.92343 0.628397 0.878294
0.923445 0.628412 0.878309
0.899687 0.903426 0.907378
0.899687 0.903426 0.907378
0.899687 0.903426 0.907378
0.899702 0.903441 0.907378
0.899733 0.903456 0.907408
0.899794 0.903517 0.907454
0.899886 0.903593 0.907515
0.899931 0.903639 0.907561
0.923445 0.628412 0.878309
0.899825 0.903548 0.907485
0.89984 0.903548 0.907485
0.89984 0.903563 0.907485
0.89984 0.903563 0.907485
0.899855 0.903563 0.9075
0.89987 0.903593 0.907515
0.899916 0.903624 0.907546
0.899947 0.903655 0.907576
0.899962 0.90367 0.907591
0.899931 0.903639 0.907561
0.899931 0.903639 0.907561
0.899931 0.903639 0.907561
0.899916 0.903639 0.907561
0.899931 0.903639 0.907561
0.899931 0.903639 0.907561
0.899947 0.903655 0.907576
0.899962 0.90367 0.907591
0.899962 0.90367 0.907591
0.899962 0.90367 0.907591
0.899962 0.90367 0.907591
0.899962 0.90367 0.907591
0.899962 0.90367 0.907591
0.899962 0.90367 0.907591
0.899962 0.90367 0.907591
0.899962 0.90367 0.907591
0.899962 0.90367 0.907591
0.899977 0.90367 0.907591
