assets/luts/look_1.cube
TITLE "Generated by Resolve"
LUT_3D_SIZE 9
0.000854505 0.000183108 0.00576791
0.162554 0 0
0.548211 0 0
0.372381 0 0
0.809827 0 0
0.819211 0 0.136355
0.994553 0.994369 0.994415
0.995514 0.995483 0.995499
0.995636 0.995636 0.995636
0 0.0507515 0
0.0847944 0.114748 0
0.582483 0 0
0.807172 0 0
0.80853 0 0
0.817884 0 0.070222
0.994553 0.994369 0.994415
0.995499 0.995483 0.995483
0.995636 0.995636 0.995636
0.970123 0.892119 0.0935225
0 0.370703 0
0.387655 0.522255 0.0169528
0.948287 0.276783 0.0661936
0.900893 0.107012 0.05243
0.829892 0 0.125139
0.994522 0.994354 0.994385
0.995499 0.995468 0.995483
0.995636 0.995636 0.995636
0.983276 0.983276 0.852781
0.0589609 0.764111 0.0589609
0.0704356 0.837034 0.300313
0.836789 0.871138 0.076524
0.966461 0.833356 0.13994
0.989715 0.899199 0.783139
0.994461 0.994293 0.994324
0.995468 0.995453 0.995453
0.995636 0.995621 0.995636
0.0855421 0.943709 0.0855421
0.0860761 0.95787 0.0860761
0.0859998 0.96054 0.127489
0.790433 0.950622 0.363088
0.97084 0.969955 0.848096
0.99025 0.987259 0.985687
0.994583 0.994461 0.994507
0.995468 0.995438 0.995453
0.995636 0.995621 0.995621
0.984848 0.987549 0.986603
0.984955 0.98761 0.986679
0.985534 0.9879 0.98706
0.98732 0.988876 0.988357
0.990433 0.991028 0.990845
0.993347 0.993378 0.993378
0.994965 0.994934 0.994965
0.995499 0.995483 0.995499
0.995621 0.995621 0.995621
0.994171 0.994446 0.994369
0.994171 0.994446 0.994385
0.994202 0.994461 0.9944
0.994324 0.994537 0.994492
0.994583 0.994736 0.99469
0.99498 0.995041 0.995041
0.995361 0.995361 0.995377
0.99556 0.99556 0.99556
0.995636 0.995636 0.995636
0.995407 0.995453 0.995453
0.995407 0.995453 0.995453
0.995407 0.995453 0.995453
0.995422 0.995468 0.995453
0.995453 0.995483 0.995483
0.995499 0.995514 0.995514
0.99556 0.995575 0.995575
0.995621 0.995621 0.995621
0.995651 0.995651 0.995651
0.995621 0.995621 0.995621
0.995621 0.995621 0.995621
0.995621 0.995621 0.995621
0.995621 0.995621 0.995621
0.995621 0.995621 0.995621
0.995621 0.995636 0.995636
0.995636 0.995636 0.995636
0.995651 0.995651 0.995651
0.995651 0.995651 0.995651
0 0 0.0979934
0.558541 0 0.170474
0.0860761 0.958007 0.0860761
0.357549 0.931197 0.0730449
0.815702 0 0.0275578
0.947494 0.188006 0.453773
0.994751 0.994614 0.994644
0.995544 0.995514 0.995529
0.995651 0.995636 0.995651
0 0.130098 0.210864
0.0944076 0.089601 0.122301
0.514351 0 0
0.951888 0.784405 0.283604
0.813886 0 0.00125124
0.947768 0.515511 0.518608
0.994751 0.994598 0.994629
0.995529 0.995514 0.995514
0.995636 0.995636 0.995636
0.965911 0.854353 0.0876478
0 0.287846 0
0.467658 0.480201 0.0369116
0.939422 0.226978 0.0587778
0.81326 0 0
0.94403 0.699413 0.630076
0.994705 0.994553 0.994583
0.995514 0.995499 0.995499
0.995636 0.995636 0.995636
0.990158 0.990158 0.946532
0.955688 0.884047 0.337789
0.0793011 0.87744 0.0793011
0.83978 0.873732 0.0771191
0.965316 0.832074 0.173831
0.98616 0.927367 0.882109
0.994614 0.994461 0.994492
0.995499 0.995468 0.995483
0.995636 0.995636 0.995636
0.0843977 0.924178 0.0843977
0.0861982 0.956847 0.0861982
0.0852522 0.960754 0.143542
0.771084 0.94815 0.421958
0.970947 0.970535 0.869108
0.990539 0.987961 0.986679
0.994675 0.994568 0.994598
0.995483 0.995468 0.995468
0.995636 0.995621 0.995636
0.985656 0.9879 0.987182
0.985702 0.98793 0.987213
0.986084 0.988159 0.987488
0.987549 0.989029 0.988556
0.990478 0.991058 0.99089
0.993378 0.993408 0.993423
0.994995 0.994965 0.99498
0.995514 0.995499 0.995499
0.995636 0.995621 0.995636
0.994232 0.994492 0.99443
0.994232 0.994492 0.99443
0.994263 0.994507 0.994446
0.994354 0.994568 0.994522
0.994598 0.994751 0.994705
0.994995 0.995041 0.995041
0.995361 0.995361 0.995377
0.99556 0.99556 0.99556
0.995636 0.995636 0.995636
0.995422 0.995453 0.995453
0.995422 0.995453 0.995453
0.995422 0.995468 0.995453
0.995438 0.995468 0.995468
0.995453 0.995483 0.995483
0.995499 0.995514 0.995514
0.99556 0.995575 0.995575
0.995621 0.995621 0.995621
0.995651 0.995651 0.995651
0.995621 0.995621 0.995621
0.995621 0.995621 0.995621
0.995621 0.995621 0.995621
0.995621 0.995621 0.995621
0.995621 0.995621 0.995621
0.995621 0.995636 0.995636
0.995636 0.995636 0.995636
0.995651 0.995651 0.995651
0.995651 0.995651 0.995651
0.995651 0.995651 0.995651
0.0862135 0.958572 0.0926986
0.0864424 0.960433 0.1187
0.0860761 0.958007 0.0860761
0.818463 0 0.352712
0.942214 0.621195 0.636698
0.994965 0.994858 0.994873
0.995575 0.995575 0.995575
0.995651 0.995651 0.995651
0 0.0142672 0.615045
0 0 0.43476
0.819074 0 0.54815
0.735393 0.948867 0.382254
0.818479 0 0.353658
0.997116 0.86772 0.833463
0.995056 0.994965 0.994995
0.99559 0.995575 0.995575
0.995651 0.995651 0.995651
0.0932021 0.517037 0.589975
0.00695811 0.518059 0.596002
0.465537 0.452125 0.526741
0.818616 0 0.101656
0.819257 0 0.140108
0.990356 0.896117 0.868009
0.99501 0.994919 0.994934
0.995575 0.99556 0.99556
0.995651 0.995651 0.995651
0.983047 0.983047 0.849119
0.953063 0.945464 0.441947
0.0736248 0.826871 0.113085
0.852079 0.853086 0.462593
0.946334 0.813107 0.419974
0.98616 0.945098 0.925917
0.994858 0.994751 0.994766
0.995544 0.995529 0.995544
0.995636 0.995636 0.995636
0.0852522 0.939529 0.0869306
0.0836042 0.961028 0.177661
0.0780652 0.959182 0.258946
0.735485 0.949004 0.594751
0.97116 0.971176 0.905089
0.990753 0.988434 0.987366
0.994797 0.99469 0.99472
0.995529 0.995514 0.995514
0.995636 0.995636 0.995636
0.986191 0.988174 0.98761
0.986236 0.98819 0.987625
0.986496 0.988357 0.987808
0.987762 0.989151 0.988739
0.990524 0.991089 0.990936
0.993393 0.993408 0.993423
0.99501 0.99498 0.99501
0.995529 0.995514 0.995514
0.995636 0.995636 0.995636
0.994278 0.994537 0.994476
0.994278 0.994537 0.994476
0.994293 0.994537 0.994492
0.994385 0.994598 0.994537
0.994598 0.994751 0.99472
0.994995 0.995041 0.995041
0.995361 0.995361 0.995377
0.99556 0.99556 0.99556
0.995636 0.995636 0.995636
0.995422 0.995468 0.995453
0.995422 0.995468 0.995453
0.995422 0.995468 0.995453
0.995438 0.995468 0.995468
0.995453 0.995483 0.995483
0.995499 0.995514 0.995514
0.99556 0.995575 0.995575
0.995621 0.995621 0.995621
0.995651 0.995651 0.995651
0.995621 0.995621 0.995621
0.995621 0.995621 0.995621
0.995621 0.995621 0.995621
0.995621 0.995621 0.995621
0.995621 0.995621 0.995621
0.995621 0.995636 0.995636
0.995636 0.995636 0.995636
0.995651 0.995651 0.995651
0.995651 0.995651 0.995651
0.0860761 0.958007 0.0860761
0.995651 0.995651 0.995651
0.995651 0.995651 0.995651
0.0860761 0.958007 0.0860761
0.0860761 0.958007 0.0860761
0.944564 0.642481 0.755077
0.994965 0.994842 0.994873
0.995575 0.995575 0.995575
0.995651 0.995651 0.995651
0 0 0.712154
0 0 0.712184
0.995651 0.995651 0.995651
0.0650645 0.949493 0.640543
0.818921 0 0.794354
1 0.836423 0.848157
0.995056 0.994949 0.99498
0.99559 0.995575 0.995575
0.995651 0.995651 0.995651
0.961837 0.201556 0.937331
0 0.23035 0.84686
0.082536 0 0.750484
0.818906 0 0.795407
0.820813 0 0.687602
0.996689 0.862852 0.86389
0.995026 0.994919 0.994949
0.995575 0.995575 0.995575
0.995651 0.995651 0.995651
0.986267 0.982498 0.904616
0.0789502 0.907362 0.89424
0.0792096 0.910048 0.903014
0.869078 0.862776 0.895827
0.951049 0.55996 0.679149
0.984695 0.926528 0.916472
0.994858 0.994736 0.994766
0.995544 0.995529 0.995544
0.995651 0.995636 0.995651
0.0659037 0.94966 0.675578
0.0721599 0.952087 0.802365
0.071931 0.952056 0.797345
0.508888 0.94229 0.78764
0.973251 0.973297 0.95079
0.990845 0.988586 0.987869
0.994781 0.994675 0.994705
0.995514 0.995499 0.995514
0.995636 0.995636 0.995636
0.986816 0.988479 0.988113
0.986847 0.988495 0.988128
0.987106 0.988647 0.988312
0.988235 0.989395 0.989151
0.990738 0.991165 0.991089
0.993423 0.993423 0.993454
0.994995 0.99498 0.994995
0.995514 0.995514 0.995514
0.995636 0.995636 0.995636
0.994308 0.994553 0.994507
0.994324 0.994553 0.994507
0.994339 0.994553 0.994507
0.9944 0.994614 0.994568
0.994629 0.994766 0.994736
0.994995 0.995041 0.995041
0.995361 0.995361 0.995361
0.99556 0.99556 0.99556
0.995636 0.995636 0.995636
0.995422 0.995468 0.995468
0.995422 0.995468 0.995468
0.995438 0.995468 0.995468
0.995438 0.995468 0.995468
0.995453 0.995483 0.995483
0.995499 0.995514 0.995514
0.99556 0.995575 0.995575
0.995621 0.995621 0.995621
0.995651 0.995651 0.995651
0.995621 0.995621 0.995621
0.995621 0.995621 0.995621
0.995621 0.995621 0.995621
0.995621 0.995621 0.995621
0.995621 0.995621 0.995621
0.995621 0.995636 0.995636
0.995636 0.995636 0.995636
0.995651 0.995651 0.995651
0.995651 0.995651 0.995651
0 0 0.789288
0 0 0.796292
0.995651 0.995651 0.995651
0.995651 0.995651 0.995651
0.818433 0 0.818433
1 0.809171 0.970977
0.994995 0.994873 0.994919
0.995575 0.99556 0.995575
0.995651 0.995651 0.995651
0 0 0.818036
0 0 0.798932
0.153155 0 0.840421
0 0 0
0.97322 0.262089 0.97322
0.984329 0.916213 0.962753
0.995071 0.994965 0.99501
0.99559 0.995575 0.995575
0.995651 0.995651 0.995651
0 0.230716 0.879438
0 0.192203 0.876738
0.0829786 0.0485389 0.871153
0.0860761 0.958007 0.0860761
0.818433 0 0.818433
0.985153 0.924651 0.964248
0.995041 0.994934 0.99498
0.995575 0.99556 0.995575
0.995651 0.995651 0.995651
0.948241 0.573953 0.836683
0.0848554 0.884871 0.961379
0.0873426 0.858961 0.965362
0.75642 0.648234 0.952209
0.937667 0.644739 0.937667
0.988922 0.951751 0.970047
0.994888 0.994751 0.994797
0.995544 0.995529 0.995544
0.995651 0.995636 0.995636
0.081178 0.953277 0.950637
0.081178 0.953277 0.950683
0.335958 0.951995 0.947097
0.841077 0.980621 0.977142
0.979324 0.978897 0.982147
0.991775 0.989151 0.989487
0.994812 0.994705 0.994751
0.995514 0.995499 0.995514
0.995636 0.995636 0.995636
0.988251 0.989349 0.989334
0.988281 0.989364 0.989349
0.988495 0.989502 0.989502
0.989334 0.990127 0.990143
0.991211 0.991485 0.991531
0.99353 0.993561 0.993606
0.99501 0.994995 0.99501
0.995514 0.995499 0.995514
0.995636 0.995621 0.995636
0.994415 0.994598 0.994583
0.994415 0.994598 0.994583
0.99443 0.994614 0.994598
0.994492 0.994659 0.994644
0.99469 0.994797 0.994797
0.995026 0.995071 0.995071
0.995361 0.995361 0.995377
0.99556 0.99556 0.99556
0.995636 0.995636 0.995636
0.995438 0.995468 0.995468
0.995438 0.995468 0.995468
0.995438 0.995468 0.995468
0.995438 0.995468 0.995468
0.995468 0.995483 0.995483
0.995499 0.995514 0.995514
0.99556 0.995575 0.995575
0.995621 0.995621 0.995621
0.995636 0.995636 0.995651
0.995621 0.995621 0.995621
0.995621 0.995621 0.995621
0.995621 0.995621 0.995621
0.995621 0.995621 0.995621
0.995621 0.995621 0.995621
0.995621 0.995636 0.995636
0.995636 0.995636 0.995636
0.995651 0.995651 0.995651
0.995651 0.995651 0.995651
0.0860761 0.958007 0.0860761
0.0646525 0.950118 0.543877
0.0813458 0.953277 0.953277
0.0860761 0.958007 0.0860761
0.995651 0.995651 0.995651
0.985458 0.930022 0.985443
0.995087 0.99498 0.995041
0.995575 0.995575 0.995575
0.995651 0.995651 0.995651
0 0 0.832883
0 0 0.832883
0.0796521 0 0.842359
0.995651 0.995651 0.995651
0.0860761 0.958007 0.0860761
0.990906 0.966018 0.988693
0.995148 0.995056 0.995102
0.99559 0.995575 0.99559
0.995651 0.995651 0.995651
0 0.0585641 0.859556
0 0.0400092 0.856245
0.0713207 0.0197757 0.863859
0.818433 0 0.818433
0.995651 0.995651 0.995651
0.992676 0.976043 0.990143
0.995117 0.99501 0.995071
0.995575 0.995575 0.995575
0.995651 0.995651 0.995651
0.0896925 0.820829 0.969589
0.0897383 0.819089 0.969696
0.0886854 0.798703 0.969436
0.738994 0.646189 0.952407
0.948669 0.461402 0.948669
0.993194 0.980316 0.990372
0.99498 0.994858 0.994934
0.99556 0.995544 0.995544
0.995651 0.995636 0.995636
0.0813458 0.953277 0.953277
0.0813458 0.953277 0.953277
0.454398 0.941695 0.941695
0.883299 0.975464 0.985656
0.980575 0.981796 0.990265
0.992508 0.991363 0.992233
0.994904 0.994812 0.994888
0.995529 0.995499 0.995514
0.995636 0.995636 0.995636
0.990402 0.991043 0.991196
0.990417 0.991058 0.991211
0.990539 0.991119 0.991272
0.991012 0.991409 0.991562
0.992111 0.99237 0.992538
0.993881 0.993912 0.994003
0.995071 0.995056 0.995087
0.995529 0.995514 0.995514
0.995636 0.995621 0.995636
0.994598 0.994736 0.994751
0.994598 0.994736 0.994751
0.994614 0.994751 0.994766
0.994659 0.994781 0.994797
0.994812 0.994904 0.994919
0.995087 0.995132 0.995148
0.995377 0.995392 0.995407
0.99556 0.99556 0.995575
0.995636 0.995636 0.995636
0.995453 0.995483 0.995483
0.995453 0.995483 0.995483
0.995453 0.995483 0.995483
0.995453 0.995483 0.995483
0.995468 0.995499 0.995499
0.995514 0.995529 0.995529
0.99556 0.995575 0.995575
0.995621 0.995621 0.995621
0.995636 0.995636 0.995651
0.995621 0.995621 0.995621
0.995621 0.995621 0.995621
0.995621 0.995621 0.995621
0.995621 0.995621 0.995621
0.995621 0.995621 0.995621
0.995621 0.995636 0.995636
0.995636 0.995636 0.995636
0.995651 0.995651 0.995651
0.995651 0.995651 0.995651
0.995651 0.995651 0.995651
0.995651 0.995651 0.995651
0.995651 0.995651 0.995651
0.995651 0.995651 0.995651
0.995651 0.995651 0.995651
0.993194 0.985962 0.992752
0.995132 0.995087 0.995148
0.99559 0.995575 0.99559
0.995651 0.995651 0.995651
0.995651 0.995651 0.995651
0.995651 0.995651 0.995651
0.995651 0.995651 0.995651
0.995651 0.995651 0.995651
0.995651 0.995651 0.995651
0.993194 0.989776 0.993286
0.995209 0.995163 0.995209
0.99559 0.99559 0.99559
0.995651 0.995651 0.995651
0 0 0.832883
0 0 0.832883
0.0875563 0 0.842435
0.818433 0 0.818433
0.995651 0.995651 0.995651
0.99353 0.992187 0.993774
0.995224 0.995178 0.995239
0.99559 0.995575 0.99559
0.995651 0.995651 0.995651
0.0600137 0.689021 0.943313
0.0561379 0.676402 0.939651
0.111299 0.668986 0.949981
0.732754 0.618235 0.953185
0.997833 0.812421 0.997833
0.993286 0.992233 0.993683
0.995117 0.995071 0.995132
0.99556 0.995544 0.99556
0.995651 0.995636 0.995651
0.951888 0.985931 0.989883
0.953628 0.986053 0.990066
0.960098 0.986603 0.990784
0.976013 0.988418 0.992462
0.989227 0.990784 0.993255
0.993561 0.993484 0.993805
0.995071 0.995041 0.995102
0.995529 0.995529 0.995529
0.995636 0.995636 0.995636
0.992554 0.992935 0.993133
0.992569 0.992935 0.993149
0.99263 0.992981 0.993179
0.992874 0.993164 0.993362
0.9935 0.993667 0.993835
0.994446 0.994476 0.994583
0.995209 0.995193 0.995239
0.995544 0.995529 0.995544
0.995636 0.995636 0.995636
0.994873 0.994965 0.994995
0.994873 0.994965 0.994995
0.994888 0.99498 0.99501
0.994919 0.994995 0.995041
0.995026 0.995087 0.995117
0.995209 0.995239 0.99527
0.995422 0.995438 0.995453
0.995575 0.995575 0.995575
0.995636 0.995636 0.995636
0.995483 0.995499 0.995514
0.995483 0.995499 0.995514
0.995483 0.995499 0.995514
0.995483 0.995514 0.995514
0.995499 0.995529 0.995529
0.995529 0.995544 0.995544
0.995575 0.995575 0.99559
0.995621 0.995621 0.995621
0.995651 0.995651 0.995651
0.995621 0.995621 0.995621
0.995621 0.995621 0.995621
0.995621 0.995621 0.995621
0.995621 0.995621 0.995621
0.995621 0.995636 0.995636
0.995636 0.995636 0.995636
0.995636 0.995636 0.995636
0.995651 0.995651 0.995651
0.995651 0.995651 0.995651
0.995651 0.995651 0.995651
0.995651 0.995651 0.995651
0.995651 0.995651 0.995651
0.995651 0.995651 0.995651
0.979004 0.972717 0.991928
0.994141 0.994003 0.994507
0.9953 0.995285 0.995331
0.99559 0.99559 0.995605
0.995651 0.995651 0.995651
0.995651 0.995651 0.995651
0.995651 0.995651 0.995651
0.995651 0.995651 0.995651
0.995651 0.995651 0.995651
0.985275 0.986114 0.993942
0.994339 0.994278 0.994598
0.995346 0.995315 0.995361
0.995605 0.995605 0.995605
0.995651 0.995651 0.995651
0.0908217 0.523293 0.93434
0.642725 0.896544 0.948379
0.796277 0.956573 0.987243
0.964294 0.983963 0.991547
0.991684 0.992859 0.994705
0.994675 0.994675 0.994812
0.995392 0.995377 0.995407
0.995605 0.99559 0.995605
0.995651 0.995651 0.995651
0.97026 0.989349 0.99263
0.977722 0.990845 0.993606
0.983993 0.991974 0.994171
0.988693 0.992676 0.994492
0.992966 0.993698 0.994659
0.994644 0.994659 0.994781
0.995331 0.995315 0.995361
0.99559 0.995575 0.99559
0.995651 0.995651 0.995651
0.992721 0.993698 0.994263
0.992752 0.993698 0.994263
0.992844 0.993713 0.994263
0.993194 0.993805 0.994263
0.993896 0.994079 0.994324
0.99469 0.99472 0.994827
0.995315 0.9953 0.995346
0.99556 0.99556 0.995575
0.995636 0.995636 0.995636
0.994324 0.994476 0.994598
0.994324 0.994476 0.994598
0.994354 0.994492 0.994614
0.99443 0.994553 0.994675
0.994644 0.99472 0.994827
0.99501 0.995041 0.995102
0.995361 0.995361 0.995392
0.99556 0.99556 0.995575
0.995636 0.995636 0.995636
0.995178 0.995239 0.99527
0.995178 0.995239 0.99527
0.995193 0.995239 0.995285
0.995209 0.995254 0.995285
0.995254 0.9953 0.995331
0.995361 0.995392 0.995407
0.995499 0.995499 0.995514
0.99559 0.99559 0.99559
0.995636 0.995636 0.995636
0.995529 0.995544 0.995544
0.995529 0.995544 0.995544
0.995529 0.995544 0.995544
0.995529 0.995544 0.99556
0.995544 0.99556 0.99556
0.99556 0.995575 0.995575
0.99559 0.995605 0.995605
0.995621 0.995621 0.995636
0.995651 0.995651 0.995651
0.995636 0.995636 0.995636
0.995636 0.995636 0.995636
0.995636 0.995636 0.995636
0.995636 0.995636 0.995636
0.995636 0.995636 0.995636
0.995636 0.995636 0.995636
0.995636 0.995636 0.995636
0.995651 0.995651 0.995651
0.995651 0.995651 0.995651
0.990616 0.993713 0.994812
0.990936 0.99379 0.994842
0.991669 0.993988 0.994919
0.993072 0.994278 0.99498
0.994354 0.994598 0.994904
0.995056 0.995071 0.995148
0.995453 0.995453 0.995483
0.995621 0.995605 0.995621
0.995651 0.995651 0.995651
0.992386 0.994217 0.99498
0.992554 0.994247 0.99498
0.992996 0.994339 0.99501
0.99379 0.994507 0.994995
0.994568 0.99472 0.994919
0.995132 0.995148 0.995209
0.995483 0.995483 0.995499
0.995621 0.995621 0.995621
0.995651 0.995651 0.995651
0.994308 0.99472 0.994995
0.994339 0.994736 0.994995
0.994446 0.994751 0.99498
0.994644 0.994812 0.99498
0.994934 0.99501 0.995087
0.99527 0.995285 0.995331
0.995514 0.995514 0.995529
0.995621 0.995621 0.995621
0.995651 0.995651 0.995651
0.994751 0.994873 0.99498
0.994827 0.994934 0.995026
0.994919 0.99501 0.995087
0.994965 0.995041 0.995117
0.995071 0.995132 0.995193
0.995285 0.995315 0.995346
0.995499 0.995499 0.995514
0.995605 0.995605 0.995621
0.995651 0.995651 0.995651
0.994965 0.995056 0.995132
0.99498 0.995056 0.995132
0.99498 0.995056 0.995132
0.99501 0.995087 0.995163
0.995117 0.995163 0.995224
0.9953 0.995315 0.995361
0.995483 0.995483 0.995514
0.995605 0.995605 0.995605
0.995651 0.995651 0.995651
0.995178 0.995239 0.995285
0.995178 0.995239 0.995285
0.995178 0.995239 0.995285
0.995209 0.995254 0.9953
0.995254 0.9953 0.995346
0.995377 0.995392 0.995422
0.995499 0.995514 0.995529
0.995605 0.995605 0.995605
0.995636 0.995636 0.995651
0.995422 0.995453 0.995468
0.995422 0.995453 0.995468
0.995422 0.995453 0.995468
0.995438 0.995453 0.995483
0.995453 0.995468 0.995499
0.995499 0.995514 0.995529
0.99556 0.99556 0.995575
0.995621 0.995621 0.995621
0.995651 0.995651 0.995651
0.995575 0.99559 0.99559
0.995575 0.99559 0.99559
0.995575 0.99559 0.99559
0.995575 0.99559 0.99559
0.995575 0.99559 0.99559
0.99559 0.995605 0.995605
0.995621 0.995621 0.995621
0.995636 0.995636 0.995636
0.995651 0.995651 0.995651
0.995636 0.995636 0.995636
0.995636 0.995636 0.995636
0.995636 0.995636 0.995636
0.995636 0.995636 0.995636
0.995636 0.995636 0.995636
0.995636 0.995636 0.995636
0.995651 0.995651 0.995651
0.995651 0.995651 0.995651
0.995651 0.995651 0.995651
