assets/luts/look_1.cube
TITLE "Generated by Resolve"
LUT_3D_SIZE 5
0.000854505 0.000183108 0.00576791
0.548211 0 0
0.809827 0 0
0.994553 0.994369 0.994415
0.995636 0.995636 0.995636
0.970123 0.892119 0.0935225
0.387655 0.522255 0.0169528
0.900893 0.107012 0.05243
0.994522 0.994354 0.994385
0.995636 0.995636 0.995636
0.0855421 0.943709 0.0855421
0.0859998 0.96054 0.127489
0.97084 0.969955 0.848096
0.994583 0.994461 0.994507
0.995636 0.995621 0.995621
0.994171 0.994446 0.994369
0.994202 0.994461 0.9944
0.994583 0.994736 0.99469
0.995361 0.995361 0.995377
0.995636 0.995636 0.995636
0.995621 0.995621 0.995621
0.995621 0.995621 0.995621
0.995621 0.995621 0.995621
0.995636 0.995636 0.995636
0.995651 0.995651 0.995651
0.995651 0.995651 0.995651
0.0864424 0.960433 0.1187
0.818463 0 0.352712
0.994965 0.994858 0.994873
0.995651 0.995651 0.995651
0.0932021 0.517037 0.589975
0.465537 0.452125 0.526741
0.819257 0 0.140108
0.99501 0.994919 0.994934
0.995651 0.995651 0.995651
0.0852522 0.939529 0.0869306
0.0780652 0.959182 0.258946
0.97116 0.971176 0.905089
0.994797 0.99469 0.99472
0.995636 0.995636 0.995636
0.994278 0.994537 0.994476
0.994293 0.994537 0.994492
0.994598 0.994751 0.99472
0.995361 0.995361 0.995377
0.995636 0.995636 0.995636
0.995621 0.995621 0.995621
0.995621 0.995621 0.995621
0.995621 0.995621 0.995621
0.995636 0.995636 0.995636
0.995651 0.995651 0.995651
0 0 0.789288
0.995651 0.995651 0.995651
0.818433 0 0.818433
0.994995 0.994873 0.994919
0.995651 0.995651 0.995651
0 0.230716 0.879438
0.0829786 0.0485389 0.871153
0.818433 0 0.818433
0.995041 0.994934 0.99498
0.995651 0.995651 0.995651
0.081178 0.953277 0.950637
0.335958 0.951995 0.947097
0.979324 0.978897 0.982147
0.994812 0.994705 0.994751
0.995636 0.995636 0.995636
0.994415 0.994598 0.994583
0.99443 0.994614 0.994598
0.99469 0.994797 0.994797
0.995361 0.995361 0.995377
0.995636 0.995636 0.995636
0.995621 0.995621 0.995621
0.995621 0.995621 0.995621
0.995621 0.995621 0.995621
0.995636 0.995636 0.995636
0.995651 0.995651 0.995651
0.995651 0.995651 0.995651
0.995651 0.995651 0.995651
0.995651 0.995651 0.995651
0.995132 0.995087 0.995148
0.995651 0.995651 0.995651
0 0 0.832883
0.0875563 0 0.842435
0.995651 0.995651 0.995651
0.995224 0.995178 0.995239
0.995651 0.995651 0.995651
0.951888 0.985931 0.989883
0.960098 0.986603 0.990784
0.989227 0.990784 0.993255
0.995071 0.995041 0.995102
0.995636 0.995636 0.995636
0.994873 0.994965 0.994995
0.994888 0.99498 0.99501
0.995026 0.995087 0.995117
0.995422 0.995438 0.995453
0.995636 0.995636 0.995636
0.995621 0.995621 0.995621
0.995621 0.995621 0.995621
0.995621 0.995636 0.995636
0.995636 0.995636 0.995636
0.995651 0.995651 0.995651
0.990616 0.993713 0.994812
0.991669 0.993988 0.994919
0.994354 0.994598 0.994904
0.995453 0.995453 0.995483
0.995651 0.995651 0.995651
0.994308 0.99472 0.994995
0.994446 0.994751 0.99498
0.994934 0.99501 0.995087
0.995514 0.995514 0.995529
0.995651 0.995651 0.995651
0.994965 0.995056 0.995132
0.99498 0.995056 0.995132
0.995117 0.995163 0.995224
0.995483 0.995483 0.995514
0.995651 0.995651 0.995651
0.995422 0.995453 0.995468
0.995422 0.995453 0.995468
0.995453 0.995468 0.995499
0.99556 0.99556 0.995575
0.995651 0.995651 0.995651
0.995636 0.995636 0.995636
0.995636 0.995636 0.995636
0.995636 0.995636 0.995636
0.995651 0.995651 0.995651
0.995651 0.995651 0.995651
