assets/luts/look_1.cube
TITLE "Generated by Resolve"
LUT_3D_SIZE 65
0.000854505 0.000183108 0.00576791
0.0198978 0 0.00788891
0.0341497 0 0.00399786
0.0483864 0 0.000183108
0.0647288 0 0
0.0860151 0 0
0.112978 0 0
0.141222 0 0
0.162554 0 0
0.172595 0 0
0.188037 0 0
0.228214 0 0
0.425711 0 0
0.758801 0 0
0.684291 0 0
0.597421 0 0
0.548211 0 0
0.492546 0 0
0.43064 0 0
0.371908 0 0
0.317922 0 0
0.280049 0 0
0.267201 0 0
0.29131 0 0
0.372381 0 0
0.524727 0 0
0.722011 0 0
0.807172 0 0
0.950103 0.294652 0.0675212
0.961685 0.754131 0.125261
0.950729 0.926329 0.541024
0.807568 0 0
0.809827 0 0
0.811368 0 0
0.813321 0 0
0.814298 0 0.00672923
0.815534 0 0.0250248
0.816709 0 0.0447852
0.817777 0 0.0673991
0.818524 0 0.0980392
0.819211 0 0.136355
0.942931 0.604135 0.563149
0.987579 0.908522 0.878752
0.990356 0.967269 0.960388
0.992905 0.985687 0.984298
0.993225 0.991104 0.99089
0.99379 0.993103 0.993072
0.994232 0.993957 0.994003
0.994553 0.994369 0.994415
0.994812 0.994675 0.994705
0.994995 0.994888 0.994919
0.995148 0.995071 0.995087
0.995254 0.995193 0.995209
0.995346 0.9953 0.995315
0.995407 0.995377 0.995392
0.995468 0.995438 0.995453
0.995514 0.995483 0.995499
0.995544 0.995529 0.995529
0.995575 0.99556 0.99556
0.99559 0.995575 0.995575
0.995605 0.99559 0.995605
0.995621 0.995605 0.995621
0.995621 0.995621 0.995621
0.995636 0.995621 0.995621
0.995636 0.995636 0.995636
0 0.00910964 0.0081178
0.0105287 0.00695811 0.00709544
0.0203861 0.00471504 0.00480659
0.0314794 0.00190738 0.00201419
0.0435798 0 0
0.0589303 0 0
0.0785382 0 0
0.102129 0 0
0.128237 0 0
0.143069 0 0
0.158816 0 0
0.177127 0 0
0.49865 0 0
0.749676 0 0
0.807172 0 0
0.741665 0 0
0.661357 0 0
0.609751 0 0
0.558282 0 0
0.500908 0 0
0.444953 0 0
0.408652 0 0
0.398184 0 0
0.417182 0 0
0.486381 0 0
0.612253 0 0
0.803922 0 0
0.807172 0 0
0.951705 0.349462 0.0677806
0.963149 0.779538 0.140047
0.952773 0.874861 0.360052
0.807706 0 0
0.809628 0 0
0.811566 0 0
0.812482 0 0
0.813367 0 0
0.814466 0 0.00926223
0.815793 0 0.0289921
0.817487 0 0.0605173
0.818448 0 0.0944839
0.81915 0 0.131884
0.941649 0.613458 0.56849
0.987182 0.91014 0.881529
0.990417 0.96759 0.96083
0.992905 0.985779 0.984405
0.993225 0.991119 0.990906
0.993805 0.993103 0.993072
0.994232 0.993957 0.994003
0.994553 0.994369 0.994415
0.994797 0.994675 0.994705
0.994995 0.994888 0.994919
0.995148 0.995071 0.995087
0.995254 0.995193 0.995209
0.995346 0.9953 0.995315
0.995407 0.995377 0.995392
0.995468 0.995438 0.995453
0.995514 0.995483 0.995499
0.995544 0.995529 0.995529
0.995575 0.99556 0.99556
0.99559 0.995575 0.995575
0.995605 0.99559 0.995605
0.995621 0.995605 0.995621
0.995621 0.995621 0.995621
0.995636 0.995621 0.995636
0.995636 0.995636 0.995636
0 0.0153506 0.00343328
0.00132753 0.0144808 0.00479133
0.0178531 0.0144045 0.0103914
0.0292515 0.0129854 0.00891127
0.0442664 0.0105287 0.00560006
0.0692912 0.00520333 0
0.112551 0 0
0.156405 0 0
0.185519 0 0
0.224994 0 0
0.271778 0 0
0.312001 0 0
0.450065 0 0
0.728405 0 0
0.807172 0 0
0.807172 0 0
0.786709 0 0
0.72874 0 0
0.676417 0 0
0.61883 0 0
0.574075 0 0
0.5355 0 0
0.516258 0 0
0.535393 0 0
0.588602 0 0
0.705303 0 0
0.807172 0 0
0.807172 0 0
0.948821 0.392157 0.0641031
0.964431 0.801892 0.153109
0.945876 0.507088 0.0604105
0.807736 0 0
0.809277 0 0
0.811688 0 0
0.812177 0 0
0.813077 0 0
0.814023 0 0.00300603
0.815213 0 0.0201877
0.81648 0 0.0404517
0.817899 0 0.0706188
0.819013 0 0.121935
0.940734 0.621225 0.573602
0.986847 0.911543 0.883574
0.990478 0.967895 0.961242
0.992905 0.98584 0.984482
0.993225 0.991135 0.990921
0.993805 0.993103 0.993088
0.994232 0.993973 0.994003
0.994553 0.994369 0.994415
0.994797 0.994675 0.994705
0.994995 0.994888 0.994919
0.995148 0.995071 0.995087
0.995254 0.995193 0.995209
0.995346 0.9953 0.995315
0.995407 0.995377 0.995392
0.995468 0.995438 0.995453
0.995514 0.995483 0.995499
0.995544 0.995529 0.995529
0.995575 0.99556 0.99556
0.99559 0.995575 0.995575
0.995605 0.99559 0.995605
0.995621 0.995605 0.995621
0.995621 0.995621 0.995621
0.995636 0.995621 0.995636
0.995636 0.995636 0.995636
0 0.0201419 0
0 0.0206912 0.00158694
0.00955215 0.0221714 0.00622568
0.0249943 0.0222477 0.0106203
0.0419623 0.0194858 0.0115663
0.0623331 0.0162814 0.00646983
0.0966812 0.0100557 0
0.137331 0.00172427 0
0.170718 0 0
0.199466 0 0
0.27361 0 0
0.369741 0 0
0.495918 0 0
0.62002 0 0
0.806332 0 0
0.807172 0 0
0.807172 0 0
0.807172 0 0
0.791836 0 0
0.744762 0 0
0.689265 0 0
0.644205 0 0
0.62182 0 0
0.631525 0 0
0.688563 0 0
0.794293 0 0
0.807172 0 0
0.807172 0 0
0.945907 0.42652 0.0607309
0.964935 0.823392 0.1664
0.807553 0 0
0.807767 0 0
0.808713 0 0
0.811566 0 0
0.811917 0 0
0.81294 0 0
0.813748 0 0
0.814893 0 0.0154116
0.816114 0 0.0341497
0.817349 0 0.0572671
0.818311 0 0.0896162
0.940047 0.628305 0.578439
0.986481 0.912947 0.885878
0.990539 0.968185 0.961624
0.992905 0.985931 0.984588
0.993225 0.99115 0.990936
0.993805 0.993118 0.993088
0.994232 0.993973 0.994003
0.994553 0.994369 0.994415
0.994797 0.994675 0.994705
0.994995 0.994888 0.994919
0.995148 0.995071 0.995087
0.995254 0.995193 0.995209
0.995346 0.9953 0.995315
0.995407 0.995377 0.995392
0.995468 0.995438 0.995453
0.995514 0.995483 0.995499
0.995544 0.995529 0.995529
0.995575 0.99556 0.99556
0.99559 0.995575 0.995575
0.995605 0.99559 0.99559
0.995621 0.995605 0.995621
0.995621 0.995621 0.995621
0.995636 0.995621 0.995636
0.995636 0.995636 0.995636
0 0.0257572 0
0 0.0280613 0
0 0.0307469 0.00112917
0.0158846 0.0338903 0.00576791
0.0356451 0.0332952 0.00952163
0.0583505 0.028748 0.0124056
0.0893111 0.0229343 0.00450141
0.132784 0.0151522 0
0.163684 0.00865187 0
0.193576 0 0
0.228855 0 0
0.295567 0 0
0.389807 0 0
0.532845 0 0
0.678691 0 0
0.807172 0 0
0.807172 0 0
0.807172 0 0
0.807172 0 0
0.807172 0 0
0.807172 0 0
0.782071 0 0
0.757549 0 0
0.756313 0 0
0.803601 0 0
0.807172 0 0
0.807172 0 0
0.807172 0 0
0.943786 0.462562 0.0583352
0.966384 0.845487 0.180789
0.807187 0 0
0.807736 0 0
0.808392 0 0
0.811399 0 0
0.811734 0 0
0.81294 0 0
0.813672 0 0
0.814679 0 0.012192
0.815778 0 0.0287938
0.816999 0 0.0500954
0.818097 0 0.0787823
0.939529 0.636591 0.584329
0.98613 0.914488 0.888365
0.9906 0.968551 0.962097
0.992905 0.986007 0.98468
0.993225 0.99118 0.990967
0.993805 0.993118 0.993088
0.994232 0.993973 0.994003
0.994553 0.994385 0.994415
0.994797 0.994675 0.994705
0.994995 0.994888 0.994919
0.995148 0.995071 0.995087
0.995254 0.995193 0.995209
0.995346 0.9953 0.995315
0.995407 0.995377 0.995392
0.995468 0.995438 0.995453
0.995514 0.995483 0.995499
0.995544 0.995529 0.995529
0.99556 0.995544 0.99556
0.99559 0.995575 0.995575
0.995605 0.99559 0.99559
0.995621 0.995605 0.995605
0.995621 0.995621 0.995621
0.995636 0.995621 0.995621
0.995636 0.995636 0.995636
0 0.0320439 0
0 0.0368505 0
0 0.0417792 0
0.00268559 0.0455482 0
0.0233768 0.0492256 0.00341802
0.0502174 0.0473182 0.00660716
0.0818189 0.0399634 0.0104219
0.121324 0.0322271 0
0.156939 0.0258793 0
0.187716 0.0188449 0
0.214832 0.0101472 0
0.274022 0 0
0.345846 0 0
0.420951 0 0
0.572366 0 0
0.752682 0 0
0.807172 0 0
0.807172 0 0
0.807172 0 0
0.807172 0 0
0.807172 0 0
0.807172 0 0
0.807172 0 0
0.807172 0 0
0.807172 0 0
0.807172 0 0
0.807172 0 0
0.807172 0 0
0.945312 0.500023 0.0597696
0.92343 0.17142 0.0444495
0.807187 0 0
0.807599 0 0
0.808408 0 0
0.811215 0 0
0.811673 0 0
0.813046 0 0
0.813748 0 0
0.814694 0 0.0123445
0.815702 0 0.0274815
0.816754 0 0.0456245
0.817899 0 0.0707256
0.939315 0.645197 0.591455
0.985519 0.915999 0.890959
0.990677 0.968902 0.96257
0.992905 0.986099 0.984787
0.99324 0.991196 0.990982
0.993805 0.993133 0.993103
0.994232 0.993973 0.994003
0.994553 0.994385 0.994415
0.994797 0.994675 0.994705
0.994995 0.994888 0.994919
0.995148 0.995071 0.995087
0.995254 0.995193 0.995209
0.995346 0.9953 0.995315
0.995422 0.995377 0.995392
0.995468 0.995438 0.995453
0.995514 0.995483 0.995499
0.995544 0.995529 0.995529
0.99556 0.995544 0.99556
0.99559 0.995575 0.995575
0.995605 0.99559 0.99559
0.995605 0.995605 0.995605
0.995621 0.995621 0.995621
0.995636 0.995621 0.995621
0.995636 0.995636 0.995636
0 0.0387427 0
0 0.046067 0
0 0.0534829 0
0 0.0590982 0
0.00660716 0.0644541 0
0.0344396 0.0686809 0.000274662
0.0676585 0.0651408 0.00157168
0.100862 0.0584268 0
0.137301 0.0506294 0
0.175402 0.0410468 0
0.2112 0.0303044 0
0.258549 0.0174258 0
0.329625 0 0
0.39968 0 0
0.477043 0 0
0.616831 0 0
0.807172 0 0
0.807172 0 0
0.807172 0 0
0.807172 0 0
0.807172 0 0
0.807172 0 0
0.807172 0 0
0.807172 0 0
0.807172 0 0
0.807172 0 0
0.807172 0 0
0.807172 0 0
0.948806 0.533883 0.0633097
0.807172 0 0
0.807202 0 0
0.807385 0 0
0.808728 0 0
0.810193 0 0
0.811688 0 0
0.813199 0 0
0.813901 0 0.00148013
0.814801 0 0.0139162
0.815763 0 0.0284733
0.816754 0 0.0455787
0.817746 0 0.0666209
0.93962 0.654994 0.59997
0.98526 0.917784 0.893431
0.990753 0.969345 0.963104
0.992905 0.986191 0.984894
0.99324 0.991211 0.991012
0.993805 0.993133 0.993103
0.994232 0.993973 0.994003
0.994553 0.994385 0.994415
0.994797 0.994675 0.994705
0.994995 0.994888 0.994919
0.995148 0.995071 0.995087
0.995254 0.995193 0.995209
0.995346 0.9953 0.995315
0.995422 0.995377 0.995392
0.995468 0.995438 0.995453
0.995514 0.995483 0.995499
0.995544 0.995529 0.995529
0.99556 0.995544 0.99556
0.99559 0.995575 0.995575
0.995605 0.99559 0.99559
0.995605 0.995605 0.995605
0.995621 0.995621 0.995621
0.995636 0.995621 0.995621
0.995636 0.995636 0.995636
0 0.044358 0
0 0.0547494 0
0 0.0661326 0
0 0.0746319 0
0 0.0821698 0
0.00637827 0.0880598 0
0.0397498 0.0915694 0
0.0755474 0.0887617 0
0.109758 0.0818799 0
0.152102 0.0731975 0
0.202167 0.0593423 0
0.244663 0.0434272 0
0.313878 0.0240177 0
0.389334 0.00125124 0
0.456291 0 0
0.532036 0 0
0.67219 0 0
0.807172 0 0
0.807172 0 0
0.807172 0 0
0.807172 0 0
0.807172 0 0
0.807172 0 0
0.807172 0 0
0.807172 0 0
0.807172 0 0
0.807172 0 0
0.807172 0 0
0.807172 0 0
0.807172 0 0
0.807187 0 0
0.807309 0 0
0.808728 0 0
0.80975 0 0
0.811688 0 0
0.813291 0 0
0.814054 0 0.00358587
0.814969 0 0.0164797
0.8159 0 0.0305943
0.816846 0 0.047303
0.817777 0 0.0675364
0.940047 0.664485 0.609003
0.985031 0.919631 0.895842
0.990829 0.969757 0.963561
0.992905 0.986282 0.985016
0.99324 0.991241 0.991043
0.993805 0.993133 0.993103
0.994232 0.993973 0.994003
0.994553 0.994385 0.994415
0.994797 0.994675 0.99469
0.994995 0.994888 0.994919
0.995132 0.995056 0.995087
0.995254 0.995193 0.995209
0.995346 0.9953 0.995315
0.995407 0.995377 0.995392
0.995468 0.995438 0.995438
0.995514 0.995483 0.995483
0.995544 0.995529 0.995529
0.99556 0.995544 0.99556
0.99559 0.995575 0.995575
0.995605 0.99559 0.99559
0.995605 0.995605 0.995605
0.995621 0.995621 0.995621
0.995636 0.995621 0.995621
0.995636 0.995636 0.995636
0 0.0507515 0
0 0.0622416 0
0 0.0783703 0
0 0.0910353 0
0 0.101411 0
0 0.109148 0
0.000793469 0.115724 0
0.0428931 0.118318 0
0.0847944 0.114748 0
0.125887 0.106065 0
0.180789 0.0933394 0
0.229999 0.0780346 0
0.298482 0.0550393 0
0.376776 0.0318608 0
0.445594 0.00674449 0
0.514076 0 0
0.582483 0 0
0.742763 0 0
0.807172 0 0
0.807172 0 0
0.807172 0 0
0.807172 0 0
0.807172 0 0
0.807172 0 0
0.807172 0 0
0.807172 0 0
0.807172 0 0
0.807172 0 0
0.807172 0 0
0.807172 0 0
0.807172 0 0
0.80734 0 0
0.80853 0 0
0.809506 0 0
0.811719 0 0
0.813382 0 0
0.814206 0 0.00572213
0.815137 0 0.0188449
0.816068 0 0.0333715
0.816999 0 0.0500343
0.817884 0 0.070222
0.941238 0.67509 0.619455
0.985016 0.921523 0.898695
0.990921 0.970214 0.96408
0.992905 0.986389 0.985153
0.993255 0.991257 0.991058
0.993805 0.993149 0.993118
0.994232 0.993973 0.994003
0.994553 0.994369 0.994415
0.994797 0.994659 0.99469
0.994995 0.994888 0.994919
0.995148 0.995056 0.995087
0.995254 0.995193 0.995209
0.995346 0.9953 0.995315
0.995407 0.995377 0.995392
0.995468 0.995438 0.995453
0.995499 0.995483 0.995483
0.995544 0.995529 0.995529
0.99556 0.995544 0.99556
0.99559 0.995575 0.995575
0.995605 0.99559 0.99559
0.995605 0.995605 0.995605
0.995621 0.995621 0.995621
0.995636 0.995621 0.995621
0.995636 0.995636 0.995636
0 0.0603647 0
0 0.0687877 0
0 0.0904097 0
0 0.107668 0
0 0.1205 0
0 0.130571 0
0 0.138155 0
0 0.146395 0
0.0439612 0.14876 0
0.0933089 0.144503 0
0.149691 0.131579 0
0.213504 0.113924 0
0.280354 0.0941634 0
0.362615 0.0659648 0
0.433463 0.0401007 0
0.503258 0.0115969 0
0.570047 0 0
0.635294 0 0
0.807172 0 0
0.807172 0 0
0.807172 0 0
0.807172 0 0
0.807172 0 0
0.807172 0 0
0.807172 0 0
0.807172 0 0
0.807172 0 0
0.807172 0 0
0.807172 0 0
0.807172 0 0
0.807172 0 0
0.807401 0 0
0.807996 0 0
0.809445 0 0
0.811688 0 0
0.813458 0 0
0.814343 0 0.00749218
0.81529 0 0.0213779
0.816251 0 0.0365759
0.817182 0 0.0537423
0.818021 0 0.0741436
0.942809 0.686641 0.630747
0.984878 0.923644 0.901473
0.991028 0.970718 0.964752
0.992905 0.986496 0.985275
0.993255 0.991287 0.991089
0.993805 0.993149 0.993118
0.994232 0.993973 0.994003
0.994553 0.994369 0.994415
0.994797 0.994659 0.994705
0.994995 0.994888 0.994919
0.995132 0.995056 0.995087
0.995254 0.995193 0.995209
0.995346 0.9953 0.9953
0.995407 0.995377 0.995377
0.995468 0.995438 0.995438
0.995499 0.995483 0.995483
0.995544 0.995514 0.995529
0.99556 0.995544 0.99556
0.99559 0.995575 0.995575
0.995605 0.99559 0.99559
0.995605 0.995605 0.995605
0.995621 0.995621 0.995621
0.995636 0.995621 0.995636
0.995636 0.995636 0.995636
0 0.0807355 0
0 0.0829328 0
0 0.102037 0
0 0.124651 0
0 0.141695 0
0 0.153979 0
0 0.162036 0
0 0.167803 0
0 0.179034 0
0.0445869 0.184146 0
0.105608 0.180545 0
0.178759 0.163058 0
0.2551 0.141787 0
0.343099 0.113298 0
0.421973 0.0799268 0
0.491554 0.0540475 0
0.564385 0.0198062 0
0.620233 0 0
0.707118 0 0
0.807172 0 0
0.807172 0 0
0.807172 0 0
0.807172 0 0
0.807172 0 0
0.807172 0 0
0.807172 0 0
0.807172 0 0
0.807172 0 0
0.807172 0 0
0.807172 0 0
0.807172 0 0
0.807355 0 0
0.807813 0 0
0.809354 0 0
0.811658 0 0
0.813504 0 0
0.814466 0 0.00932326
0.815442 0 0.0235752
0.816434 0 0.0397345
0.81738 0 0.0577707
0.818097 0 0.0787213
0.944793 0.69929 0.643244
0.984817 0.925856 0.90425
0.991135 0.971252 0.965469
0.992905 0.986618 0.985428
0.993255 0.991302 0.991119
0.993805 0.993149 0.993133
0.994232 0.993973 0.994003
0.994553 0.994369 0.994415
0.994797 0.994659 0.99469
0.994995 0.994888 0.994919
0.995132 0.995056 0.995071
0.995254 0.995193 0.995209
0.995346 0.9953 0.9953
0.995407 0.995377 0.995392
0.995468 0.995438 0.995438
0.995499 0.995483 0.995483
0.995544 0.995514 0.995529
0.99556 0.995544 0.99556
0.99559 0.995575 0.995575
0.995605 0.99559 0.99559
0.995621 0.995605 0.995605
0.995621 0.995621 0.995621
0.995636 0.995621 0.995636
0.995636 0.995636 0.995636
0 0.124071 0
0 0.107576 0
0 0.115099 0
0 0.138628 0
0 0.160433 0
0 0.174044 0
0 0.185428 0
0 0.1944 0
0 0.2009 0
0.00137331 0.213672 0
0.0609903 0.223545 0
0.131762 0.222095 0
0.217624 0.199374 0
0.311025 0.17232 0
0.404532 0.141115 0
0.481804 0.1037 0
0.557595 0.0749065 0
0.621195 0.0377356 0
0.677012 0 0
0.76495 0 0
0.807172 0 0
0.807172 0 0
0.807172 0 0
0.807172 0 0
0.807172 0 0
0.807172 0 0
0.807172 0 0
0.807172 0 0
0.807172 0 0
0.807172 0 0
0.807172 0 0
0.807233 0 0
0.807691 0 0
0.809247 0 0
0.811582 0 0
0.813458 0 0
0.814618 0 0.0113069
0.815579 0 0.0257877
0.816587 0 0.0425574
0.817548 0 0.0618448
0.818189 0 0.0840162
0.947646 0.713481 0.656596
0.984695 0.928084 0.907027
0.991318 0.971786 0.966262
0.992889 0.986755 0.98558
0.993255 0.991333 0.99115
0.993805 0.993149 0.993133
0.994232 0.993973 0.994003
0.994553 0.994369 0.9944
0.994797 0.994659 0.99469
0.99498 0.994888 0.994904
0.995132 0.995056 0.995071
0.995254 0.995193 0.995209
0.995346 0.9953 0.9953
0.995407 0.995377 0.995377
0.995468 0.995438 0.995438
0.995499 0.995483 0.995483
0.995544 0.995514 0.995529
0.99556 0.995544 0.99556
0.99559 0.995575 0.995575
0.995605 0.99559 0.99559
0.995605 0.995605 0.995605
0.995621 0.995621 0.995621
0.995636 0.995621 0.995636
0.995636 0.995636 0.995636
0 0.234791 0
0 0.147662 0
0 0.137331 0
0 0.147723 0
0 0.172107 0
0 0.195941 0
0 0.216663 0
0 0.231678 0
0 0.242542 0
0 0.249027 0
0 0.26331 0
0.0751659 0.272175 0
0.163256 0.26949 0
0.263737 0.244236 0
0.370138 0.213947 0
0.464225 0.18088 0
0.548577 0.136889 0
0.622705 0.107225 0
0.681712 0.0666514 0
0.742718 0 0
0.801648 0 0
0.807172 0 0
0.807172 0 0
0.807172 0 0
0.807172 0 0
0.807172 0 0
0.807172 0 0
0.807172 0 0
0.807172 0 0
0.807172 0 0
0.807172 0 0
0.807202 0 0
0.807599 0 0
0.809033 0 0
0.811429 0 0
0.813397 0 0
0.814725 0 0.0128939
0.815732 0 0.0280156
0.816724 0 0.0450294
0.8177 0 0.0653697
0.818311 0 0.0895247
0.951324 0.729686 0.671397
0.984634 0.930358 0.909987
0.991501 0.972335 0.967086
0.992889 0.986862 0.985718
0.993271 0.991363 0.991165
0.993805 0.993164 0.993133
0.994232 0.993973 0.994003
0.994537 0.994369 0.9944
0.994797 0.994659 0.99469
0.99498 0.994873 0.994904
0.995132 0.995056 0.995071
0.995239 0.995178 0.995193
0.995331 0.995285 0.9953
0.995407 0.995377 0.995377
0.995453 0.995422 0.995438
0.995499 0.995483 0.995483
0.995529 0.995514 0.995529
0.99556 0.995544 0.99556
0.99559 0.995575 0.995575
0.995605 0.99559 0.99559
0.995605 0.995605 0.995605
0.995621 0.995621 0.995621
0.995621 0.995621 0.995621
0.995636 0.995636 0.995636
0.486091 0.456458 0.0116732
0 0.256977 0
0 0.173816 0
0 0.166995 0
0 0.179232 0
0 0.217319 0
0 0.248447 0
0 0.270542 0
0 0.284611 0
0 0.293416 0
0 0.299351 0
0.000595102 0.317784 0
0.0924239 0.331167 0
0.201663 0.327962 0
0.318959 0.299641 0
0.430747 0.267659 0
0.52636 0.232792 0.00199893
0.615625 0.182757 0.00704967
0.685069 0.153079 0.0130617
0.753277 0.107408 0.00758373
0.810178 0.0339513 0
0.819944 0 0
0.807172 0 0
0.807172 0 0
0.807172 0 0
0.807172 0 0
0.807172 0 0
0.807172 0 0
0.807172 0 0
0.807172 0 0
0.807172 0 0
0.807187 0 0
0.807507 0 0
0.808789 0 0
0.811292 0 0
0.813382 0 0
0.814832 0 0.0143587
0.815854 0 0.0299382
0.816876 0 0.0478676
0.817823 0 0.0686809
0.818433 0 0.0936751
0.955306 0.747372 0.687053
0.984909 0.932784 0.913329
0.991623 0.972946 0.96788
0.992889 0.986999 0.98587
0.993271 0.991379 0.991196
0.993805 0.993164 0.993133
0.994232 0.993973 0.994003
0.994537 0.994369 0.9944
0.994781 0.994659 0.994675
0.99498 0.994873 0.994904
0.995132 0.995056 0.995071
0.995239 0.995178 0.995193
0.995331 0.995285 0.9953
0.995407 0.995361 0.995377
