assets/luts/look_preview.cube
TITLE "Generated by Resolve"
LUT_3D_SIZE 33
0.000854505 0.000183108 0.00576791
0.0341497 0 0.00399786
0.0647288 0 0
0.112978 0 0
0.162554 0 0
0.188037 0 0
0.425711 0 0
0.684291 0 0
0.548211 0 0
0.43064 0 0
0.317922 0 0
0.267201 0 0
0.372381 0 0
0.722011 0 0
0.950103 0.294652 0.0675212
0.950729 0.926329 0.541024
0.809827 0 0
0.813321 0 0
0.815534 0 0.0250248
0.817777 0 0.0673991
0.819211 0 0.136355
0.987579 0.908522 0.878752
0.992905 0.985687 0.984298
0.99379 0.993103 0.993072
0.994553 0.994369 0.994415
0.994995 0.994888 0.994919
0.995254 0.995193 0.995209
0.995407 0.995377 0.995392
0.995514 0.995483 0.995499
0.995575 0.99556 0.99556
0.995605 0.99559 0.995605
0.995621 0.995621 0.995621
0.995636 0.995636 0.995636
0 0.0153506 0.00343328
0.0178531 0.0144045 0.0103914
0.0442664 0.0105287 0.00560006
0.112551 0 0
0.185519 0 0
0.271778 0 0
0.450065 0 0
0.807172 0 0
0.786709 0 0
0.676417 0 0
0.574075 0 0
0.516258 0 0
0.588602 0 0
0.807172 0 0
0.948821 0.392157 0.0641031
0.945876 0.507088 0.0604105
0.809277 0 0
0.812177 0 0
0.814023 0 0.00300603
0.81648 0 0.0404517
0.819013 0 0.121935
0.986847 0.911543 0.883574
0.992905 0.98584 0.984482
0.993805 0.993103 0.993088
0.994553 0.994369 0.994415
0.994995 0.994888 0.994919
0.995254 0.995193 0.995209
0.995407 0.995377 0.995392
0.995514 0.995483 0.995499
0.995575 0.99556 0.99556
0.995605 0.99559 0.995605
0.995621 0.995621 0.995621
0.995636 0.995636 0.995636
0 0.0257572 0
0 0.0307469 0.00112917
0.0356451 0.0332952 0.00952163
0.0893111 0.0229343 0.00450141
0.163684 0.00865187 0
0.228855 0 0
0.389807 0 0
0.678691 0 0
0.807172 0 0
0.807172 0 0
0.807172 0 0
0.757549 0 0
0.803601 0 0
0.807172 0 0
0.943786 0.462562 0.0583352
0.807187 0 0
0.808392 0 0
0.811734 0 0
0.813672 0 0
0.815778 0 0.0287938
0.818097 0 0.0787823
0.98613 0.914488 0.888365
0.992905 0.986007 0.98468
0.993805 0.993118 0.993088
0.994553 0.994385 0.994415
0.994995 0.994888 0.994919
0.995254 0.995193 0.995209
0.995407 0.995377 0.995392
0.995514 0.995483 0.995499
0.99556 0.995544 0.99556
0.995605 0.99559 0.99559
0.995621 0.995621 0.995621
0.995636 0.995636 0.995636
0 0.0387427 0
0 0.0534829 0
0.00660716 0.0644541 0
0.0676585 0.0651408 0.00157168
0.137301 0.0506294 0
0.2112 0.0303044 0
0.329625 0 0
0.477043 0 0
0.807172 0 0
0.807172 0 0
0.807172 0 0
0.807172 0 0
0.807172 0 0
0.807172 0 0
0.948806 0.533883 0.0633097
0.807202 0 0
0.808728 0 0
0.811688 0 0
0.813901 0 0.00148013
0.815763 0 0.0284733
0.817746 0 0.0666209
0.98526 0.917784 0.893431
0.992905 0.986191 0.984894
0.993805 0.993133 0.993103
0.994553 0.994385 0.994415
0.994995 0.994888 0.994919
0.995254 0.995193 0.995209
0.995422 0.995377 0.995392
0.995514 0.995483 0.995499
0.99556 0.995544 0.99556
0.995605 0.99559 0.99559
0.995621 0.995621 0.995621
0.995636 0.995636 0.995636
0 0.0507515 0
0 0.0783703 0
0 0.101411 0
0.000793469 0.115724 0
0.0847944 0.114748 0
0.180789 0.0933394 0
0.298482 0.0550393 0
0.445594 0.00674449 0
0.582483 0 0
0.807172 0 0
0.807172 0 0
0.807172 0 0
0.807172 0 0
0.807172 0 0
0.807172 0 0
0.807172 0 0
0.80853 0 0
0.811719 0 0
0.814206 0 0.00572213
0.816068 0 0.0333715
0.817884 0 0.070222
0.985016 0.921523 0.898695
0.992905 0.986389 0.985153
0.993805 0.993149 0.993118
0.994553 0.994369 0.994415
0.994995 0.994888 0.994919
0.995254 0.995193 0.995209
0.995407 0.995377 0.995392
0.995499 0.995483 0.995483
0.99556 0.995544 0.99556
0.995605 0.99559 0.99559
0.995621 0.995621 0.995621
0.995636 0.995636 0.995636
0 0.0807355 0
0 0.102037 0
0 0.141695 0
0 0.162036 0
0 0.179034 0
0.105608 0.180545 0
0.2551 0.141787 0
0.421973 0.0799268 0
0.564385 0.0198062 0
0.707118 0 0
0.807172 0 0
0.807172 0 0
0.807172 0 0
0.807172 0 0
0.807172 0 0
0.807172 0 0
0.807813 0 0
0.811658 0 0
0.814466 0 0.00932326
0.816434 0 0.0397345
0.818097 0 0.0787213
0.984817 0.925856 0.90425
0.992905 0.986618 0.985428
0.993805 0.993149 0.993133
0.994553 0.994369 0.994415
0.994995 0.994888 0.994919
0.995254 0.995193 0.995209
0.995407 0.995377 0.995392
0.995499 0.995483 0.995483
0.99556 0.995544 0.99556
0.995605 0.99559 0.99559
0.995621 0.995621 0.995621
0.995636 0.995636 0.995636
0 0.234791 0
0 0.137331 0
0 0.172107 0
0 0.216663 0
0 0.242542 0
0 0.26331 0
0.163256 0.26949 0
0.370138 0.213947 0
0.548577 0.136889 0
0.681712 0.0666514 0
0.801648 0 0
0.807172 0 0
0.807172 0 0
0.807172 0 0
0.807172 0 0
0.807172 0 0
0.807599 0 0
0.811429 0 0
0.814725 0 0.0128939
0.816724 0 0.0450294
0.818311 0 0.0895247
0.984634 0.930358 0.909987
0.992889 0.986862 0.985718
0.993805 0.993164 0.993133
0.994537 0.994369 0.9944
0.99498 0.994873 0.994904
0.995239 0.995178 0.995193
0.995407 0.995377 0.995377
0.995499 0.995483 0.995483
0.99556 0.995544 0.99556
0.995605 0.99559 0.99559
0.995621 0.995621 0.995621
0.995636 0.995636 0.995636
0.953597 0.612573 0.0686961
0 0.312657 0
0 0.195148 0
0 0.262486 0
0 0.321965 0
0 0.351003 0
0.0115358 0.380911 0
0.25301 0.3935 0
0.488975 0.333013 0.00205997
0.675532 0.24445 0.0234989
0.829007 0.164706 0.0320134
0.868925 0.0496834 0
0.807874 0 0
0.807172 0 0
0.807172 0 0
0.807218 0 0
0.808499 0 0
0.812558 0 0
0.816098 0 0.0337224
0.816983 0 0.0498665
0.818524 0 0.0981613
0.985138 0.935454 0.916457
0.992874 0.987137 0.986023
0.993805 0.993164 0.993133
0.994537 0.994369 0.9944
0.99498 0.994873 0.994888
0.995239 0.995178 0.995193
0.995407 0.995361 0.995377
0.995499 0.995468 0.995483
0.99556 0.995544 0.995544
0.99559 0.99559 0.99559
0.995621 0.995621 0.995621
0.995636 0.995636 0.995636
0.970123 0.892119 0.0935225
0.955428 0.686717 0.0717937
0 0.429938 0
0 0.268696 0
0 0.370703 0
0 0.441962 0
0 0.481819 0
0.0748455 0.522377 0.00891127
0.387655 0.522255 0.0169528
0.610361 0.469215 0.0217899
0.780667 0.396002 0.0446021
0.940276 0.333165 0.0667582
0.948287 0.276783 0.0661936
0.946258 0.262104 0.0645762
0.950072 0.29221 0.0675669
0.902495 0.120302 0.0250095
0.900893 0.107012 0.05243
0.900374 0.0957351 0.100847
0.936202 0.167697 0.189532
0.9093 0.104433 0.191455
0.829892 0 0.125139
0.985656 0.940841 0.923445
0.992859 0.987411 0.986358
0.993774 0.993149 0.993133
0.994522 0.994354 0.994385
0.994965 0.994858 0.994888
0.995239 0.995163 0.995178
0.995392 0.995361 0.995361
0.995499 0.995468 0.995483
0.99556 0.995544 0.995544
0.995605 0.99559 0.99559
0.995621 0.995621 0.995621
0.995636 0.995636 0.995636
0.980636 0.971405 0.108095
0.976333 0.938567 0.102022
0.960784 0.74226 0.0919966
0 0.431907 0
0 0.369665 0
0 0.490166 0
0.00352483 0.577996 0.00352483
0.0142367 0.619455 0.0142367
0.167697 0.654902 0.0395819
0.514504 0.640803 0.0331273
0.708614 0.603952 0.0429694
0.869932 0.548302 0.0556039
0.945708 0.505623 0.0601663
0.944228 0.48632 0.0586862
0.945113 0.497398 0.0595712
0.94638 0.512657 0.0608377
0.943786 0.477226 0.0592508
0.951049 0.508232 0.15938
0.948165 0.502907 0.252262
0.945144 0.493263 0.329686
0.944778 0.498619 0.402762
0.986709 0.947433 0.93167
0.992828 0.987778 0.986786
0.993759 0.993149 0.993118
0.994507 0.994339 0.994369
0.994949 0.994842 0.994873
0.995224 0.995163 0.995178
0.995392 0.995346 0.995361
0.995483 0.995468 0.995468
0.99556 0.995544 0.995544
0.99559 0.995575 0.99559
0.995621 0.995605 0.995621
0.995636 0.995621 0.995636
0.984131 0.984131 0.139864
0.981643 0.98024 0.109621
0.978805 0.957183 0.10547
0.314656 0.791089 0.076524
0 0.4477 0
0 0.510292 0
0.0167086 0.627634 0.0167086
0.0382696 0.696452 0.0382696
0.0486763 0.728923 0.0486763
0.355215 0.756313 0.0669413
0.656626 0.742962 0.061265
0.801419 0.720806 0.0675822
0.92961 0.688151 0.070161
0.954131 0.653651 0.0698405
0.954238 0.650767 0.0699168
0.954253 0.66453 0.0701762
0.954925 0.678935 0.0711223
0.956481 0.687877 0.106798
0.946151 0.695094 0.250996
0.93817 0.700832 0.40322
0.946807 0.750912 0.567956
0.9879 0.95465 0.941054
0.992782 0.988251 0.987335
0.993744 0.993149 0.993118
0.994492 0.994308 0.994339
0.994934 0.994827 0.994858
0.995209 0.995148 0.995163
0.995377 0.995346 0.995346
0.995483 0.995453 0.995468
0.995544 0.995529 0.995544
0.99559 0.995575 0.99559
0.995621 0.995605 0.995605
0.995636 0.995621 0.995621
0.952728 0.952728 0.626871
0.983749 0.983749 0.174701
0.981689 0.980545 0.109682
0.970138 0.880568 0.181353
0.0228275 0.648127 0.0228275
0.00205997 0.572457 0.00205997
0.0239567 0.65185 0.0239567
0.0480049 0.726879 0.0480049
0.0649729 0.789532 0.0649729
0.111955 0.829755 0.0810407
0.548302 0.820157 0.062211
0.745113 0.817792 0.0677501
0.87332 0.799603 0.0758831
0.961715 0.779217 0.0816205
0.961334 0.756039 0.0806439
0.961028 0.751293 0.0789654
0.961746 0.76289 0.0800336
0.962844 0.779828 0.148363
0.96112 0.809674 0.20914
0.946334 0.805615 0.397482
0.960632 0.838773 0.69131
0.989593 0.963134 0.952483
0.992737 0.988937 0.988144
0.993713 0.993179 0.993149
0.994461 0.994293 0.994324
0.994919 0.994812 0.994842
0.995209 0.995132 0.995148
0.995377 0.995331 0.995346
0.995483 0.995453 0.995453
0.995544 0.995529 0.995529
0.99559 0.995575 0.995575
0.995621 0.995605 0.995605
0.995636 0.995621 0.995621
0.983276 0.983276 0.852781
0.951431 0.951431 0.519158
0.981842 0.981842 0.109926
0.976425 0.935927 0.203967
0.0589609 0.764111 0.0589609
0.0505226 0.735119 0.0505226
0.0680858 0.805127 0.0680858
0.0675212 0.802045 0.0675212
0.0704356 0.837034 0.300313
0.0765698 0.849409 0.164828
0.346868 0.872389 0.139956
0.699336 0.863539 0.0628977
0.836789 0.871138 0.076524
0.920012 0.864378 0.0835126
0.966094 0.856382 0.0879072
0.965408 0.843809 0.0889754
0.966461 0.833356 0.13994
0.954482 0.835111 0.297124
0.948013 0.85005 0.423789
0.948394 0.863554 0.484794
0.989715 0.899199 0.783139
0.991196 0.971771 0.964462
0.992721 0.989883 0.989273
0.993713 0.993255 0.99324
0.994461 0.994293 0.994324
0.994904 0.994812 0.994827
0.995193 0.995132 0.995148
0.995361 0.995331 0.995331
0.995468 0.995453 0.995453
0.995544 0.995529 0.995529
0.995575 0.995575 0.995575
0.995605 0.995605 0.995605
0.995636 0.995621 0.995636
0.978195 0.978195 0.797482
0.962371 0.962371 0.351873
0.981704 0.980667 0.109697
0.492027 0.916274 0.0616464
0.0577859 0.760037 0.0577859
0.0606546 0.771481 0.0606546
0.0753033 0.849699 0.0753033
0.0824292 0.9019 0.0824292
0.0842603 0.922026 0.0842603
0.0818341 0.931441 0.955306
0.219532 0.917739 0.963867
0.634821 0.895064 0.925048
0.765057 0.911589 0.773754
0.904418 0.882383 0.667323
0.936019 0.873411 0.441382
0.970199 0.897826 0.217288
0.972702 0.898558 0.18024
0.949111 0.876341 0.508278
0.952956 0.890822 0.625544
0.955474 0.894041 0.656107
0.985214 0.941436 0.908598
0.991043 0.979492 0.975158
0.992645 0.990799 0.990402
0.993759 0.993378 0.993378
0.994461 0.994293 0.994339
0.994904 0.994812 0.994827
0.995193 0.995117 0.995132
0.995361 0.995315 0.995331
0.995468 0.995438 0.995453
0.995544 0.995529 0.995529
0.99559 0.995575 0.995575
0.995605 0.995605 0.995605
0.995621 0.995621 0.995621
0.984161 0.984161 0.141604
0.954528 0.925597 0.652964
0.0821088 0.899214 0.0821088
0.0694743 0.813336 0.0694743
0.0706951 0.819699 0.0706951
0.0774548 0.863554 0.0774548
0.0816663 0.895628 0.0816663
0.0842603 0.921889 0.0842603
0.08542 0.941222 0.08542
0.0861219 0.954971 0.0861219
0.0857862 0.949294 0.0857862
0.495857 0.91931 0.197787
0.746151 0.917205 0.324132
0.878065 0.950927 0.093492
0.941955 0.952178 0.100496
0.973342 0.946395 0.10309
0.977646 0.947417 0.103777
0.956619 0.91632 0.672389
0.979248 0.931197 0.759136
0.988525 0.93193 0.851118
0.9897 0.965377 0.951415
0.99115 0.985321 0.983154
0.992767 0.991592 0.991409
0.99382 0.99353 0.993561
0.994492 0.994339 0.994354
0.994919 0.994812 0.994842
0.995178 0.995117 0.995132
0.995361 0.995315 0.995331
0.995468 0.995438 0.995453
0.995529 0.995514 0.995529
0.995575 0.995575 0.995575
0.995605 0.995605 0.995605
0.995621 0.995621 0.995621
0.0784161 0.870268 0.0784161
0.0781567 0.868528 0.0781567
0.0792401 0.876982 0.0792401
0.0820325 0.898528 0.0820325
0.0837568 0.914321 0.0837568
0.0845808 0.925734 0.0845808
0.0850996 0.937713 0.0850996
0.0857862 0.949401 0.0857862
0.0860761 0.958007 0.0860761
0.0860761 0.958007 0.0860761
0.216632 0.968765 0.0897993
0.594476 0.952209 0.0671092
0.771267 0.963668 0.0859236
0.892226 0.965194 0.0975509
0.945342 0.959213 0.246281
0.946395 0.936263 0.439246
0.955856 0.935149 0.669825
0.985687 0.955734 0.828092
0.985809 0.95491 0.911208
0.986801 0.964431 0.945785
0.989242 0.979904 0.974731
0.991547 0.989075 0.988128
0.99295 0.99234 0.992248
0.993896 0.993698 0.993744
0.994522 0.994385 0.994415
0.994934 0.994842 0.994873
0.995193 0.995132 0.995148
0.995361 0.995315 0.995331
0.995468 0.995438 0.995453
0.995529 0.995514 0.995529
0.995575 0.995575 0.995575
0.995605 0.995605 0.995605
0.995621 0.995621 0.995621
0.0855421 0.943709 0.0855421
0.0856641 0.947723 0.0856641
0.0858625 0.951034 0.0858625
0.0860304 0.954498 0.0860304
0.0860761 0.95787 0.0860761
0.0860761 0.958007 0.0860761
0.0861067 0.958053 0.086305
0.086305 0.958923 0.0968338
0.0859998 0.96054 0.127489
0.0839551 0.961013 0.170672
0.33994 0.958053 0.205035
0.659937 0.949676 0.238163
0.790433 0.950622 0.363088
0.869703 0.943999 0.493858
0.912169 0.944579 0.628138
0.94406 0.954299 0.731792
0.97084 0.969955 0.848096
0.978042 0.971496 0.93283
0.98352 0.974182 0.959915
0.98732 0.980697 0.975418
0.99025 0.987259 0.985687
0.991958 0.991135 0.990875
0.993149 0.992874 0.992859
0.994018 0.993851 0.993896
0.994583 0.994461 0.994507
0.994965 0.994888 0.994904
0.995209 0.995148 0.995163
0.995361 0.995331 0.995331
0.995468 0.995438 0.995453
0.995529 0.995514 0.995529
0.995575 0.995575 0.995575
0.995605 0.995605 0.995605
0.995636 0.995621 0.995621
0.0848096 0.960876 0.15285
0.0843977 0.960952 0.161791
0.0839246 0.961013 0.171298
0.083299 0.961028 0.183337
0.082063 0.960708 0.201633
0.0801404 0.960082 0.230243
0.0767224 0.958511 0.277348
0.0719463 0.955688 0.345113
0.0671855 0.952361 0.432914
0.293339 0.945052 0.510765
0.594873 0.940139 0.585473
0.736614 0.95671 0.680354
0.826642 0.972824 0.738277
0.897185 0.979278 0.822049
0.944976 0.97818 0.90222
0.964752 0.979797 0.936004
0.975341 0.980957 0.955871
0.981582 0.982361 0.969558
0.98587 0.984741 0.979934
0.989059 0.987808 0.986267
0.99118 0.990555 0.990158
0.992401 0.992157 0.992096
0.993439 0.993271 0.993347
0.994171 0.994034 0.994095
0.994659 0.994568 0.994598
0.994995 0.994934 0.994965
0.995224 0.995178 0.995193
0.995377 0.995346 0.995346
0.995468 0.995453 0.995453
0.995529 0.995514 0.995529
0.995575 0.995575 0.995575
0.995605 0.995605 0.995605
0.995621 0.995621 0.995621
0.742306 0.977874 0.860945
0.743786 0.978469 0.861479
0.745525 0.979141 0.862226
0.748699 0.980163 0.86331
0.753506 0.981476 0.86482
0.760876 0.982834 0.867338
0.773022 0.984253 0.871626
0.791302 0.985138 0.877821
0.816449 0.985016 0.886961
0.850645 0.983322 0.900557
0.886427 0.980896 0.916823
0.914702 0.980941 0.931517
0.936019 0.981872 0.943816
0.953185 0.983001 0.954986
0.966018 0.984024 0.965011
0.975052 0.984771 0.973098
0.981521 0.985931 0.979309
0.985748 0.987396 0.983993
0.988708 0.989029 0.987625
0.990677 0.990616 0.990219
0.991928 0.991714 0.99176
0.99292 0.992828 0.992889
0.993744 0.993637 0.993698
0.994339 0.994247 0.994293
0.994751 0.99469 0.99472
0.995041 0.994995 0.995026
0.995254 0.995209 0.995224
0.995392 0.995361 0.995377
0.995483 0.995453 0.995468
0.995544 0.995529 0.995529
0.995575 0.995575 0.995575
0.995605 0.995605 0.995605
0.995621 0.995621 0.995621
0.960693 0.984024 0.972183
0.9608 0.984039 0.972213
0.960952 0.984054 0.972259
0.961212 0.984085 0.972351
0.961563 0.984115 0.972457
0.962097 0.984176 0.972656
0.962829 0.984253 0.972915
0.963897 0.984375 0.973373
0.96524 0.984527 0.97406
0.967056 0.984756 0.97499
0.969345 0.984939 0.976089
0.972015 0.985138 0.977417
0.975036 0.985626 0.979217
0.978439 0.986206 0.981247
0.981781 0.986938 0.983215
0.984604 0.987823 0.985428
0.987167 0.98883 0.987488
0.989166 0.989899 0.989273
0.990585 0.990967 0.990799
0.991669 0.99173 0.991745
0.99266 0.992645 0.992676
0.993423 0.993408 0.993423
0.994034 0.994003 0.994034
0.994507 0.994461 0.994492
0.994858 0.994812 0.994842
0.995102 0.995071 0.995087
0.995285 0.995254 0.99527
0.995407 0.995377 0.995392
0.995483 0.995468 0.995483
0.995544 0.995529 0.995544
0.99559 0.995575 0.995575
0.995605 0.995605 0.995605
0.995636 0.995621 0.995621
0.984848 0.987549 0.986603
0.984863 0.987549 0.986618
0.984894 0.987564 0.986633
0.984909 0.987579 0.986648
0.984955 0.98761 0.986679
0.985046 0.98764 0.98674
0.985153 0.987701 0.986801
0.985306 0.987778 0.986908
0.985534 0.9879 0.98706
0.985824 0.988052 0.987274
0.986221 0.988251 0.987549
0.986709 0.988525 0.9879
0.98732 0.988876 0.988357
0.988006 0.989319 0.988876
0.988769 0.989837 0.989487
0.989578 0.990417 0.990143
0.990433 0.991028 0.990845
0.99118 0.991531 0.991394
0.991852 0.992126 0.992081
0.992645 0.992767 0.992767
0.993347 0.993378 0.993378
0.993896 0.993896 0.993912
0.994339 0.994324 0.994339
0.99469 0.994675 0.99469
0.994965 0.994934 0.994965
0.995163 0.995148 0.995163
0.995315 0.9953 0.995315
0.995422 0.995407 0.995422
0.995499 0.995483 0.995499
0.995544 0.995544 0.995544
0.99559 0.995575 0.99559
0.995605 0.995605 0.995605
0.995621 0.995621 0.995621
0.989563 0.990814 0.990463
0.989578 0.990814 0.990463
0.989578 0.990814 0.990463
0.989593 0.990829 0.990478
0.989624 0.990845 0.990494
0.989654 0.99086 0.990524
0.989715 0.99089 0.99057
0.989792 0.990936 0.990616
0.989883 0.990997 0.990707
0.990036 0.991073 0.990814
0.990188 0.99115 0.990921
0.990387 0.991257 0.991028
0.990616 0.991379 0.99118
0.990921 0.991547 0.991363
0.991196 0.99176 0.991577
0.991531 0.992065 0.991882
0.991958 0.992432 0.992279
0.992462 0.992813 0.992706
0.992966 0.993194 0.993149
0.993439 0.993591 0.993576
0.993912 0.993957 0.993973
0.994293 0.994308 0.994324
0.994614 0.994614 0.994614
0.994873 0.994873 0.994873
0.995071 0.995071 0.995087
0.995239 0.995224 0.995239
0.995361 0.995346 0.995361
0.995453 0.995438 0.995438
0.995514 0.995499 0.995514
0.99556 0.995544 0.99556
0.99559 0.99559 0.99559
0.995621 0.995605 0.995621
0.995621 0.995621 0.995621
0.991791 0.992538 0.99234
0.991791 0.992538 0.99234
0.991791 0.992538 0.99234
0.991806 0.992538 0.99234
0.991821 0.992554 0.992355
0.991836 0.992569 0.99237
0.991852 0.992584 0.992386
0.991882 0.992599 0.992401
0.991943 0.99263 0.992447
0.992004 0.992676 0.992493
0.992081 0.992721 0.992554
0.992187 0.992798 0.99263
0.992325 0.992889 0.992737
0.992493 0.993011 0.992874
0.992691 0.993164 0.993027
0.992935 0.993332 0.99321
0.993194 0.993515 0.993423
0.993484 0.993744 0.993667
0.993774 0.993973 0.993912
0.994064 0.994202 0.994186
0.994354 0.99443 0.99443
0.994629 0.994659 0.994659
0.994858 0.994858 0.994858
0.995041 0.995041 0.995041
0.995178 0.995178 0.995178
0.9953 0.9953 0.9953
0.995407 0.995392 0.995407
0.995468 0.995468 0.995468
0.995529 0.995514 0.995529
0.995575 0.99556 0.995575
0.99559 0.99559 0.99559
0.995621 0.995605 0.995621
0.995636 0.995636 0.995636
0.993271 0.993713 0.993606
0.993271 0.993713 0.993606
0.993271 0.993713 0.993606
0.993271 0.993729 0.993606
0.993286 0.993729 0.993622
0.993286 0.993729 0.993622
0.993301 0.993744 0.993637
0.993317 0.993759 0.993637
0.993347 0.993774 0.993667
0.993378 0.99379 0.993683
0.993423 0.99382 0.993713
0.993484 0.993851 0.993759
0.993561 0.993912 0.99382
0.993652 0.993973 0.993896
0.993744 0.994049 0.993973
0.993881 0.994141 0.994079
0.994034 0.994247 0.994202
0.994186 0.994369 0.994324
0.994354 0.994507 0.994476
0.994537 0.994644 0.994629
0.99472 0.994781 0.994781
0.994888 0.994919 0.994934
0.995041 0.995056 0.995056
0.995178 0.995178 0.995178
0.995285 0.995285 0.995285
0.995377 0.995361 0.995377
0.995438 0.995438 0.995438
0.995499 0.995499 0.995499
0.995544 0.995544 0.995544
0.995575 0.995575 0.995575
0.995605 0.99559 0.995605
0.995621 0.995621 0.995621
0.995636 0.995621 0.995636
0.994171 0.994446 0.994369
0.994156 0.994446 0.994369
0.994171 0.994446 0.994385
0.994171 0.994446 0.994385
0.994171 0.994446 0.994385
0.994171 0.994446 0.994385
0.994186 0.994461 0.994385
0.994202 0.994461 0.9944
0.994202 0.994461 0.9944
0.994232 0.994476 0.994415
0.994247 0.994492 0.99443
0.994278 0.994507 0.994461
0.994324 0.994537 0.994492
0.994369 0.994583 0.994522
0.99443 0.994614 0.994568
0.994492 0.994675 0.994629
0.994583 0.994736 0.99469
0.994675 0.994797 0.994766
0.994766 0.994873 0.994858
0.994873 0.994965 0.994949
0.99498 0.995041 0.995041
0.995102 0.995132 0.995132
0.995193 0.995209 0.995209
0.995285 0.995285 0.9953
0.995361 0.995361 0.995377
0.995422 0.995422 0.995438
0.995483 0.995483 0.995483
0.995529 0.995529 0.995529
0.99556 0.99556 0.99556
0.99559 0.99559 0.99559
0.995605 0.995605 0.995605
0.995621 0.995621 0.995621
0.995636 0.995636 0.995636
0.99472 0.994888 0.994842
0.99472 0.994888 0.994842
0.99472 0.994888 0.994858
0.99472 0.994888 0.994858
0.99472 0.994888 0.994858
0.99472 0.994888 0.994858
0.99472 0.994888 0.994858
0.994736 0.994904 0.994858
0.994736 0.994904 0.994858
0.994751 0.994904 0.994873
0.994766 0.994919 0.994888
0.994781 0.994934 0.994904
0.994797 0.994934 0.994904
0.994827 0.994965 0.994934
0.994858 0.99498 0.994965
0.994904 0.99501 0.99498
0.994949 0.995041 0.995026
0.994995 0.995087 0.995071
0.995056 0.995132 0.995117
0.995117 0.995178 0.995163
0.995178 0.995224 0.995224
0.995254 0.995285 0.995285
0.995315 0.995331 0.995331
0.995377 0.995392 0.995392
0.995438 0.995438 0.995438
0.995483 0.995483 0.995483
0.995514 0.995514 0.995514
0.995544 0.995544 0.995544
0.995575 0.995575 0.995575
0.995605 0.995605 0.995605
0.995621 0.995605 0.995621
0.995621 0.995621 0.995621
0.995636 0.995636 0.995636
0.995056 0.995163 0.995148
0.995056 0.995163 0.995148
0.995056 0.995163 0.995148
0.995056 0.995163 0.995148
0.995056 0.995163 0.995148
0.995071 0.995163 0.995148
0.995071 0.995163 0.995148
0.995071 0.995163 0.995148
0.995071 0.995178 0.995148
0.995071 0.995178 0.995163
0.995087 0.995178 0.995163
0.995102 0.995193 0.995163
0.995102 0.995193 0.995178
0.995117 0.995209 0.995193
0.995148 0.995224 0.995209
0.995163 0.995239 0.995224
0.995193 0.995254 0.995239
0.995224 0.995285 0.99527
0.995254 0.9953 0.995285
0.995285 0.995331 0.995315
0.995331 0.995361 0.995361
0.995361 0.995392 0.995392
0.995407 0.995422 0.995422
0.995453 0.995453 0.995468
0.995483 0.995483 0.995499
0.995514 0.995514 0.995529
0.995544 0.995544 0.995544
0.995575 0.995575 0.995575
0.99559 0.99559 0.99559
0.995605 0.995605 0.995605
0.995621 0.995621 0.995621
0.995636 0.995636 0.995636
0.995636 0.995636 0.995636
0.99527 0.995346 0.995331
0.99527 0.995346 0.995331
0.99527 0.995346 0.995331
0.99527 0.995346 0.995331
0.99527 0.995346 0.995331
0.99527 0.995346 0.995331
0.995285 0.995346 0.995331
0.995285 0.995346 0.995331
0.995285 0.995346 0.995331
