assets/luts/look_2.cube
TITLE "Generated by Resolve"
LUT_3D_SIZE 5
0.0466773 0.0490883 0.0528115
0.576226 0 0.00187686
0.82356 0 0.0191348
0.934508 0.627253 0.831495
0.923445 0.628412 0.878309
0.612284 0.695338 0.0884565
0.339406 0.466148 0.0432441
0.876478 0.118807 0.0693065
0.934524 0.627237 0.831373
0.923445 0.628412 0.878309
0.0835126 0.857435 0.0840467
0.0849165 0.873304 0.110231
0.831174 0.871794 0.548791
0.893721 0.901427 0.826658
0.923445 0.628397 0.878294
0.794171 0.918639 0.895003
0.829602 0.913039 0.890135
0.896132 0.901564 0.879149
0.898543 0.902831 0.900832
0.899962 0.90367 0.907576
0.899947 0.903655 0.907576
0.899947 0.903655 0.907576
0.899947 0.903655 0.907576
0.899962 0.90367 0.907591
0.899977 0.90367 0.907591
0.625803 0.644709 0.781842
0.297047 0.608087 0.235065
0.83093 0 0.356649
0.933104 0.627619 0.841978
0.923461 0.628412 0.878309
0.0858473 0.473503 0.504005
0.451575 0.441077 0.501411
0.845685 0.0197757 0.241657
0.933104 0.627649 0.842222
0.923445 0.628412 0.878309
0.0884565 0.867643 0.170764
0.0944228 0.896544 0.292546
0.867506 0.886412 0.667338
0.895186 0.901259 0.851774
0.923445 0.628412 0.878309
0.791714 0.919036 0.90341
0.829557 0.91313 0.898299
0.896651 0.901793 0.888579
0.899138 0.903181 0.903944
0.899962 0.90367 0.907591
0.899947 0.903655 0.907576
0.899947 0.903655 0.907576
0.899947 0.903655 0.907576
0.899962 0.90367 0.907591
0.899977 0.90367 0.907591
0.00563058 0.0323033 0.763699
0.759991 0.632975 0.886336
0.817121 0 0.771984
0.923064 0.627955 0.877867
0.923461 0.628412 0.878309
0.0275731 0.271077 0.819013
0.141802 0.173281 0.832441
0.834928 0.00939956 0.793866
0.923095 0.627985 0.877913
0.923461 0.628412 0.878309
0.0834821 0.87335 0.860456
0.247608 0.890669 0.883909
0.890181 0.893614 0.899489
0.899474 0.903105 0.907057
0.923445 0.628412 0.878309
0.794247 0.917693 0.918547
0.829648 0.912413 0.914
0.899397 0.903166 0.907088
0.899794 0.903502 0.907423
0.899962 0.90367 0.907576
0.899947 0.903655 0.907576
0.899947 0.903655 0.907576
0.899947 0.903655 0.907576
0.899962 0.90367 0.907591
0.899977 0.90367 0.907591
0.806256 0.632349 0.882445
0.860883 0.630945 0.879271
0.923461 0.628428 0.878309
0.92314 0.628077 0.878004
0.923461 0.628412 0.878309
0.18761 0.0114443 0.784588
0.316457 0.0116732 0.787335
0.923461 0.628428 0.878309
0.923201 0.628138 0.878065
0.923461 0.628412 0.878309
0.623362 0.913481 0.912627
0.640116 0.917678 0.918242
0.896117 0.900755 0.906157
0.901473 0.901411 0.907454
0.923445 0.628412 0.878309
0.839887 0.910994 0.912596
0.862409 0.907561 0.909697
0.899596 0.903334 0.907271
0.89984 0.903548 0.907469
0.899962 0.90367 0.907591
0.899947 0.903655 0.907576
0.899947 0.903655 0.907576
0.899947 0.903655 0.907576
0.899962 0.90367 0.907591
0.899977 0.90367 0.907591
0.920439 0.627253 0.877806
0.921065 0.62742 0.877882
0.922683 0.627787 0.877867
0.923339 0.628305 0.878218
0.923461 0.628428 0.878309
0.922652 0.627863 0.877913
0.922728 0.627878 0.877913
0.923033 0.628031 0.877974
0.923369 0.628336 0.878248
0.923461 0.628428 0.878309
0.923049 0.628061 0.878004
0.923049 0.628061 0.878004
0.92314 0.628122 0.878065
0.923354 0.628321 0.878233
0.923445 0.628412 0.878309
0.899825 0.903548 0.907485
0.89984 0.903563 0.907485
0.899855 0.903563 0.9075
0.899916 0.903624 0.907546
0.899962 0.90367 0.907591
0.899962 0.90367 0.907591
0.899962 0.90367 0.907591
0.899962 0.90367 0.907591
0.899962 0.90367 0.907591
0.899977 0.90367 0.907591
