assets/luts/look_2.cube
TITLE "Generated by Resolve"
LUT_3D_SIZE 65
0.0466773 0.0490883 0.0528115
0.0580911 0.0488594 0.054078
0.0666361 0.0477455 0.0517433
0.0751812 0.0462196 0.0494545
0.0849928 0.0445563 0.047303
0.0977646 0.0422217 0.0445411
0.116823 0.0388647 0.0409247
0.154879 0.0318151 0.035462
0.188785 0.0249943 0.0303349
0.217792 0.0220493 0.0268711
0.252033 0.0200656 0.0263828
0.299962 0.0154574 0.022797
0.440589 0.000534066 0.0084535
0.660227 0 0.00202945
0.633051 0 0.00242618
0.595361 0 0.0024567
0.576226 0 0.00187686
0.552911 0 0.00308232
0.524865 0 0.00520333
0.49604 0.000427253 0.00741588
0.469001 0.00402838 0.0106661
0.451423 0.00695811 0.0132601
0.449073 0.00801099 0.0139315
0.468757 0.0059205 0.0115969
0.522652 0 0.00517281
0.619348 0 0
0.743191 0 0
0.799954 0 0
0.891554 0.207248 0.0780804
0.904158 0.482872 0.114137
0.903304 0.586175 0.365286
0.821393 0 0.00587472
0.82356 0 0.0191348
0.825177 0 0.0323186
0.826856 0 0.0574502
0.827771 0 0.0769055
0.828565 0 0.0985122
0.828977 0 0.121569
0.829023 0 0.146044
0.828733 0 0.175875
0.830243 0 0.212024
0.905531 0.392813 0.481987
0.933318 0.575372 0.685847
0.935821 0.610742 0.750164
0.938003 0.621775 0.779309
0.937804 0.625132 0.796735
0.936873 0.626337 0.809613
0.935866 0.626963 0.821164
0.934508 0.627253 0.831495
0.93312 0.627497 0.841077
0.93164 0.627726 0.849775
0.930053 0.627894 0.857404
0.928374 0.628031 0.864332
0.926543 0.628153 0.870161
0.924727 0.628214 0.875074
0.923354 0.62829 0.878187
0.923369 0.628321 0.878218
0.923384 0.628336 0.878248
0.9234 0.628367 0.878264
0.923415 0.628382 0.878264
0.92343 0.628382 0.878279
0.92343 0.628397 0.878294
0.923445 0.628397 0.878294
0.923445 0.628412 0.878294
0.923445 0.628412 0.878309
0.045594 0.0544289 0.0542153
0.0524758 0.0531472 0.0536049
0.058381 0.0518044 0.0522316
0.0650492 0.0501106 0.0505531
0.0723125 0.048249 0.0489967
0.0815137 0.0460822 0.0470588
0.0961624 0.0430457 0.044419
0.131426 0.0360418 0.0395056
0.1682 0.0284733 0.0336309
0.200076 0.0248722 0.0296483
0.234501 0.021622 0.0279393
0.269306 0.0188449 0.0261845
0.484352 0 0.00538643
0.654749 0 0.00209049
0.705135 0 0.00173953
0.67863 0 0.00131228
0.642756 0 0.0019379
0.623331 0 0.00155642
0.601495 0 0.000808728
0.57348 0 0.00180056
0.54522 0 0.00357061
0.528603 0 0.00453193
0.527672 0 0.004654
0.544289 0 0.00347906
0.591073 0 0.000137331
0.67187 0 0
0.79234 0 0
0.799954 0 0
0.8925 0.240131 0.0782025
0.905028 0.498131 0.122988
0.904524 0.555291 0.256687
0.821454 0 0.00640879
0.823438 0 0.0183413
0.825299 0 0.0334783
0.826368 0 0.0505226
0.827207 0 0.0687419
0.827924 0 0.0890059
0.828428 0 0.112078
0.828855 0 0.141802
0.828687 0 0.173724
0.830198 0 0.209232
0.904753 0.398413 0.485191
0.933074 0.576349 0.687541
0.935851 0.610925 0.750378
0.938003 0.621836 0.779355
0.937789 0.625147 0.79678
0.936873 0.626337 0.809644
0.935866 0.626963 0.821164
0.934508 0.627268 0.831525
0.93312 0.627497 0.841062
0.93164 0.627726 0.849775
0.930053 0.627894 0.857374
0.928374 0.628031 0.864332
0.926543 0.628153 0.870176
0.924727 0.628214 0.875074
0.923354 0.62829 0.878187
0.923369 0.628321 0.878218
0.923384 0.628336 0.878248
0.9234 0.628367 0.878264
0.923415 0.628382 0.878264
0.92343 0.628382 0.878279
0.92343 0.628397 0.878294
0.923445 0.628397 0.878294
0.923445 0.628412 0.878294
0.923445 0.628412 0.878309
0.0442512 0.0581826 0.0514076
0.046952 0.0576638 0.0522164
0.0568704 0.0576181 0.0555886
0.0637064 0.0567636 0.0547036
0.0727092 0.0552834 0.0527047
0.0877241 0.0520943 0.0486915
0.116564 0.0447242 0.0415808
0.163989 0.0339818 0.0338445
0.202564 0.0251316 0.0295262
0.249226 0.0187686 0.0237125
0.302281 0.0129854 0.0193027
0.35024 0.0083772 0.0157015
0.455192 0 0.00741588
0.6383 0 0.00239567
0.700679 0 0.0019379
0.715541 0 0.00138857
0.717815 0 0.000564584
0.694804 0 0.000198367
0.67245 0 0.000640879
0.644266 0 0.000656138
0.622736 0 0
0.60473 0 0
0.598535 0 0
0.615228 0 0
0.652415 0 0
0.727718 0 0
0.794293 0 0
0.799939 0 0
0.890776 0.265751 0.0759747
0.905791 0.511543 0.130816
0.900389 0.33463 0.0768597
0.821469 0 0.00656138
0.823224 0 0.016968
0.82536 0 0.0341344
0.826169 0 0.048249
0.827024 0 0.0657054
0.827649 0 0.0852216
0.828077 0 0.106752
0.82826 0 0.129732
0.828351 0 0.159335
0.830121 0 0.203235
0.904204 0.403067 0.488212
0.932876 0.577188 0.688762
0.935882 0.611124 0.750561
0.938003 0.621866 0.779461
0.937789 0.625147 0.79678
0.936889 0.626352 0.809567
0.935866 0.626963 0.821149
0.934508 0.627253 0.83151
0.93312 0.627497 0.841077
0.93164 0.627726 0.849775
0.930053 0.627894 0.857389
0.928374 0.628031 0.864317
0.926528 0.628153 0.870192
0.924727 0.628214 0.875074
0.923339 0.62829 0.878187
0.923369 0.628321 0.878218
0.923384 0.628336 0.878248
0.9234 0.628367 0.878264
0.923415 0.628382 0.878264
0.92343 0.628382 0.878279
0.92343 0.628397 0.878294
0.923445 0.628397 0.878294
0.923445 0.628412 0.878294
0.923445 0.628412 0.878309
0.0441749 0.0610666 0.0493019
0.0445869 0.061387 0.0502937
0.0518807 0.0622721 0.0530861
0.0611429 0.0623178 0.0557259
0.0713207 0.0606546 0.0562905
0.0835584 0.058732 0.0532387
0.107057 0.0545663 0.0460822
0.152544 0.0454871 0.0365148
0.193683 0.0348363 0.0298772
0.233921 0.0259251 0.0267185
0.30338 0.013489 0.019379
0.379919 0.00448615 0.0116274
0.474113 0 0.00573739
0.566476 0 0.00402838
0.697047 0 0.00202945
0.715389 0 0.00138857
0.730266 0 0.000701915
0.741939 0 0.00015259
0.741741 0 0
0.71986 0 0
0.691859 0 0
0.669978 0 0
0.661891 0 0
0.672923 0 0
0.712398 0 0
0.781125 0 0
0.794293 0 0
0.799939 0 0
0.889021 0.286366 0.07393
0.906081 0.524437 0.138766
0.817395 0 0.00328069
0.821485 0 0.00666819
0.822889 0 0.0146792
0.825284 0 0.033341
0.826017 0 0.0463417
0.826947 0 0.0646372
0.827482 0 0.0830701
0.827893 0 0.103899
0.828046 0 0.125902
0.828031 0 0.151293
0.829694 0 0.18381
0.903792 0.407309 0.491035
0.932662 0.578042 0.690105
0.935912 0.611292 0.750805
0.938003 0.621927 0.779477
0.937804 0.625162 0.79675
0.936889 0.626352 0.809613
0.935866 0.626963 0.821134
0.934524 0.627268 0.831479
0.93312 0.627497 0.841093
0.93164 0.627726 0.84976
0.930068 0.627894 0.857328
0.928374 0.628031 0.864332
0.926528 0.628153 0.870176
0.924727 0.628214 0.875074
0.923339 0.62829 0.878187
0.923369 0.628321 0.878218
0.923384 0.628336 0.878248
0.9234 0.628367 0.878264
0.923415 0.628382 0.878264
0.92343 0.628382 0.878279
0.92343 0.628397 0.878294
0.923445 0.628397 0.878294
0.923445 0.628412 0.878294
0.923445 0.628412 0.878309
0.043595 0.0644236 0.0476997
0.0433814 0.0657969 0.0481422
0.0459602 0.0674144 0.0500191
0.0556802 0.0693065 0.0528115
0.0675364 0.0689403 0.0550546
0.0811627 0.0662242 0.0567941
0.102632 0.0622873 0.0519265
0.149813 0.0535439 0.0404669
0.186542 0.045655 0.0334325
0.221408 0.0377356 0.0287785
0.261494 0.0279393 0.0257115
0.322881 0.0142977 0.0182498
0.400809 0.00292973 0.0104067
0.511055 0 0.00419623
0.620386 0 0.00297551
0.715633 0 0.00137331
0.730419 0 0.000686656
0.742031 0 0.00015259
0.750988 0 0
0.757351 0 0
0.762631 0 0
0.752728 0 0
0.743343 0 0
0.747814 0 0
0.781445 0 0
0.788861 0 0
0.794293 0 0
0.799939 0 0
0.887739 0.307988 0.0724804
0.90695 0.537697 0.147387
0.817166 0 0.00173953
0.821469 0 0.00653086
0.822675 0 0.0132296
0.825177 0 0.0322423
0.82591 0 0.0451362
0.826947 0 0.0646525
0.827436 0 0.0824292
0.827771 0 0.1019
0.827848 0 0.122683
0.827817 0 0.146944
0.829572 0 0.177295
0.903471 0.412284 0.494575
0.932448 0.578958 0.691615
0.935958 0.611505 0.751095
0.938003 0.621973 0.779461
0.937804 0.625177 0.796719
0.936873 0.626352 0.809613
0.935882 0.626978 0.821118
0.934524 0.627268 0.831495
0.93312 0.627497 0.841062
0.93164 0.627726 0.84976
0.930068 0.627894 0.857343
0.928374 0.628031 0.864347
0.926528 0.628153 0.870192
0.924727 0.628214 0.875074
0.923339 0.62829 0.878187
0.923369 0.628321 0.878218
0.923384 0.628336 0.878233
0.9234 0.628367 0.878248
0.923415 0.628367 0.878264
0.92343 0.628382 0.878279
0.92343 0.628397 0.878294
0.923445 0.628397 0.878294
0.923445 0.628412 0.878294
0.923445 0.628412 0.878309
0.0431525 0.0681926 0.0466926
0.0429084 0.0710765 0.0467994
0.0428473 0.0740368 0.0474708
0.0477607 0.0762951 0.0489967
0.0601816 0.0785077 0.0514076
0.0762798 0.0773632 0.053315
0.0952468 0.0729534 0.0556039
0.132052 0.06598 0.0480354
0.169879 0.058793 0.038117
0.204837 0.0508888 0.0322118
0.238987 0.0440528 0.0313725
0.302541 0.0303349 0.0248875
0.37406 0.0125734 0.0153964
0.444404 0.000823987 0.0087129
0.556817 0 0.00311284
0.683162 0 0.00122072
0.730571 0 0.000686656
0.742107 0 0.000137331
0.751034 0 0
0.757382 0 0
0.762646 0 0
0.767803 0 0
0.773129 0 0
0.778347 0 0
0.783597 0 0
0.788861 0 0
0.794293 0 0
0.799939 0 0
0.888655 0.330465 0.0733043
0.881178 0.133257 0.0655833
0.817166 0 0.00172427
0.821378 0 0.00585946
0.82269 0 0.0133364
0.825055 0 0.0310521
0.825864 0 0.0447089
0.827008 0 0.0653849
0.827482 0 0.0830091
0.827771 0 0.101961
0.827802 0 0.121828
0.82768 0 0.144213
0.829435 0 0.172366
0.903349 0.417456 0.498848
0.932082 0.579858 0.693126
0.936004 0.611719 0.751369
0.938003 0.622019 0.779538
0.937804 0.625177 0.79675
0.936889 0.626352 0.809598
0.935866 0.626978 0.821134
0.934524 0.627268 0.831479
0.93312 0.627497 0.841047
0.93164 0.627726 0.849775
0.930068 0.627894 0.857374
0.928374 0.628031 0.864332
0.926528 0.628153 0.870176
0.924727 0.628214 0.87509
0.923339 0.62829 0.878187
0.923369 0.628321 0.878218
0.923384 0.628336 0.878233
0.9234 0.628367 0.878248
0.923415 0.628367 0.878264
0.92343 0.628382 0.878279
0.92343 0.628397 0.878294
0.923445 0.628397 0.878294
0.923445 0.628412 0.878294
0.923445 0.628412 0.878309
0.0412146 0.0736248 0.0456245
0.0407416 0.0780194 0.0453193
0.0402075 0.0824598 0.0451667
0.041825 0.0844282 0.045716
0.0501259 0.0876478 0.0474556
0.0664378 0.0905776 0.0494392
0.0845045 0.0899977 0.0497749
0.104982 0.0859388 0.0475929
0.145312 0.0770886 0.0390936
0.189685 0.0670634 0.0327153
0.234516 0.0571298 0.0313268
0.291463 0.0473335 0.0294041
0.363134 0.032517 0.0227207
0.430686 0.0136263 0.01355
0.498985 0 0.0055848
0.601053 0 0.00265507
0.730144 0 0.000534066
0.741878 0 3.0518e-05
0.750942 0 0
0.757351 0 0
0.762661 0 0
0.767834 0 0
0.773144 0 0
0.778363 0 0
0.783612 0 0
0.788876 0 0
0.794293 0 0
0.799939 0 0
0.890745 0.35079 0.0754101
0.811414 0 3.0518e-05
0.817182 0 0.00172427
0.821241 0 0.00497444
0.822873 0 0.0146639
0.824445 0 0.0254978
0.825864 0 0.0447395
0.8271 0 0.0665904
0.827588 0 0.0842298
0.827832 0 0.102907
0.827832 0 0.122393
0.82768 0 0.144152
0.829343 0 0.169924
0.903532 0.423331 0.503929
0.931914 0.580941 0.694575
0.936049 0.611978 0.751644
0.938003 0.62208 0.779644
0.937819 0.625193 0.796765
0.936889 0.626352 0.809583
0.935866 0.626963 0.821149
0.934524 0.627268 0.831464
0.933135 0.627497 0.841031
0.93164 0.627726 0.849775
0.930068 0.627894 0.857359
0.928374 0.628031 0.864317
0.926543 0.628153 0.870161
0.924727 0.628214 0.87509
0.923339 0.62829 0.878187
0.923369 0.628321 0.878218
0.923384 0.628336 0.878233
0.9234 0.628367 0.878264
0.923415 0.628367 0.878264
0.92343 0.628382 0.878279
0.92343 0.628397 0.878294
0.923445 0.628397 0.878294
0.923445 0.628412 0.878294
0.923445 0.628412 0.878309
0.029984 0.0854505 0.0416419
0.0332799 0.0886091 0.0423743
0.0340887 0.0938888 0.0420081
0.032517 0.0990616 0.0406958
0.0293736 0.105257 0.038468
0.0370947 0.112016 0.0387884
0.0560006 0.115587 0.0399481
0.0775464 0.113787 0.0391546
0.114214 0.1084 0.0357519
0.163119 0.0975967 0.0276951
0.215366 0.0843977 0.0251469
0.27068 0.0684215 0.0294957
0.343435 0.0545052 0.0242924
0.415885 0.0384985 0.0189364
0.479301 0.0170443 0.0110475
0.544396 0 0.00180056
0.644541 0 0.000442512
0.738659 0 0
0.74873 0 0
0.755764 0 0
0.761517 0 0
0.766598 0 0
0.772045 0 0
0.777279 0 0
0.782712 0 0
0.788098 0 0
0.793805 0 0
0.799588 0 0
0.805554 0 0
0.811414 0 0
0.817151 0 0.00166323
0.82118 0 0.00459297
0.822873 0 0.0146487
0.824186 0 0.0236057
0.825879 0 0.0447547
0.827161 0 0.0675822
0.82768 0 0.0854658
0.827939 0 0.104372
0.827924 0 0.123598
0.827726 0 0.145174
0.829358 0 0.170474
0.903792 0.429023 0.509316
0.931777 0.58204 0.69604
0.936095 0.612238 0.751873
0.938003 0.622141 0.779629
0.937819 0.625208 0.79675
0.936889 0.626368 0.809537
0.935866 0.626963 0.821103
0.934524 0.627268 0.831479
0.93312 0.627497 0.841062
0.93164 0.627726 0.849729
0.930068 0.627894 0.857359
0.928374 0.628031 0.864332
0.926543 0.628153 0.870161
0.924727 0.628214 0.875059
0.923339 0.62829 0.878187
0.923369 0.628321 0.878218
0.923384 0.628336 0.878233
0.9234 0.628367 0.878264
0.923415 0.628367 0.878264
0.92343 0.628382 0.878279
0.92343 0.628397 0.878294
0.923445 0.628397 0.878294
0.923445 0.628412 0.878294
0.923445 0.628412 0.878309
0.0301823 0.0887312 0.041413
0.0302739 0.0946822 0.0407874
0.0264591 0.105104 0.0375525
0.0199283 0.116243 0.0320287
0.0149844 0.126711 0.0267643
0.0135805 0.136049 0.0229038
0.0295109 0.140597 0.0243687
0.0547799 0.142092 0.0258793
0.0854658 0.138918 0.0266423
0.129793 0.132708 0.0247196
0.193881 0.119387 0.0224308
0.247257 0.103532 0.0285496
0.321431 0.0821546 0.0252384
0.398733 0.0631113 0.0203098
0.465522 0.0454261 0.0163272
0.527779 0.0195468 0.00770581
0.586465 0 0
0.696605 0 0
0.746273 0 0
0.754345 0 0
0.760342 0 0
0.765713 0 0
0.770794 0 0
0.776135 0 0
0.781491 0 0
0.786954 0 0
0.792721 0 0
0.79855 0 0
0.804639 0 0
0.810803 0 0
0.816968 0 0.000900282
0.821576 0 0.00436408
0.822934 0 0.0137026
0.824033 0 0.0226444
0.825895 0 0.0449226
0.827207 0 0.068574
0.827771 0 0.0867475
0.828046 0 0.105791
0.828031 0 0.125246
0.827832 0 0.146761
0.829419 0 0.172045
0.904494 0.435386 0.515526
0.931777 0.583169 0.697734
0.936156 0.612512 0.752178
0.938003 0.622202 0.77969
0.937819 0.625223 0.796735
0.936889 0.626368 0.809583
0.935866 0.626978 0.821149
0.934524 0.627268 0.831464
0.93312 0.627497 0.841062
0.93164 0.627726 0.849744
0.930068 0.627894 0.857343
0.928374 0.628031 0.864317
0.926528 0.628153 0.870176
0.924727 0.628214 0.875074
0.923339 0.62829 0.878187
0.923369 0.628321 0.878218
0.923384 0.628336 0.878233
0.9234 0.628367 0.878248
0.923415 0.628367 0.878264
0.92343 0.628382 0.878279
0.92343 0.628397 0.878294
0.923445 0.628397 0.878294
0.923445 0.628412 0.878294
0.923445 0.628412 0.878309
0.0275578 0.0960098 0.039765
0.0244602 0.105333 0.0363622
0.0179141 0.122866 0.0290074
0.0120851 0.138033 0.0222934
0.00842298 0.150805 0.0182956
0.00596628 0.161532 0.0152743
0.00674449 0.166018 0.0139315
0.0258946 0.17084 0.014847
0.0568551 0.170291 0.0152132
0.0944228 0.167422 0.0160983
0.152834 0.158206 0.0166171
0.228656 0.140993 0.0242008
0.294209 0.121645 0.026627
0.375677 0.0970169 0.022385
0.447105 0.0735637 0.0187076
0.513695 0.0524605 0.014313
0.574395 0.0225376 0.00538643
0.628748 0.0024567 0
0.743999 0 0
0.75314 0 0
0.759228 0 0
0.764752 0 0
0.769802 0 0
0.775097 0 0
0.780377 0 0
0.785931 0 0
0.791501 0 0
0.797467 0 0
0.803677 0 0
0.809964 0 0
0.816266 0 0
0.821225 0 0.00373846
0.82298 0 0.0100862
0.824628 0 0.0213016
0.82623 0 0.044358
0.827253 0 0.0694591
0.827848 0 0.0877699
0.828138 0 0.107256
0.828138 0 0.127108
0.827939 0 0.149035
0.829496 0 0.174319
0.90544 0.442313 0.522271
0.931685 0.584451 0.699367
0.936202 0.612818 0.75259
0.938003 0.622263 0.779751
0.937835 0.625238 0.796735
0.936889 0.626368 0.809567
0.935866 0.626978 0.821134
0.934524 0.627253 0.831464
0.93312 0.627497 0.841031
0.93164 0.62771 0.849744
0.930068 0.627894 0.857359
0.928374 0.628016 0.864317
0.926528 0.628153 0.870192
0.924727 0.628214 0.875074
0.923339 0.62829 0.878187
0.923369 0.628321 0.878218
0.923384 0.628336 0.878233
0.9234 0.628367 0.878248
0.923415 0.628367 0.878264
0.92343 0.628382 0.878279
0.92343 0.628397 0.878294
0.923445 0.628397 0.878294
0.923445 0.628412 0.878294
0.923445 0.628412 0.878309
0.0202792 0.119753 0.0307012
0.0193179 0.12604 0.0293889
0.0134127 0.14255 0.0229191
0.00709544 0.161288 0.0159609
0.00347906 0.176761 0.0116732
0.00207523 0.187778 0.00976577
0.00268559 0.192538 0.0103914
0.00563058 0.19588 0.0115358
0.0261082 0.200748 0.011368
0.0585946 0.202075 0.00959792
0.106004 0.199741 0.0101472
0.183886 0.186496 0.0153811
0.269795 0.166094 0.0281834
0.348501 0.141649 0.0256046
0.423835 0.114427 0.0224918
0.493553 0.0912032 0.0196689
0.561547 0.062974 0.0144656
0.614389 0.027985 0.00529488
0.681773 0.0056611 0
0.75227 0.00233463 0
0.759182 0 0
0.764355 0 0
0.768902 0 0
0.773861 0 0
0.77937 0 0
0.784955 0 0
0.790433 0 0
0.796567 0 0
0.802792 0 0
0.809033 0 0
0.815488 0 0
0.82063 0 0.00244144
0.822583 0 0.00822461
0.824872 0 0.019852
0.826764 0 0.0426795
0.828 0 0.0694285
0.827939 0 0.0888228
0.828229 0 0.108598
0.828244 0 0.128985
0.828061 0 0.151339
0.829557 0 0.177066
0.90663 0.449897 0.529763
0.931655 0.585779 0.701045
0.936278 0.613138 0.752941
0.938003 0.622339 0.779873
0.937835 0.625254 0.79678
0.936889 0.626368 0.809583
0.935866 0.626978 0.821118
0.934524 0.627268 0.831479
0.93312 0.627497 0.841031
0.93164 0.62771 0.84976
0.930053 0.627894 0.857359
0.928374 0.628016 0.864302
0.926528 0.628153 0.870176
0.924727 0.628214 0.875044
0.923339 0.62829 0.878187
0.923369 0.628321 0.878218
0.923384 0.628336 0.878233
0.9234 0.628367 0.878248
0.923415 0.628367 0.878264
0.92343 0.628382 0.878279
0.92343 0.628397 0.878279
0.923445 0.628397 0.878294
0.923445 0.628412 0.878294
0.923445 0.628412 0.878309
0.00727855 0.160311 0.0162203
0.0115053 0.155673 0.0197757
0.00936904 0.165377 0.0169375
0.00422675 0.184253 0.0113527
0.002533 0.20174 0.00914015
0.00613413 0.211719 0.0125429
0.00709544 0.218509 0.0135042
0.00636301 0.223697 0.0127565
0.00700389 0.225742 0.0121309
0.0316014 0.23151 0.016968
0.070161 0.236133 0.0194858
0.129183 0.234882 0.0210269
0.222263 0.217121 0.0255436
0.318822 0.192905 0.0271763
0.400687 0.166934 0.0268711
0.471107 0.137758 0.0258488
0.543359 0.11313 0.023209
0.604379 0.0834821 0.0184329
0.656657 0.0390021 0.00712596
0.723888 0.00968948 0
0.759228 0.00689708 0
0.765484 0.00369268 0
0.769574 0.000854505 0
0.773556 0 0
0.778302 0 0
0.783322 0 0
0.789105 0 0
0.795483 0 0
0.801724 0 0
0.808133 0 0
0.814694 0 0
0.819806 0 0.000610361
0.821805 0 0.00645457
0.824887 0 0.0183719
0.827207 0 0.0405737
0.828595 0 0.0676127
0.829068 0 0.0891737
0.828611 0 0.109804
0.828351 0 0.130571
0.828168 0 0.15375
0.829602 0 0.180194
0.908339 0.458427 0.537758
0.931563 0.587106 0.702617
0.936385 0.613443 0.753445
0.937987 0.622415 0.779873
0.937835 0.625269 0.796704
0.936889 0.626368 0.809552
0.935866 0.626963 0.821088
0.934524 0.627253 0.831464
0.93312 0.627497 0.841031
0.931624 0.62771 0.849775
0.930068 0.627894 0.857343
0.928374 0.628016 0.864302
0.926528 0.628153 0.870161
0.924727 0.628214 0.875059
0.923339 0.62829 0.878187
0.923369 0.628321 0.878218
0.923384 0.628336 0.878233
0.9234 0.628367 0.878248
0.923415 0.628367 0.878264
0.92343 0.628382 0.878279
0.92343 0.628397 0.878279
0.923445 0.628397 0.878294
0.923445 0.628412 0.878294
0.923445 0.628412 0.878309
0.00120546 0.244068 0.00808728
0.00289921 0.196033 0.00926223
0.00469978 0.193835 0.010605
0.00299077 0.203449 0.00846876
0.00590524 0.221485 0.0110018
0.00654612 0.236149 0.0116121
0.00376898 0.248539 0.00881971
0.00202945 0.257435 0.00708019
0.000991836 0.262577 0.00593576
0.00157168 0.264332 0.00555428
0.0307317 0.271321 0.0125124
0.0822766 0.275425 0.0191806
0.156954 0.273152 0.0234226
0.263813 0.253162 0.0250248
0.369253 0.226612 0.0278325
0.450904 0.199557 0.0304723
0.524742 0.166461 0.0312657
0.592493 0.141939 0.0308385
0.649607 0.11075 0.0268406
0.703471 0.0607004 0.0122072
0.752209 0.0188907 0
0.76495 0.0129397 0
0.770672 0.00817884 0
0.77499 0.00491341 0
0.77882 0.00189212 0
0.783123 0 0
0.788083 0 0
0.793835 0 0
0.800137 0 0
0.806943 0 0
0.813809 0 0
0.819043 0 0
0.821195 0 0.00456245
0.824277 0 0.0160067
0.827863 0 0.0378271
0.829358 0 0.0650645
0.829969 0 0.0886244
0.829786 0 0.110124
0.828855 0 0.131975
0.82826 0 0.155795
0.829664 0 0.183444
0.910552 0.468147 0.546609
0.931533 0.588464 0.704417
0.936492 0.613779 0.753902
0.937987 0.622492 0.77998
0.93785 0.625284 0.796719
0.936904 0.626368 0.809491
0.935882 0.626978 0.821073
0.934524 0.627253 0.831449
0.93312 0.627497 0.841031
0.93164 0.62771 0.849744
0.930068 0.627878 0.857328
0.928374 0.628016 0.864302
0.926528 0.628138 0.870161
0.924727 0.628214 0.875059
0.923339 0.62829 0.878187
0.923369 0.628321 0.878218
0.923384 0.628336 0.878233
0.9234 0.628351 0.878248
0.923415 0.628367 0.878264
0.92343 0.628382 0.878279
0.92343 0.628397 0.878294
0.923445 0.628397 0.878294
0.923445 0.628397 0.878294
0.923445 0.628412 0.878294
0.320531 0.392706 0.0408942
0.000122072 0.276143 0.00480659
0.00643931 0.229145 0.0107881
0.00466926 0.228061 0.00880446
0.00733959 0.237354 0.0113375
0.00386053 0.260166 0.0078584
0.000640879 0.278813 0.00463874
0 0.291966 0.00334173
0 0.299626 0.00283818
0 0.302953 0.00274662
0.00062562 0.304585 0.00242618
0.0337072 0.313741 0.011368
0.0979019 0.321675 0.0199588
0.192218 0.318181 0.024094
0.310307 0.295644 0.0263676
0.419638 0.268009 0.0307012
0.501717 0.239902 0.0360113
0.577615 0.203235 0.0387121
0.63978 0.179095 0.0419928
0.701015 0.145068 0.0382086
0.751095 0.0948043 0.0231327
0.769146 0.043534 0.00112917
0.769406 0.024155 0
0.775448 0.0184787 0
0.780133 0.0124514 0
0.784314 0.00598154 0
0.788617 0.00289921 0
0.793408 0.000228885 0
0.799084 0 0
0.805356 0 0
0.812268 0 0
0.8177 0 0
0.820188 0 0.002533
0.823499 0 0.0137636
0.827604 0 0.0355993
0.830823 0 0.0636454
0.831449 0 0.0882124
0.831159 0 0.110048
0.830335 0 0.132708
0.828824 0 0.157748
0.82974 0 0.185885
0.912917 0.478752 0.555856
0.931701 0.589929 0.70634
0.936568 0.614145 0.754314
0.937987 0.622568 0.780011
0.93785 0.625299 0.796765
0.936889 0.626383 0.809506
0.935866 0.626963 0.821073
0.934524 0.627253 0.831418
0.93312 0.627497 0.841001
0.93164 0.62771 0.849729
0.930068 0.627878 0.857313
0.928374 0.628016 0.864317
0.926528 0.628138 0.870161
0.924712 0.628214 0.875074
