assets/luts/look-B.cube
TITLE "Generated by Resolve"
LUT_3D_SIZE 65
0.55552 0.559045 0.559518
0.55552 0.559045 0.559518
0.55552 0.559045 0.559518
0.55552 0.559045 0.559518
0.55552 0.559045 0.559518
0.55552 0.559045 0.559518
0.566552 0.557244 0.558968
0.584756 0.553567 0.557
0.602213 0.549767 0.555032
0.620752 0.546609 0.552499
0.640284 0.544961 0.550896
0.663005 0.543313 0.550744
0.687114 0.541955 0.550515
0.70988 0.54081 0.550271
0.731197 0.539818 0.549752
0.749203 0.539101 0.54934
0.302296 0.519936 0.0942855
0.272404 0.0379339 0.0482338
0.292165 0.0376593 0.0475471
0.308598 0.0417639 0.0471351
0.318181 0.0741588 0.0433204
0.311696 0.115038 0.0268101
0.339269 0.0362249 0.0475624
0.346212 0.0359045 0.0491035
0.356619 0.0358892 0.0508278
0.36878 0.0361181 0.0527352
0.409583 0.0328069 0.0512245
0.475303 0.0242313 0.0441749
0.595499 0.0164492 0.0343633
0.7682 0.116396 0.0730449
0.873457 0.357137 0.126345
0.889128 0.497795 0.174502
0.899016 0.527916 0.191043
0.820081 0.00593576 0.055375
0.827955 0.00672923 0.0738994
0.830747 0.00697337 0.0926528
0.830701 0.00701915 0.0998093
0.831144 0.00714122 0.116701
0.831312 0.00720226 0.132128
0.83154 0.00730907 0.149172
0.831861 0.00726329 0.172641
0.832532 0.00703441 0.203784
0.922744 0.467643 0.565484
0.921859 0.523201 0.663523
0.92546 0.535073 0.692607
0.928435 0.539208 0.713359
0.930465 0.541588 0.732204
0.932876 0.544839 0.751965
0.939712 0.55967 0.77641
0.949783 0.596963 0.80473
0.955932 0.633143 0.829328
0.959289 0.662959 0.850141
0.960357 0.691905 0.867613
0.958526 0.720409 0.880629
0.95378 0.747921 0.889906
0.946334 0.772351 0.89485
0.936568 0.797009 0.896834
0.924025 0.821927 0.89575
0.912001 0.838987 0.894743
0.901045 0.853574 0.892149
0.891432 0.863661 0.888014
0.88397 0.871763 0.886183
0.877653 0.879133 0.885786
0.876051 0.88069 0.885588
0.876051 0.88069 0.885588
0.55552 0.559045 0.559518
0.55552 0.559045 0.559518
0.55552 0.559045 0.559518
0.55552 0.559045 0.559518
0.55552 0.559045 0.559518
0.55552 0.559045 0.559518
0.566476 0.55726 0.558968
0.585626 0.553384 0.556924
0.60412 0.54934 0.554772
0.622553 0.546487 0.552239
0.642573 0.544823 0.550927
0.665766 0.54316 0.550729
0.690532 0.541741 0.550454
0.714122 0.540642 0.55024
0.731533 0.539803 0.549737
0.740826 0.539513 0.549615
0.253712 0.0384527 0.0487373
0.275898 0.0377508 0.0480354
0.294911 0.0374304 0.0474861
0.310323 0.0369726 0.0466621
0.335653 0.0368353 0.0462806
0.332036 0.0363928 0.0465553
0.339422 0.0362097 0.0473182
0.345968 0.035935 0.0484016
0.356771 0.035874 0.0502022
0.370901 0.0361486 0.0520638
0.419608 0.0310216 0.0487526
0.494682 0.0213474 0.0408026
0.614557 0.0121004 0.0314488
0.790524 0.111254 0.073228
0.873594 0.354604 0.117311
0.884092 0.4869 0.204654
0.896086 0.524819 0.209323
0.819837 0.00593576 0.0536202
0.827482 0.00663767 0.0704814
0.830579 0.00695811 0.088777
0.830762 0.00698863 0.0959029
0.83154 0.00714122 0.115038
0.831876 0.007187 0.130282
0.832303 0.00727855 0.1505
0.832563 0.00726329 0.175509
0.833082 0.00708019 0.207065
0.923003 0.471443 0.570291
0.922118 0.524147 0.663996
0.926116 0.53637 0.693507
0.92845 0.540276 0.713787
0.930465 0.542519 0.732631
0.933974 0.547707 0.753735
0.943175 0.573724 0.781094
0.950866 0.606073 0.806592
0.956085 0.634501 0.829725
0.959274 0.664515 0.850294
0.960143 0.695186 0.867689
0.958114 0.724605 0.880644
0.952804 0.75021 0.889158
0.945876 0.774517 0.894652
0.93724 0.795438 0.897215
0.924819 0.820279 0.896315
0.912291 0.838544 0.894865
0.902113 0.852247 0.892622
0.891905 0.863203 0.888151
0.884413 0.871305 0.886244
0.877638 0.879133 0.885786
0.876051 0.88069 0.885588
0.876051 0.88069 0.885588
0.55552 0.559045 0.559518
0.55552 0.559045 0.559518
0.55552 0.559045 0.559518
0.55552 0.559045 0.559518
0.55552 0.559045 0.559518
0.55552 0.559045 0.559518
0.563226 0.557839 0.559136
0.582376 0.55407 0.557244
0.600931 0.550057 0.555169
0.620447 0.546639 0.552544
0.64126 0.54493 0.550927
0.665766 0.54316 0.550729
0.691783 0.541695 0.550469
0.707912 0.540887 0.550271
0.265248 0.521462 0.0952621
0.233799 0.039292 0.0492866
0.258961 0.0382696 0.0486
0.279332 0.0376287 0.0478828
0.297307 0.0372168 0.0472267
0.311971 0.0369726 0.0466163
0.323552 0.0365454 0.0462654
0.332876 0.0363928 0.047013
0.340276 0.0361334 0.0475929
0.34728 0.0358892 0.0483406
0.356863 0.035874 0.0495766
0.374548 0.0360571 0.0514839
0.431418 0.0289006 0.046067
0.517525 0.0180667 0.0370794
0.640208 0.00764477 0.0282444
0.809201 0.104753 0.0724651
0.873213 0.349233 0.107317
0.880339 0.478645 0.226947
0.884291 0.501472 0.362661
0.819486 0.00590524 0.0511482
0.827207 0.00653086 0.066743
0.830762 0.0069276 0.084184
0.831052 0.00695811 0.0924392
0.832029 0.00715648 0.114244
0.83238 0.00720226 0.131899
0.832776 0.00730907 0.152422
0.833295 0.00733959 0.178454
0.833982 0.00733959 0.210483
0.923247 0.475242 0.574716
0.923201 0.526345 0.665812
0.926406 0.53756 0.694286
0.928405 0.540887 0.714092
0.930419 0.543481 0.733135
0.935699 0.553826 0.756359
0.944045 0.576776 0.782116
0.951736 0.612985 0.808042
0.956405 0.641596 0.831037
0.959274 0.669902 0.850813
0.959823 0.699001 0.867811
0.958221 0.724178 0.880705
0.952361 0.752956 0.889128
0.945129 0.776699 0.894255
0.935836 0.799207 0.896559
0.9243 0.821363 0.896056
0.914168 0.835676 0.895842
0.90135 0.853178 0.892287
0.8925 0.862669 0.888487
0.884413 0.871305 0.886244
0.878523 0.878126 0.885832
0.876051 0.88069 0.885588
0.876051 0.88069 0.885588
0.55552 0.559045 0.559518
0.55552 0.559045 0.559518
0.55552 0.559045 0.559518
0.55552 0.559045 0.559518
0.55552 0.559045 0.559518
0.55552 0.559045 0.559518
0.560525 0.558297 0.559289
0.579736 0.554604 0.557534
0.59823 0.550668 0.555383
0.617548 0.546822 0.552956
0.638239 0.545113 0.550896
0.65742 0.543633 0.55079
0.676387 0.542657 0.550759
0.192889 0.0412451 0.0500801
0.216052 0.0403449 0.0499123
0.243381 0.0392004 0.0492866
0.266239 0.0382849 0.0486152
0.286198 0.037644 0.0478828
0.302754 0.0371862 0.0471504
0.316976 0.0369879 0.0466163
0.328191 0.0365606 0.0466621
0.336996 0.0364233 0.0474098
0.344259 0.0361944 0.0480201
0.351507 0.0359503 0.0487831
0.359716 0.0359503 0.049897
0.37763 0.0359197 0.0509499
0.442634 0.0269932 0.0436408
0.540413 0.0149386 0.0334783
0.66392 0.00679026 0.0269932
0.826215 0.0964675 0.0706951
0.872312 0.341527 0.0988174
0.878035 0.476051 0.250797
0.885573 0.336706 0.10631
0.819944 0.00588998 0.0505989
0.827497 0.00637827 0.0637064
0.831174 0.00689708 0.0827497
0.831525 0.00697337 0.0924392
0.832593 0.007187 0.115892
0.832929 0.00726329 0.133745
0.833448 0.00735485 0.154818
0.834211 0.00758373 0.18146
0.835248 0.00791943 0.213413
0.924697 0.479225 0.579843
0.924071 0.52781 0.667094
0.926467 0.538506 0.69482
0.928344 0.541726 0.714412
0.930587 0.544396 0.7337
0.936767 0.557229 0.757702
0.946227 0.588922 0.785458
0.951766 0.613275 0.808179
0.956603 0.646876 0.831708
0.959136 0.674769 0.851255
0.959686 0.701274 0.867903
0.957427 0.729732 0.880537
0.952544 0.752239 0.889189
0.945144 0.776623 0.894347
0.934524 0.801694 0.895674
0.92282 0.824063 0.895033
0.912337 0.838483 0.894865
0.901747 0.852689 0.892454
0.890852 0.86424 0.887846
0.883223 0.87274 0.886091
0.877638 0.879133 0.885786
0.876051 0.88069 0.885588
0.876051 0.88069 0.885588
0.0551308 0.0586557 0.0591287
0.535637 0.153597 0.539635
0.55552 0.559045 0.559518
0.55552 0.559045 0.559518
0.55552 0.559045 0.559518
0.55552 0.559045 0.559518
0.557839 0.558694 0.559442
0.576944 0.555154 0.55787
0.593271 0.551736 0.556023
0.142901 0.492348 0.307149
0.123232 0.0474098 0.0517433
0.140764 0.0445411 0.0505226
0.166644 0.0431525 0.0504768
0.196506 0.041474 0.0501869
0.224292 0.0400244 0.0497749
0.249256 0.0391241 0.0492866
0.271534 0.0382696 0.0486
0.290532 0.037644 0.0478676
0.306294 0.0371557 0.0470893
0.321447 0.0370336 0.0467079
0.332753 0.0366217 0.0471199
0.341115 0.0364996 0.047776
0.347936 0.036286 0.0484627
0.352697 0.0359655 0.0491646
0.36466 0.0361181 0.0504158
0.400961 0.0334173 0.0487831
0.459953 0.0248875 0.0414588
0.563989 0.012314 0.030396
0.684092 0.00691234 0.0267338
0.832731 0.0835737 0.0657664
0.872099 0.344411 0.0966812
0.877516 0.483452 0.275868
0.813016 0.00567636 0.0398871
0.820508 0.0059205 0.0512703
0.828092 0.00631724 0.0627909
0.831479 0.00689708 0.0816663
0.831983 0.00703441 0.0933394
0.833036 0.00726329 0.117342
0.833555 0.00740063 0.135607
0.834226 0.00762951 0.157
0.835203 0.00808728 0.1841
0.836606 0.00889601 0.216266
0.926238 0.48304 0.585336
0.925353 0.529122 0.668574
0.926772 0.539391 0.695369
0.928252 0.542504 0.714672
0.931517 0.546365 0.735439
0.94023 0.57026 0.762325
0.947066 0.593225 0.786404
0.951995 0.616373 0.80885
0.956802 0.65211 0.832441
0.959136 0.675822 0.851301
0.958892 0.707042 0.867674
0.957183 0.731746 0.880568
0.951415 0.757107 0.888365
0.944244 0.779583 0.893812
0.933669 0.803693 0.895216
0.923095 0.823651 0.895125
0.910658 0.840848 0.893965
0.900786 0.853925 0.892042
0.890852 0.86424 0.887846
0.88397 0.871778 0.886183
0.877653 0.879133 0.885786
0.876051 0.88069 0.885588
0.876051 0.88069 0.885588
0.0551461 0.0589761 0.0591287
0.0551308 0.0589456 0.0591287
0.0551156 0.058732 0.0591135
0.0551308 0.0586557 0.0591287
0.0551308 0.0586557 0.0591287
0.0381781 0.0416876 0.478126
0.0598459 0.0587015 0.0591745
0.084596 0.0573892 0.0585641
0.140856 0.0482795 0.0511788
0.172015 0.0421759 0.0468299
0.187243 0.0387121 0.0449989
0.19852 0.0386511 0.0442512
0.213489 0.0389258 0.0463569
0.234806 0.0388952 0.0477913
0.258259 0.0381933 0.0479896
0.281239 0.0373693 0.0475776
0.300526 0.0369421 0.0472725
0.315938 0.036759 0.046952
0.32781 0.0366522 0.04654
0.33785 0.0367437 0.0468299
0.345357 0.0365911 0.0474861
0.351629 0.0365301 0.0481575
0.358083 0.0363165 0.0488594
0.367056 0.0358892 0.0494392
0.383795 0.0349279 0.0495003
0.440436 0.026627 0.0422827
0.502541 0.0192111 0.0361181
0.611597 0.00888075 0.0272831
0.721462 0.00660716 0.0265202
0.844526 0.109209 0.0767681
0.872908 0.370031 0.100267
0.877546 0.48986 0.300191
0.813642 0.00579843 0.0405127
0.821057 0.00598154 0.0507362
0.829007 0.00646983 0.0641642
0.831342 0.00682078 0.0766461
0.832395 0.00717174 0.0946212
0.833448 0.00740063 0.118593
0.83418 0.00764477 0.137194
0.835248 0.00819409 0.159335
0.836774 0.0091249 0.186526
0.838483 0.0102693 0.219669
0.927001 0.486198 0.589868
0.926314 0.530327 0.669779
0.927459 0.540108 0.696147
0.928466 0.543526 0.715358
0.932952 0.551598 0.73753
0.940764 0.573205 0.763088
0.947768 0.598795 0.787686
0.952987 0.629129 0.811093
0.956786 0.652171 0.832395
0.958572 0.683726 0.851499
0.959213 0.704524 0.867826
0.957397 0.730114 0.880598
0.950729 0.759365 0.887999
0.943832 0.780758 0.893492
0.934905 0.801053 0.895888
0.925002 0.819776 0.896422
0.91191 0.839094 0.894774
0.900694 0.854017 0.892012
0.890425 0.864668 0.887724
0.88397 0.871763 0.886183
0.878279 0.878416 0.885817
0.876051 0.88069 0.885588
0.876051 0.88069 0.885588
0.054551 0.0610819 0.0590982
0.0546883 0.0611124 0.0591287
0.0552377 0.0602884 0.0592203
0.0552224 0.0599985 0.059205
0.0552529 0.0605173 0.0592508
0.0553597 0.0615396 0.0593576
0.0553597 0.0614328 0.0593423
0.0552377 0.0603342 0.0592355
0.0763561 0.0580606 0.0591135
0.163455 0.043946 0.0479591
0.247074 0.0308995 0.037171
0.363638 0.0189517 0.024506
0.402564 0.0161593 0.0236362
0.405997 0.0163729 0.0252842
0.396185 0.0185245 0.0283513
0.37438 0.0239567 0.0341802
0.372808 0.026688 0.0370031
0.383597 0.0268101 0.0369726
0.393179 0.0265507 0.036408
0.395209 0.0281224 0.0386206
0.393256 0.0298466 0.041062
0.389181 0.0318456 0.0438697
0.389899 0.032639 0.0455787
0.400763 0.0315099 0.0454414
0.430991 0.0272526 0.0421149
0.470481 0.02327 0.0391852
0.556695 0.0124208 0.0296635
0.66038 0.00668345 0.0254215
0.765591 0.00570687 0.0258793
0.857252 0.145571 0.0883497
0.874678 0.390677 0.108751
0.878019 0.494972 0.321141
0.81413 0.00590524 0.0408789
0.821576 0.00610361 0.0500343
0.82974 0.00668345 0.0648203
0.831586 0.00694286 0.0755474
0.832898 0.00741588 0.0955978
0.834073 0.00769055 0.119478
0.835157 0.00820935 0.138872
0.836683 0.00921645 0.161196
0.838117 0.0102083 0.188602
0.839673 0.0113222 0.221836
0.927443 0.489006 0.593896
0.927092 0.531334 0.670787
0.928313 0.540963 0.697124
0.930388 0.545678 0.717571
0.935302 0.559701 0.740764
0.943008 0.583017 0.766232
0.948623 0.607034 0.789364
0.953414 0.633844 0.812024
0.956893 0.657053 0.832898
0.95819 0.687114 0.851423
0.958648 0.70869 0.867552
0.956634 0.736019 0.880446
0.950561 0.759838 0.887922
0.942504 0.784787 0.892699
0.93341 0.804257 0.89514
0.922072 0.825452 0.894636
0.910658 0.840848 0.893965
0.899489 0.855268 0.891447
0.892302 0.862852 0.888411
0.883833 0.871977 0.886152
0.87776 0.878996 0.885801
0.876051 0.88069 0.885588
0.876051 0.88069 0.885588
0.0504158 0.0676127 0.0581064
0.0538338 0.065156 0.0590982
0.0555886 0.065568 0.0597696
0.0557412 0.0686656 0.059968
0.0536965 0.0696269 0.0594339
0.050721 0.0757305 0.0585641
0.0467079 0.0826276 0.0568093
0.0470588 0.0736248 0.0572671
0.049546 0.0737011 0.0582437
0.0939193 0.0607309 0.0555428
0.157183 0.0465858 0.0488594
0.232639 0.0339666 0.0389715
0.345449 0.0203708 0.0276341
0.491035 0.0124361 0.0212863
0.561975 0.0108644 0.0207065
0.542855 0.00978103 0.0200198
0.503731 0.01178 0.0220798
0.48043 0.014374 0.0245212
0.472129 0.0166171 0.0267796
0.46305 0.0192874 0.0301823
0.453696 0.0217899 0.0333867
0.445609 0.0239414 0.0363775
0.443275 0.0249485 0.0382849
0.44921 0.0247044 0.0390021
0.472313 0.0221866 0.0374151
0.529046 0.0151064 0.0313878
0.608194 0.00869764 0.0262913
0.703212 0.00686656 0.0259556
0.786282 0.00578317 0.0263066
0.864256 0.184482 0.0941787
0.876524 0.408377 0.121263
0.883803 0.415061 0.105699
0.814633 0.00605783 0.0412451
0.822217 0.00633249 0.0492256
0.830518 0.00691234 0.064744
0.832013 0.00723278 0.0753948
0.833509 0.00779736 0.0966049
0.834897 0.00825513 0.120287
0.83653 0.00933852 0.140551
0.838178 0.0105135 0.16347
0.839506 0.0113832 0.191043
0.84065 0.0122225 0.223697
0.927718 0.491661 0.597513
0.927855 0.532372 0.671794
0.929213 0.542 0.698192
0.932052 0.549889 0.719829
0.937911 0.568109 0.743923
0.944167 0.5906 0.767926
0.948959 0.612314 0.790127
0.95349 0.63537 0.812222
0.956847 0.660121 0.833127
0.958206 0.689403 0.851621
0.95816 0.713695 0.867613
0.955383 0.74165 0.879637
0.950134 0.76202 0.88777
0.942763 0.78407 0.892821
0.933608 0.8038 0.895262
0.920378 0.82829 0.893751
0.909743 0.842359 0.893614
0.899641 0.855085 0.891524
0.892363 0.862791 0.888441
0.883375 0.872557 0.886107
0.877363 0.879469 0.885771
0.876051 0.88069 0.885588
0.876051 0.88069 0.885588
0.0528572 0.0712749 0.0592813
0.0529946 0.0706188 0.0592966
0.0515602 0.0727703 0.0588998
0.0478676 0.0806592 0.0573739
0.0432441 0.0902724 0.055375
0.0386206 0.101015 0.0529946
0.0368505 0.113634 0.0496376
0.0344854 0.11104 0.049546
0.0382391 0.0870985 0.0533608
0.0516518 0.0906539 0.0546731
0.107149 0.0755016 0.0532387
0.171069 0.0554818 0.0437324
0.238071 0.039292 0.0380407
0.351492 0.0237736 0.0280308
0.491676 0.0131075 0.0199893
0.634104 0.00978103 0.0184939
0.651453 0.00820935 0.0180819
0.598657 0.00877394 0.0188907
0.57528 0.00856031 0.0191501
0.554559 0.0102693 0.0215
0.540673 0.0117037 0.0237125
0.527626 0.0131533 0.0260014
0.519051 0.0144656 0.0282139
0.519249 0.0149233 0.0295109
0.540352 0.0132143 0.0287938
0.585504 0.0101015 0.0267491
0.657908 0.00669871 0.0246586
0.753368 0.0056611 0.0250401
0.786557 0.00578317 0.0265354
0.865019 0.222568 0.0936751
0.877806 0.424369 0.135393
0.812131 0.0141299 0.0418097
0.815091 0.00627146 0.0414282
0.823026 0.00666819 0.0499428
0.831022 0.00715648 0.0627451
0.832685 0.00782788 0.0760967
0.834302 0.0084535 0.0971237
0.836164 0.00950637 0.121019
0.837949 0.0106813 0.142641
0.839338 0.0115511 0.165072
0.84062 0.0125277 0.192874
0.841474 0.0130617 0.225406
0.928008 0.494682 0.601877
0.928573 0.533288 0.67277
0.930541 0.543679 0.699962
0.934646 0.556329 0.723003
0.940032 0.575021 0.746639
0.945022 0.597375 0.769375
0.949874 0.620844 0.79176
0.953857 0.643656 0.813504
0.95671 0.66775 0.833783
0.957839 0.692149 0.851575
0.957198 0.717586 0.867063
0.956024 0.738109 0.880003
0.949447 0.763897 0.887343
0.941772 0.786755 0.892317
0.931823 0.80824 0.894408
0.923217 0.823392 0.895476
0.909636 0.842573 0.893584
0.899474 0.855268 0.891447
0.890486 0.864591 0.887739
0.883513 0.872404 0.886107
0.877317 0.879515 0.885771
0.876051 0.88069 0.885588
0.876051 0.88069 0.885588
0.0500191 0.0770733 0.05832
0.0451972 0.0860456 0.0561074
0.0402991 0.0963455 0.0539254
0.0388342 0.108034 0.0515297
0.0535897 0.121798 0.0507515
0.0819867 0.13225 0.0436255
0.121782 0.141161 0.0332799
0.0221561 0.142351 0.0354772
0.0339666 0.105028 0.0477455
0.0353094 0.108721 0.0483253
0.05626 0.10988 0.0508278
0.129656 0.0932479 0.0520943
0.204898 0.0674449 0.0399786
0.277333 0.0461891 0.0368353
0.374014 0.0260014 0.0269474
0.528984 0.0139467 0.0183413
0.671504 0.0105287 0.0171511
0.694331 0.00881971 0.0170596
0.669856 0.00779736 0.0176242
0.644602 0.00834669 0.0191958
0.623743 0.0077821 0.0196994
0.608286 0.0078584 0.0208286
0.595209 0.00852979 0.0225223
0.590707 0.00903334 0.0239109
0.605936 0.00836194 0.0241855
0.643565 0.00691234 0.0238346
0.704326 0.00677501 0.0249027
0.780316 0.00585946 0.0252079
0.786801 0.00585946 0.0264591
0.862379 0.257008 0.0901656
0.878553 0.440299 0.150866
0.807599 0.00596628 0.0340887
0.815534 0.00654612 0.0415198
0.82385 0.00740063 0.0509041
0.83154 0.0077821 0.0610208
0.833555 0.00869764 0.0765698
0.83563 0.00976577 0.0979782
0.837507 0.0108949 0.121859
0.838987 0.0116274 0.144106
0.84033 0.0126345 0.166629
0.841367 0.0133364 0.194553
0.842206 0.0136721 0.229587
0.927993 0.496971 0.605127
0.929564 0.534813 0.674189
0.932891 0.549477 0.702846
0.936904 0.56257 0.725917
0.941711 0.580743 0.748821
0.946059 0.604273 0.770932
0.95024 0.624857 0.792523
0.954192 0.648844 0.814374
0.95668 0.672297 0.834241
0.957717 0.693416 0.851621
0.957137 0.718227 0.867063
0.954955 0.743252 0.879484
0.948531 0.767468 0.887022
0.941985 0.786313 0.892531
0.932967 0.80531 0.895003
0.920424 0.828214 0.893782
0.908705 0.844114 0.893095
0.899641 0.855085 0.891524
0.888411 0.86656 0.88687
0.882856 0.873243 0.886152
0.877317 0.879515 0.885771
0.876051 0.88069 0.885588
0.876051 0.88069 0.885588
0.0382239 0.102922 0.0525063
0.0454566 0.116045 0.0510872
0.0688029 0.128328 0.0477913
0.106447 0.135943 0.0359197
0.162097 0.138857 0.0412451
0.245579 0.140444 0.0386664
0.311543 0.154147 0.0436713
0.0453651 0.175021 0.027985
0.0320592 0.123934 0.0446174
0.0323949 0.121569 0.0448005
0.0337835 0.132464 0.0420233
0.0734569 0.129992 0.0486152
0.162829 0.108339 0.0462806
0.251179 0.0781415 0.0371862
0.336294 0.0508431 0.0342718
0.426261 0.0251926 0.0226902
0.571084 0.0151064 0.0171511
0.689174 0.0110475 0.0166018
0.709133 0.00906386 0.0172274
0.724422 0.00784314 0.0176394
0.708324 0.00727855 0.0182498
0.680568 0.00769055 0.0198978
0.663111 0.00779736 0.0211795
0.65745 0.00753796 0.0219577
0.666209 0.00747692 0.0229496
0.694438 0.00712596 0.023743
0.755154 0.00587472 0.0237278
0.780621 0.00598154 0.0251469
0.787106 0.00596628 0.0263828
0.862898 0.289708 0.0902419
0.878676 0.45507 0.17023
0.808026 0.00624094 0.0343023
0.816007 0.00688182 0.0414893
0.824811 0.00865187 0.0515297
0.832532 0.00872816 0.0606546
0.83476 0.0100099 0.0774853
0.836667 0.011017 0.0985122
0.838392 0.0117952 0.122332
0.839872 0.012604 0.145403
0.841123 0.0135348 0.168017
0.842039 0.0140078 0.19585
0.842741 0.0142061 0.239689
0.92813 0.499321 0.608454
0.930663 0.536538 0.6757
0.934264 0.553201 0.704631
0.939895 0.572595 0.729656
0.944152 0.590387 0.751827
0.946838 0.60827 0.771862
0.950591 0.629129 0.793301
0.954116 0.651987 0.814603
0.956451 0.675746 0.834348
0.956954 0.699321 0.851392
0.957153 0.718227 0.86714
0.95404 0.746166 0.879011
0.948974 0.765942 0.887266
0.94226 0.78558 0.892546
0.933013 0.805219 0.894972
0.919371 0.830213 0.893217
0.909483 0.842802 0.893599
0.899474 0.855268 0.891447
0.892302 0.862852 0.888411
0.882612 0.873472 0.886122
0.877317 0.879515 0.885771
0.876051 0.88069 0.885588
0.876051 0.88069 0.885588
0.100481 0.135363 0.0373388
0.154314 0.13872 0.0411231
0.228611 0.139742 0.0385138
0.299687 0.147982 0.0419471
0.367544 0.169223 0.0513924
0.453773 0.199939 0.0668803
0.488579 0.224872 0.0746471
0.118929 0.203784 0.0327153
0.0277714 0.148608 0.0390173
0.0311131 0.13872 0.0423896
0.0251621 0.153201 0.035111
0.0281071 0.157473 0.0319066
0.106508 0.150881 0.0404517
0.20766 0.122087 0.0352483
0.298085 0.0887007 0.0382544
0.394965 0.0552224 0.0307012
0.477607 0.0254368 0.0199588
0.617746 0.0159457 0.0169833
0.704936 0.0117342 0.0168307
0.721721 0.00944533 0.01738
0.734478 0.00839246 0.0181125
0.742947 0.00769055 0.0187686
0.744213 0.00701915 0.019501
0.734569 0.00672923 0.0204471
0.73727 0.0065156 0.0214389
0.759136 0.00627146 0.022385
0.77435 0.00622568 0.0236973
0.780911 0.00622568 0.0250858
0.788861 0.00869764 0.0275578
0.866697 0.324285 0.0937057
0.869963 0.262974 0.0915389
0.808637 0.0065919 0.0346227
0.816403 0.00735485 0.0416724
0.825193 0.00962844 0.0509957
0.833478 0.0099794 0.0610666
0.835615 0.0112306 0.0779278
0.837537 0.0121004 0.0990158
0.839078 0.0126955 0.122545
0.840528 0.0135348 0.146517
0.84181 0.0142824 0.169253
0.842374 0.0146792 0.197009
0.87245 0.0640726 0.279118
0.928725 0.502464 0.612665
0.933165 0.542885 0.679103
0.937652 0.5626 0.709026
0.941924 0.579522 0.732174
0.945571 0.597894 0.753765
0.948226 0.615564 0.773754
0.950942 0.634424 0.794186
0.954116 0.655772 0.815061
0.956313 0.676341 0.834165
0.956725 0.702083 0.851453
0.955734 0.726894 0.866636
0.953399 0.748486 0.878645
0.948013 0.769528 0.886702
0.940917 0.7888 0.891936
0.930266 0.81091 0.893385
0.921462 0.82652 0.894362
0.907423 0.846128 0.892576
0.898802 0.856092 0.891188
0.890105 0.865019 0.887633
0.883314 0.872633 0.886107
0.87715 0.879713 0.885756
0.876051 0.88069 0.885588
0.876051 0.88069 0.885588
0.33431 0.157 0.0453803
0.398138 0.180972 0.0576944
0.470207 0.206363 0.0699321
0.507332 0.231907 0.0777295
0.510658 0.259892 0.0798962
0.511162 0.300282 0.0789044
0.511391 0.283253 0.0791943
0.237018 0.232547 0.0394598
0.019379 0.178851 0.028809
0.0273747 0.162493 0.0367895
0.0215152 0.173526 0.0304875
0.0179141 0.184192 0.0250248
0.0311589 0.184863 0.0242924
0.143923 0.174228 0.029572
0.256687 0.138903 0.0319066
0.352224 0.101411 0.034638
0.447425 0.065156 0.0298924
0.527733 0.0271763 0.0183566
0.65774 0.01738 0.0163577
0.718471 0.0130465 0.0170291
0.732128 0.0104829 0.0177768
0.742061 0.00892653 0.0183566
0.749447 0.00819409 0.0193027
0.755627 0.00767529 0.020264
0.761929 0.00730907 0.0212558
0.768185 0.00683604 0.0221408
0.774548 0.00669871 0.0234684
0.781338 0.00666819 0.0249332
0.81117 0.0477607 0.048127
0.868269 0.361456 0.0950027
0.801984 0.00677501 0.0296178
0.809384 0.00720226 0.0351568
0.817212 0.00836194 0.0424048
0.82504 0.0104677 0.0509499
0.83331 0.0112917 0.0612802
0.835843 0.0124208 0.078233
0.838026 0.0130465 0.0989853
0.839689 0.0137484 0.12253
0.841337 0.0145724 0.147906
0.842268 0.015198 0.170535
0.843275 0.0160525 0.198947
0.913237 0.162234 0.346151
0.930831 0.511131 0.619348
0.935866 0.550698 0.682795
0.940688 0.573434 0.713054
0.943862 0.587716 0.734859
0.946487 0.603067 0.754955
0.94934 0.622873 0.775601
0.951812 0.642313 0.795804
0.954192 0.664256 0.815732
0.955917 0.682628 0.834318
0.956237 0.706188 0.851453
0.95555 0.728023 0.866514
0.953658 0.747723 0.878828
0.947005 0.772335 0.885924
0.940475 0.789944 0.891783
0.931411 0.808698 0.894133
0.921187 0.826902 0.894469
0.908766 0.843976 0.893156
0.897292 0.857511 0.890471
0.888228 0.866789 0.886839
0.882139 0.873884 0.886015
0.87866 0.877974 0.885832
0.876051 0.88069 0.885588
0.876051 0.88069 0.885588
0.511131 0.266484 0.0801099
0.51136 0.295689 0.0792706
0.509712 0.318593 0.0767681
0.508141 0.341161 0.0746166
0.507515 0.356725 0.073991
0.507744 0.374319 0.0742962
0.508492 0.347677 0.0749676
0.377234 0.274601 0.0609445
0.0159152 0.219089 0.0245212
0.0227054 0.186007 0.0306096
0.0196078 0.191638 0.0273594
0.0149386 0.209812 0.021912
0.0206455 0.213672 0.0249485
0.0532235 0.21619 0.0244755
0.183749 0.202014 0.0237888
0.302571 0.162661 0.0392309
