assets/luts/look-B.cube
TITLE "Generated by Resolve"
LUT_3D_SIZE 5
0.55552 0.559045 0.559518
0.302296 0.519936 0.0942855
0.899016 0.527916 0.191043
0.939712 0.55967 0.77641
0.876051 0.88069 0.885588
0.514427 0.510918 0.0842756
0.167193 0.349325 0.0378882
0.816434 0.0148623 0.0457008
0.954467 0.678447 0.801144
0.876051 0.88069 0.885588
0.084123 0.814725 0.115953
0.0856336 0.842817 0.102708
0.804334 0.829404 0.355398
0.865263 0.878508 0.727565
0.876051 0.88069 0.885588
0.577737 0.904295 0.72166
0.580072 0.90396 0.72105
0.848127 0.876143 0.629572
0.869749 0.87863 0.79646
0.876051 0.88069 0.885588
0.876051 0.88069 0.885588
0.876051 0.88069 0.885588
0.876051 0.88069 0.885588
0.874372 0.879774 0.876707
0.876051 0.88069 0.885588
0.55552 0.559045 0.559518
0.302174 0.51986 0.178836
0.818143 0.525261 0.194293
0.9402 0.561654 0.77702
0.876051 0.88069 0.885588
0.305165 0.325368 0.321431
0.298329 0.33434 0.332692
0.825574 0.0131838 0.0890974
0.954513 0.67747 0.801175
0.876051 0.88069 0.885588
0.0895094 0.83447 0.192294
0.0914931 0.849882 0.171572
0.803357 0.827024 0.260136
0.871168 0.875837 0.733639
0.876051 0.88069 0.885588
0.577951 0.905318 0.744015
0.580301 0.905135 0.743481
0.831296 0.879652 0.644144
0.868299 0.878813 0.774929
0.876051 0.88069 0.885588
0.876051 0.88069 0.885588
0.876051 0.88069 0.885588
0.876051 0.88069 0.885588
0.872465 0.878935 0.858549
0.876051 0.88069 0.885588
0.534188 0.556786 0.686137
0.0442969 0.0618906 0.303212
0.436057 0.514778 0.727733
0.929656 0.546746 0.868208
0.876051 0.88069 0.885588
0.446128 0.0779889 0.616815
0.532998 0.562463 0.793835
0.824048 0.0176547 0.760693
0.954787 0.660563 0.904891
0.876051 0.88069 0.885588
0.0856641 0.856809 0.837079
0.088777 0.862684 0.844755
0.853956 0.865644 0.866011
0.880537 0.876097 0.883696
0.876051 0.88069 0.885588
0.578653 0.905074 0.902815
0.581704 0.905684 0.904051
0.874449 0.880629 0.885466
0.86978 0.878584 0.797742
0.876051 0.88069 0.885588
0.876051 0.88069 0.885588
0.876051 0.88069 0.885588
0.876051 0.88069 0.885588
0.873808 0.879515 0.873808
0.876051 0.88069 0.885588
0.532815 0.559594 0.805478
0.533135 0.56434 0.850507
0.800366 0.0688792 0.798077
0.952987 0.703182 0.915343
0.876051 0.88069 0.885588
0.0171359 0.068452 0.756161
0.0167086 0.0522774 0.735409
0.632303 0.105364 0.799756
0.948028 0.74786 0.915373
0.876051 0.88069 0.885588
0.079118 0.836744 0.847791
0.0802777 0.792386 0.850309
0.443946 0.667674 0.869642
0.881636 0.874159 0.885878
0.876051 0.88069 0.885588
0.585672 0.906584 0.905394
0.59202 0.907439 0.906462
0.875959 0.880598 0.885496
0.876036 0.880674 0.885573
0.876051 0.88069 0.885588
0.876051 0.88069 0.885588
0.876051 0.88069 0.885588
0.876051 0.88069 0.885588
0.876051 0.88069 0.885588
0.876051 0.88069 0.885588
0.533211 0.565759 0.857862
0.0196384 0.109865 0.785306
0.532723 0.839734 0.873167
0.905409 0.536614 0.848981
0.876051 0.88069 0.885588
0.0287327 0.183764 0.795117
0.44622 0.135775 0.77377
0.0675059 0.637064 0.839597
0.905394 0.536599 0.848966
0.876051 0.88069 0.885588
0.531502 0.840177 0.854414
0.536919 0.808362 0.857527
0.0776074 0.680735 0.848524
0.877424 0.879316 0.885756
0.876051 0.88069 0.885588
0.876051 0.88069 0.885588
0.876051 0.880674 0.885573
0.585077 0.906493 0.905226
0.87602 0.880659 0.885557
0.876051 0.88069 0.885588
0.876051 0.88069 0.885588
0.876051 0.88069 0.885588
0.876051 0.88069 0.885588
0.876051 0.88069 0.885588
0.876051 0.88069 0.885588
