assets/luts/look-B.cube
TITLE "Generated by Resolve"
LUT_3D_SIZE 9
0.55552 0.559045 0.559518
0.602213 0.549767 0.555032
0.302296 0.519936 0.0942855
0.356619 0.0358892 0.0508278
0.899016 0.527916 0.191043
0.831861 0.00726329 0.172641
0.939712 0.55967 0.77641
0.936568 0.797009 0.896834
0.876051 0.88069 0.885588
0.0528572 0.0712749 0.0592813
0.0382391 0.0870985 0.0533608
0.651453 0.00820935 0.0180819
0.540352 0.0132143 0.0287938
0.815091 0.00627146 0.0414282
0.84062 0.0125277 0.192874
0.949874 0.620844 0.79176
0.931823 0.80824 0.894408
0.876051 0.88069 0.885588
0.514427 0.510918 0.0842756
0.380667 0.414969 0.0637369
0.167193 0.349325 0.0378882
0.764202 0.0323186 0.0195315
0.816434 0.0148623 0.0457008
0.921874 0.200397 0.311864
0.954467 0.678447 0.801144
0.927092 0.817716 0.891859
0.876051 0.88069 0.885588
0.529824 0.773312 0.174701
0.526543 0.736095 0.135775
0.051957 0.608774 0.0612192
0.599939 0.683055 0.091249
0.890913 0.58468 0.143572
0.901167 0.665858 0.435279
0.925856 0.780453 0.774548
0.902922 0.852949 0.879499
0.876051 0.88069 0.885588
0.084123 0.814725 0.115953
0.0855879 0.828305 0.110536
0.0856336 0.842817 0.102708
0.304494 0.849332 0.0995804
0.804334 0.829404 0.355398
0.867262 0.858763 0.619364
0.865263 0.878508 0.727565
0.873213 0.87921 0.868971
0.876051 0.88069 0.885588
0.549966 0.891081 0.620829
0.550149 0.891386 0.620432
0.550515 0.890837 0.616754
0.567681 0.88632 0.591257
0.836667 0.871153 0.597498
0.851682 0.876265 0.646555
0.86659 0.878874 0.753002
0.873808 0.879515 0.873838
0.876051 0.88069 0.885588
0.577737 0.904295 0.72166
0.578531 0.904204 0.721401
0.580072 0.90396 0.72105
0.589151 0.90309 0.71548
0.848127 0.876143 0.629572
0.860349 0.878813 0.695232
0.869749 0.87863 0.79646
0.875303 0.880339 0.881651
0.876051 0.88069 0.885588
0.845029 0.883101 0.845029
0.846891 0.882734 0.844327
0.849805 0.882155 0.843519
0.85803 0.880583 0.840482
0.871061 0.878508 0.82771
0.86656 0.879042 0.750759
0.871962 0.878737 0.84831
0.876051 0.88069 0.885588
0.876051 0.88069 0.885588
0.876051 0.88069 0.885588
0.876051 0.88069 0.885588
0.876051 0.88069 0.885588
0.876051 0.88069 0.885588
0.876051 0.88069 0.885588
0.876051 0.88069 0.885588
0.874372 0.879774 0.876707
0.876051 0.88069 0.885588
0.876051 0.88069 0.885588
0.55552 0.559045 0.559518
0.127138 0.535592 0.108659
0.238422 0.230259 0.0339818
0.36289 0.0360876 0.0546883
0.898894 0.52755 0.194842
0.831708 0.00726329 0.172412
0.940658 0.563485 0.7776
0.936614 0.796887 0.89688
0.876051 0.88069 0.885588
0.0535744 0.062623 0.0818952
0.0733196 0.0805982 0.080766
0.645502 0.00801099 0.0218051
0.516625 0.0161135 0.031693
0.815244 0.00627146 0.0417029
0.840574 0.0124971 0.192874
0.949676 0.618799 0.791379
0.932967 0.80531 0.895003
0.876051 0.88069 0.885588
0.513878 0.505394 0.0946365
0.0131228 0.301411 0.0268406
0.231601 0.327123 0.0377203
0.764767 0.0236057 0.0200046
0.816632 0.0148165 0.0458686
0.922194 0.201144 0.312657
0.954482 0.678477 0.801129
0.928496 0.815 0.892638
0.876051 0.88069 0.885588
0.525643 0.771542 0.212009
0.513634 0.69778 0.253468
0.0433814 0.5794 0.0538491
0.591852 0.666209 0.0895399
0.892103 0.551843 0.141527
0.902998 0.656458 0.424659
0.926421 0.779675 0.775189
0.903273 0.852598 0.879637
0.876051 0.88069 0.885588
0.0855421 0.817685 0.131304
0.0869306 0.830137 0.12488
0.0867018 0.842237 0.115251
0.173678 0.855222 0.108309
0.803204 0.828519 0.243061
0.879057 0.845029 0.620371
0.873457 0.874495 0.73463
0.873152 0.879179 0.868223
0.876051 0.88069 0.885588
0.550607 0.892195 0.630564
0.550774 0.892561 0.629755
0.550835 0.891859 0.625299
0.566171 0.887877 0.599084
0.785672 0.87718 0.601312
0.849165 0.875502 0.63679
0.865644 0.879057 0.741024
0.873442 0.879332 0.871015
0.876051 0.88069 0.885588
0.577844 0.904753 0.730388
0.578653 0.904646 0.73019
0.57995 0.904402 0.72903
0.584909 0.903349 0.723598
0.844785 0.876478 0.628977
0.858076 0.878248 0.679896
0.86865 0.878782 0.779812
0.874464 0.87982 0.877195
0.876051 0.88069 0.885588
0.845945 0.882979 0.846784
0.847639 0.882643 0.846143
0.849515 0.882246 0.845045
0.855406 0.881102 0.841398
0.871046 0.878508 0.827405
0.865156 0.87921 0.735485
0.87126 0.878569 0.832807
0.876051 0.88069 0.885588
0.876051 0.88069 0.885588
0.876051 0.88069 0.885588
0.876051 0.88069 0.885588
0.876051 0.88069 0.885588
0.876051 0.88069 0.885588
0.876051 0.88069 0.885588
0.876051 0.88069 0.885588
0.872969 0.879103 0.866239
0.876051 0.88069 0.885588
0.876051 0.88069 0.885588
0.55552 0.559045 0.559518
0.538766 0.557443 0.627405
0.302174 0.51986 0.178836
0.401541 0.517449 0.167941
0.818143 0.525261 0.194293
0.831647 0.00726329 0.172473
0.9402 0.561654 0.77702
0.937545 0.794934 0.897414
0.876051 0.88069 0.885588
0.164065 0.0421454 0.170657
0.538643 0.557427 0.628244
0.688106 0.0080415 0.407599
0.401648 0.517418 0.156085
0.817716 0.00727855 0.125048
0.840391 0.0122988 0.192889
0.949477 0.616754 0.791074
0.933639 0.803754 0.895262
0.876051 0.88069 0.885588
0.305165 0.325368 0.321431
0.0194247 0.353658 0.334203
0.298329 0.33434 0.332692
0.77258 0.0172274 0.0715953
0.825574 0.0131838 0.0890974
0.921141 0.197528 0.310903
0.954513 0.67747 0.801175
0.926757 0.818311 0.891707
0.876051 0.88069 0.885588
0.518059 0.768566 0.482765
0.52578 0.769909 0.250721
0.0427405 0.593072 0.0939345
0.612558 0.675532 0.0913252
0.894499 0.557427 0.143481
0.901518 0.665858 0.440284
0.92607 0.780133 0.774945
0.903319 0.852537 0.879637
0.876051 0.88069 0.885588
0.0895094 0.83447 0.192294
0.0905623 0.839261 0.187716
0.0914931 0.849882 0.171572
0.148592 0.858747 0.112306
0.803357 0.827024 0.260136
0.880369 0.845823 0.625238
0.871168 0.875837 0.733639
0.873213 0.87921 0.868925
0.876051 0.88069 0.885588
0.551293 0.89369 0.65214
0.551629 0.89424 0.651804
0.55227 0.893889 0.646281
0.56997 0.8916 0.62594
0.764813 0.881514 0.615183
0.848875 0.875425 0.635813
0.865629 0.879057 0.740871
0.873549 0.879377 0.871931
0.876051 0.88069 0.885588
0.577951 0.905318 0.744015
0.57911 0.905241 0.743862
0.580301 0.905135 0.743481
0.587625 0.904341 0.738918
0.831296 0.879652 0.644144
0.857282 0.87805 0.674571
0.868299 0.878813 0.774929
0.87425 0.879728 0.876097
0.876051 0.88069 0.885588
0.846708 0.882902 0.849378
0.848188 0.882612 0.848814
0.851179 0.882063 0.848081
0.857404 0.880827 0.844785
0.871214 0.878553 0.832013
0.86479 0.879194 0.732265
0.870954 0.878477 0.824292
0.876051 0.88069 0.885588
0.876051 0.88069 0.885588
0.876051 0.88069 0.885588
0.876051 0.88069 0.885588
0.876051 0.88069 0.885588
0.876051 0.88069 0.885588
0.876051 0.88069 0.885588
0.876051 0.88069 0.885588
0.872465 0.878935 0.858549
0.876051 0.88069 0.885588
0.876051 0.88069 0.885588
0.542168 0.557748 0.612421
0.534325 0.556786 0.682582
0.662425 0.544488 0.749981
0.395422 0.517632 0.294636
0.456779 0.517098 0.290455
0.838056 0.00466926 0.471611
0.939162 0.557885 0.775967
0.937514 0.79498 0.897444
0.876051 0.88069 0.885588
0.0346532 0.0564126 0.168292
0.0345922 0.0609751 0.177142
0.623011 0.545586 0.762814
0.396506 0.517586 0.298451
0.456474 0.517052 0.285161
0.846281 0.0100557 0.508461
0.949538 0.617014 0.791333
0.933501 0.804059 0.895186
0.876051 0.88069 0.885588
0.445335 0.108812 0.400488
0.446082 0.0897383 0.584268
0.0275578 0.0707866 0.532464
0.771618 0.0203403 0.671885
0.832425 0.00987259 0.561868
0.91371 0.154986 0.607538
0.954635 0.676234 0.801404
0.928038 0.816251 0.892378
0.876051 0.88069 0.885588
0.0780041 0.700526 0.662226
0.0779889 0.70605 0.669841
0.0797131 0.716518 0.682094
0.682155 0.7093 0.709072
0.916701 0.251423 0.50135
0.945769 0.704662 0.749065
0.926131 0.780102 0.775158
0.903624 0.852262 0.879789
0.876051 0.88069 0.885588
0.0813458 0.858305 0.661662
0.0820478 0.860212 0.65481
0.0839704 0.86392 0.650919
0.102388 0.87454 0.512093
0.820447 0.836866 0.466575
0.881148 0.855406 0.66743
0.865476 0.878447 0.727718
0.873213 0.87921 0.869017
0.876051 0.88069 0.885588
0.55053 0.895537 0.818418
0.551217 0.896986 0.819974
0.552407 0.898528 0.816587
0.57879 0.903899 0.797986
0.788296 0.883986 0.661723
0.852079 0.876204 0.648829
0.866239 0.87895 0.748012
0.873777 0.879484 0.873671
0.876051 0.88069 0.885588
0.578805 0.907012 0.790875
0.579904 0.907088 0.791135
0.581613 0.907118 0.790707
0.59588 0.907134 0.789456
0.860487 0.878782 0.696773
0.860746 0.878859 0.698283
0.868574 0.878798 0.778729
0.874586 0.879881 0.877806
0.876051 0.88069 0.885588
0.849912 0.882673 0.86009
0.850568 0.882567 0.860044
0.852735 0.882155 0.859297
0.860365 0.880705 0.85684
0.8719 0.878752 0.846143
0.866911 0.878935 0.756146
0.870909 0.878447 0.822751
0.876051 0.88069 0.885588
0.876051 0.88069 0.885588
0.876051 0.88069 0.885588
0.876051 0.88069 0.885588
0.876051 0.88069 0.885588
0.876051 0.88069 0.885588
0.876051 0.88069 0.885588
0.876051 0.88069 0.885588
0.872389 0.878889 0.857221
0.876051 0.88069 0.885588
0.876051 0.88069 0.885588
0.534188 0.556786 0.686137
0.53315 0.557015 0.736049
0.0442969 0.0618906 0.303212
0.33228 0.0382391 0.322621
0.436057 0.514778 0.727733
0.828473 0.0109712 0.7234
0.929656 0.546746 0.868208
0.938628 0.792477 0.898039
0.876051 0.88069 0.885588
0.533333 0.556985 0.728618
0.533089 0.557092 0.740688
0.0791638 0.538735 0.336751
0.819715 0.539086 0.819272
0.812314 0.0121309 0.740993
0.839445 0.0176547 0.74725
0.945281 0.594217 0.888182
0.932906 0.805463 0.895018
0.876051 0.88069 0.885588
0.446128 0.0779889 0.616815
0.444953 0.0597848 0.672251
0.532998 0.562463 0.793835
0.798306 0.539849 0.818921
0.824048 0.0176547 0.760693
0.936309 0.238163 0.857343
0.954787 0.660563 0.904891
0.927871 0.816449 0.892302
0.876051 0.88069 0.885588
0.0793469 0.643809 0.806928
0.0786145 0.63267 0.811749
0.0615549 0.549813 0.794156
0.157855 0.1935 0.767926
0.9252 0.267826 0.878752
0.951827 0.664408 0.87187
0.93991 0.783429 0.906676
0.904265 0.851637 0.880125
0.876051 0.88069 0.885588
0.0856641 0.856809 0.837079
0.0863966 0.858518 0.839384
0.088777 0.862684 0.844755
0.390372 0.870878 0.858015
0.853956 0.865644 0.866011
0.895109 0.856352 0.874617
0.880537 0.876097 0.883696
0.873228 0.87921 0.869123
0.876051 0.88069 0.885588
0.549416 0.892241 0.886473
0.550179 0.8934 0.887999
0.553262 0.894957 0.890349
0.580118 0.903166 0.901106
0.812665 0.886748 0.880964
0.870161 0.877638 0.825788
0.872648 0.87892 0.863081
0.873823 0.879515 0.873915
0.876051 0.88069 0.885588
0.578653 0.905074 0.902815
0.579965 0.905348 0.903349
0.581704 0.905684 0.904051
0.597345 0.907668 0.906767
0.874449 0.880629 0.885466
0.870573 0.878294 0.81471
0.86978 0.878584 0.797742
0.87512 0.880201 0.880491
0.876051 0.88069 0.885588
0.855222 0.882582 0.881483
0.857435 0.882277 0.881254
0.860136 0.881941 0.880964
0.866621 0.881224 0.8804
0.874708 0.879942 0.878294
0.871931 0.878737 0.847379
0.871946 0.878737 0.847654
0.876051 0.88069 0.885588
0.876051 0.88069 0.885588
0.876051 0.88069 0.885588
0.876051 0.88069 0.885588
0.876051 0.88069 0.885588
0.876051 0.88069 0.885588
0.876051 0.88069 0.885588
0.876051 0.88069 0.885588
0.873808 0.879515 0.873808
0.876051 0.88069 0.885588
0.876051 0.88069 0.885588
0.532982 0.557488 0.755459
0.532769 0.558602 0.788174
0.532876 0.56141 0.828305
0.247303 0.380072 0.370092
0.890532 0.536812 0.851911
0.831617 0.0171206 0.777111
0.940948 0.588388 0.892378
0.95053 0.735317 0.916396
0.876051 0.88069 0.885588
0.532799 0.558297 0.780362
0.0324102 0.0581674 0.286458
0.532937 0.560876 0.822705
0.695583 0.545037 0.856306
0.887251 0.536843 0.85214
0.902724 0.394415 0.851942
0.949477 0.635355 0.90483
0.948455 0.747082 0.915724
0.876051 0.88069 0.885588
0.0228122 0.0911269 0.733791
0.0376745 0.0603952 0.670024
0.019379 0.0528878 0.628733
0.151125 0.559228 0.69279
0.881376 0.536904 0.852415
0.947524 0.570718 0.902663
0.953567 0.68455 0.913924
0.942657 0.769863 0.912947
0.876051 0.88069 0.885588
0.0638132 0.553796 0.825772
0.0535897 0.465034 0.814252
0.0357366 0.303105 0.793194
0.0356756 0.185183 0.783185
0.876081 0.5458 0.866453
0.944976 0.741558 0.911101
0.935485 0.790906 0.909209
0.920851 0.823423 0.901778
0.876051 0.88069 0.885588
0.0839399 0.852415 0.852872
0.0835889 0.850996 0.855589
0.0819257 0.846845 0.856931
0.132708 0.835737 0.869856
0.666285 0.677241 0.870787
0.896086 0.855894 0.889006
0.886961 0.86804 0.886458
0.876051 0.880507 0.885664
0.876051 0.88069 0.885588
0.55111 0.894072 0.888716
0.552453 0.894942 0.890089
0.557122 0.896864 0.892485
0.582391 0.90425 0.903029
0.845365 0.881849 0.885191
0.87538 0.880034 0.884962
0.876005 0.880629 0.885542
0.876051 0.88069 0.885588
0.876051 0.88069 0.885588
0.581994 0.90573 0.904143
0.582879 0.905882 0.904418
0.584436 0.906264 0.904967
0.624292 0.908141 0.907591
0.875837 0.880522 0.885542
0.875975 0.880613 0.885512
0.876036 0.880659 0.885557
0.876051 0.88069 0.885588
0.876051 0.88069 0.885588
0.862806 0.881407 0.885252
0.864408 0.8813 0.885252
0.865873 0.881209 0.885252
0.871199 0.880995 0.885466
0.876051 0.88069 0.885588
0.876051 0.88069 0.885588
0.876051 0.88069 0.885588
0.876051 0.88069 0.885588
0.876051 0.88069 0.885588
0.876051 0.88069 0.885588
0.876051 0.88069 0.885588
0.876051 0.88069 0.885588
0.876051 0.88069 0.885588
0.876051 0.88069 0.885588
0.876051 0.88069 0.885588
0.876051 0.88069 0.885588
0.876051 0.88069 0.885588
0.876051 0.88069 0.885588
0.532815 0.559594 0.805478
0.532952 0.561013 0.823987
0.533135 0.56434 0.850507
0.0637675 0.0440833 0.791058
0.800366 0.0688792 0.798077
0.902007 0.515511 0.845579
0.952987 0.703182 0.915343
0.905898 0.536614 0.849348
0.876051 0.88069 0.885588
0.0324559 0.0601205 0.319966
0.532921 0.561303 0.827054
0.533028 0.563622 0.846586
0.0279088 0.0555276 0.773083
0.794476 0.0908675 0.801221
0.900359 0.504189 0.843931
0.951919 0.721508 0.916289
0.910353 0.536751 0.853712
0.876051 0.88069 0.885588
0.0171359 0.068452 0.756161
0.0166934 0.0576333 0.741299
0.0167086 0.0522774 0.735409
0.0185245 0.0780194 0.778759
0.632303 0.105364 0.799756
0.90695 0.45304 0.850523
0.948028 0.74786 0.915373
0.921782 0.542763 0.867658
0.876051 0.88069 0.885588
0.522103 0.36321 0.846494
0.0364385 0.318303 0.804288
0.0331884 0.229007 0.801999
0.0303502 0.186725 0.801389
0.60618 0.294179 0.861997
0.8168 0.0120394 0.760372
0.925414 0.814328 0.904051
0.953552 0.679622 0.913527
0.876051 0.88069 0.885588
0.079118 0.836744 0.847791
0.0793927 0.825879 0.849012
0.0802777 0.792386 0.850309
0.0873426 0.729549 0.85771
0.443946 0.667674 0.869642
0.948486 0.648264 0.910109
0.881636 0.874159 0.885878
0.906706 0.84596 0.89485
0.876051 0.88069 0.885588
0.552377 0.895247 0.890043
0.55346 0.895781 0.890959
0.555901 0.896773 0.892256
0.572259 0.902083 0.899413
0.727855 0.898955 0.900099
0.874632 0.879408 0.884535
0.87602 0.880644 0.885542
0.876051 0.88069 0.885588
0.876051 0.88069 0.885588
0.585672 0.906584 0.905394
0.586557 0.906752 0.905653
0.59202 0.907439 0.906462
0.657572 0.907179 0.90721
0.875959 0.880598 0.885496
0.876005 0.880644 0.885542
0.876036 0.880674 0.885573
0.876051 0.88069 0.885588
0.876051 0.88069 0.885588
0.873259 0.880919 0.885542
0.873503 0.880888 0.885542
0.874525 0.880781 0.885603
0.876051 0.88069 0.885588
0.876051 0.88069 0.885588
0.876051 0.88069 0.885588
0.876051 0.88069 0.885588
0.876051 0.88069 0.885588
0.876051 0.88069 0.885588
0.876051 0.88069 0.885588
0.876051 0.88069 0.885588
0.876051 0.88069 0.885588
0.876051 0.88069 0.885588
0.876051 0.88069 0.885588
0.876051 0.88069 0.885588
0.876051 0.88069 0.885588
0.876051 0.88069 0.885588
0.876051 0.88069 0.885588
0.532891 0.561395 0.828092
0.533135 0.564218 0.849851
0.533196 0.566537 0.860487
0.0262455 0.158587 0.794583
0.486748 0.323079 0.856107
0.938704 0.780346 0.910826
0.905348 0.536553 0.84892
0.928847 0.807385 0.905959
0.876051 0.88069 0.885588
0.533104 0.563897 0.848325
0.533135 0.564706 0.852552
0.533043 0.566278 0.86009
0.0243992 0.134325 0.792706
0.38793 0.30631 0.851286
0.940215 0.775082 0.91165
0.905348 0.536538 0.84892
0.926528 0.812039 0.904768
0.876051 0.88069 0.885588
0.0496529 0.0766766 0.784848
0.0162661 0.0664378 0.780758
0.0164187 0.0749523 0.781369
0.0260624 0.148486 0.794476
0.243687 0.31104 0.847608
0.94168 0.768627 0.912444
0.905333 0.536538 0.84892
0.923659 0.817884 0.903304
0.876051 0.88069 0.885588
0.530404 0.667521 0.849042
0.44686 0.164767 0.772122
0.46421 0.212726 0.815061
0.0337377 0.24593 0.802884
0.100328 0.331273 0.830488
0.939361 0.772381 0.911833
0.905333 0.536522 0.848905
0.914031 0.834653 0.89836
0.876051 0.88069 0.885588
0.532586 0.784085 0.85156
0.486442 0.694408 0.849714
0.0838178 0.717968 0.850401
0.0773938 0.654429 0.846647
0.0698863 0.567391 0.840833
0.908293 0.817334 0.901167
0.905303 0.536507 0.84889
0.885588 0.869978 0.886381
0.876051 0.88069 0.885588
0.551308 0.893263 0.887373
0.551492 0.893675 0.887846
0.551308 0.893599 0.887846
0.551659 0.894697 0.889464
0.56907 0.901686 0.899916
0.843137 0.882368 0.886152
0.905241 0.536446 0.848844
0.876051 0.88069 0.885588
0.876051 0.88069 0.885588
0.590845 0.907362 0.906371
0.595224 0.907591 0.906661
0.597574 0.907759 0.906874
0.639582 0.907897 0.907561
0.839475 0.884443 0.88751
0.875975 0.880613 0.885527
0.87602 0.880644 0.885557
0.876051 0.88069 0.885588
0.876051 0.88069 0.885588
0.876051 0.88069 0.885588
0.876051 0.88069 0.885588
0.876051 0.88069 0.885588
0.876051 0.88069 0.885588
0.876051 0.88069 0.885588
0.876051 0.88069 0.885588
0.876051 0.88069 0.885588
0.876051 0.88069 0.885588
0.876051 0.88069 0.885588
0.876051 0.88069 0.885588
0.876051 0.88069 0.885588
0.876051 0.88069 0.885588
0.876051 0.88069 0.885588
0.876051 0.88069 0.885588
0.876051 0.88069 0.885588
0.876051 0.88069 0.885588
0.876051 0.88069 0.885588
0.876051 0.88069 0.885588
0.533211 0.565759 0.857862
0.533196 0.566537 0.860487
0.0196384 0.109865 0.785306
0.526024 0.374426 0.848829
0.532723 0.839734 0.873167
0.890852 0.864057 0.8878
0.905409 0.536614 0.848981
0.905409 0.536614 0.848981
0.876051 0.88069 0.885588
0.533196 0.566537 0.860487
0.518334 0.451148 0.846189
0.445533 0.101732 0.774731
0.491569 0.260456 0.815137
0.410147 0.799542 0.855436
0.88835 0.859037 0.890196
0.905409 0.536614 0.848981
0.905409 0.536614 0.848981
0.876051 0.88069 0.885588
0.0287327 0.183764 0.795117
0.445838 0.11754 0.774258
0.44622 0.135775 0.77377
0.490929 0.252659 0.814786
0.0675059 0.637064 0.839597
0.87306 0.851743 0.889784
0.905394 0.536599 0.848966
0.905409 0.536614 0.848981
0.876051 0.88069 0.885588
0.537224 0.752941 0.859251
0.537285 0.734737 0.860105
0.508614 0.556023 0.830427
0.525887 0.363699 0.849226
0.0622721 0.604364 0.833127
0.83563 0.844999 0.888869
0.905379 0.536583 0.848951
0.905409 0.536614 0.848981
0.876051 0.88069 0.885588
0.531502 0.840177 0.854414
0.43949 0.81828 0.850294
0.536919 0.808362 0.857527
0.513573 0.535256 0.837522
0.0776074 0.680735 0.848524
0.760678 0.850111 0.891844
0.877424 0.879316 0.885756
0.905409 0.536614 0.848981
0.876051 0.88069 0.885588
0.540169 0.872282 0.857313
0.543221 0.878325 0.866041
0.544335 0.880552 0.869459
0.546365 0.88455 0.875196
0.549081 0.890227 0.884611
0.636988 0.893507 0.902525
0.876005 0.880644 0.885542
0.905409 0.536614 0.848981
0.876051 0.88069 0.885588
0.876051 0.88069 0.885588
0.876051 0.88069 0.885588
0.876051 0.880674 0.885573
0.876036 0.880674 0.885573
0.585077 0.906493 0.905226
0.836027 0.885023 0.887922
0.87602 0.880659 0.885557
0.905409 0.536614 0.848981
0.876051 0.88069 0.885588
0.876051 0.88069 0.885588
0.876051 0.88069 0.885588
0.876051 0.88069 0.885588
0.876051 0.88069 0.885588
0.876051 0.88069 0.885588
0.876051 0.88069 0.885588
0.876051 0.88069 0.885588
0.876051 0.88069 0.885588
0.876051 0.88069 0.885588
0.876051 0.88069 0.885588
0.876051 0.88069 0.885588
0.876051 0.88069 0.885588
0.876051 0.88069 0.885588
0.876051 0.88069 0.885588
0.876051 0.88069 0.885588
0.876051 0.88069 0.885588
0.876051 0.88069 0.885588
0.876051 0.88069 0.885588
