assets/luts/look.cube
TITLE "Generated by Resolve"
LUT_3D_SIZE 5
0.0471809 0.0500191 0.0505074
0.631006 0 0.00215152
0.82182 0 0.00720226
0.934966 0.62681 0.82649
0.377707 0.605829 0.33257
0.608301 0.640162 0.0821546
0.323796 0.467948 0.043595
0.905852 0.246311 0.076936
0.935195 0.627192 0.826825
0.377707 0.605829 0.33257
0.0838636 0.865003 0.0843214
0.0842756 0.870222 0.0844739
0.825284 0.865446 0.496895
0.893156 0.901625 0.817029
0.922927 0.627787 0.877714
0.810056 0.916442 0.88751
0.838666 0.911589 0.883619
0.895918 0.901579 0.872984
0.897963 0.902541 0.897871
0.899962 0.90367 0.907576
0.899947 0.903655 0.907576
0.899947 0.903655 0.907576
0.899962 0.90367 0.907576
0.899962 0.90367 0.907591
0.899977 0.90367 0.907591
0.0800488 0.622126 0.236103
0.293324 0.607828 0.302876
0.831357 0 0.271397
0.933135 0.626841 0.837842
0.377707 0.605829 0.33257
0.0307774 0.466651 0.467445
0.466209 0.444663 0.482673
0.844358 0.0196841 0.190158
0.933318 0.627237 0.838483
0.377707 0.605829 0.33257
0.0894026 0.874342 0.170855
0.0958114 0.896925 0.273182
0.866972 0.885954 0.652857
0.895003 0.90132 0.845106
0.922942 0.627802 0.877745
0.808164 0.916533 0.897581
0.84094 0.911315 0.893004
0.896437 0.901717 0.884138
0.898695 0.902892 0.901457
0.899962 0.90367 0.907576
0.899947 0.903655 0.907576
0.899947 0.903655 0.907576
0.899962 0.90367 0.907576
0.899962 0.90367 0.907591
0.899977 0.90367 0.907591
0.00607309 0.0327459 0.749279
0.760647 0.632944 0.886244
0.817121 0 0.771984
0.922576 0.627283 0.877241
0.377707 0.605829 0.33257
0.0283207 0.290486 0.820188
0.146685 0.161318 0.828016
0.834913 0.00935378 0.793851
0.922774 0.627619 0.877546
0.377707 0.605829 0.33257
0.0840772 0.874388 0.86128
0.359075 0.885176 0.87686
0.890547 0.893614 0.898711
0.899458 0.903105 0.907057
0.922942 0.627802 0.877745
0.808682 0.915587 0.916686
0.840269 0.910719 0.912322
0.899413 0.903181 0.907103
0.899794 0.903502 0.907423
0.899962 0.90367 0.907576
0.899962 0.90367 0.907576
0.899962 0.90367 0.907576
0.899962 0.90367 0.907576
0.899962 0.90367 0.907591
0.899977 0.90367 0.907591
0.267384 0.609598 0.336202
0.316777 0.60824 0.333516
0.923461 0.628428 0.878309
0.922713 0.627558 0.877546
0.377707 0.605829 0.33257
0.292988 0.0113985 0.789334
0.580407 0 0.770779
0.923461 0.628428 0.878309
0.922789 0.627665 0.877638
0.377707 0.605829 0.33257
0.62443 0.913283 0.913283
0.641932 0.917311 0.918685
0.895842 0.90042 0.906065
0.901488 0.901381 0.907454
0.922927 0.627802 0.87776
0.850858 0.909285 0.91133
0.86981 0.906447 0.908888
0.899596 0.903334 0.907271
0.899825 0.903532 0.907469
0.899962 0.90367 0.907591
0.899962 0.90367 0.907576
0.899962 0.90367 0.907576
0.899962 0.90367 0.907591
0.899962 0.90367 0.907591
0.899977 0.90367 0.907591
0.375326 0.595285 0.853651
0.374975 0.595071 0.853559
0.38761 0.59852 0.856596
0.792615 0.608209 0.870527
0.923461 0.628428 0.878309
0.4663 0.602533 0.859342
0.467323 0.602457 0.859236
0.480308 0.601328 0.857969
0.821088 0.612634 0.873365
0.923461 0.628428 0.878309
0.896895 0.622492 0.874937
0.897459 0.622553 0.874998
0.903334 0.623407 0.875776
0.921935 0.627222 0.877745
0.374548 0.603006 0.847974
0.89984 0.903563 0.9075
0.899855 0.903563 0.9075
0.899855 0.903563 0.9075
0.899916 0.903624 0.907546
0.899962 0.90367 0.907591
0.899962 0.90367 0.907591
0.899962 0.90367 0.907591
0.899962 0.90367 0.907591
0.899962 0.90367 0.907591
0.899977 0.90367 0.907591
