assets/luts/look.cube
TITLE "Generated by Resolve"
LUT_3D_SIZE 9
0.0471809 0.0500191 0.0505074
0.160143 0.0299382 0.0348974
0.631006 0 0.00215152
0.534081 0 0.00419623
0.82182 0 0.00720226
0.827298 0 0.136904
0.934966 0.62681 0.82649
0.923125 0.628031 0.877943
0.377707 0.605829 0.33257
0.0293126 0.0955062 0.0418097
0.0679332 0.130541 0.0622721
0.569482 0.000885023 6.10361e-05
0.781552 0 0
0.821729 0 0.00593576
0.901305 0.438895 0.446479
0.935042 0.626963 0.826627
0.92314 0.628061 0.877958
0.377707 0.605829 0.33257
0.608301 0.640162 0.0821546
0.000167849 0.362676 0.00216678
0.323796 0.467948 0.043595
0.860914 0.262379 0.0711986
0.905852 0.246311 0.076936
0.935317 0.587655 0.655238
0.935195 0.627192 0.826825
0.923171 0.628077 0.877989
0.377707 0.605829 0.33257
0.622202 0.830793 0.545953
0.0665751 0.697932 0.0692149
0.0797589 0.736873 0.170977
0.689387 0.750011 0.081178
0.896712 0.705135 0.129793
0.927596 0.778653 0.668971
0.965133 0.717556 0.87155
0.923247 0.628183 0.87808
0.889189 0.415488 0.83093
0.0838636 0.865003 0.0843214
0.0839094 0.870237 0.0843671
0.0842756 0.870222 0.0844739
0.518776 0.874708 0.0874189
0.825284 0.865446 0.496895
0.868528 0.893843 0.676387
0.893156 0.901625 0.817029
0.932036 0.864012 0.918593
0.922927 0.627787 0.877714
0.640696 0.914015 0.726085
0.646876 0.915267 0.728557
0.653132 0.915648 0.731212
0.714794 0.916259 0.734417
0.878431 0.898192 0.715541
0.885801 0.900832 0.752056
0.89514 0.901503 0.845365
0.899886 0.903578 0.907515
0.899962 0.90367 0.907591
0.810056 0.916442 0.88751
0.821332 0.914473 0.885771
0.838666 0.911589 0.883619
0.87718 0.90457 0.876753
0.895918 0.901579 0.872984
0.896391 0.901762 0.879469
0.897963 0.902541 0.897871
0.899916 0.903609 0.90753
0.899962 0.90367 0.907576
0.899855 0.903578 0.9075
0.899855 0.903578 0.9075
0.899855 0.903578 0.9075
0.899855 0.903578 0.9075
0.89987 0.903593 0.9075
0.899886 0.903593 0.907515
0.899916 0.903624 0.907546
0.899947 0.903655 0.907576
0.899962 0.90367 0.907591
0.899947 0.903655 0.907576
0.899947 0.903655 0.907576
0.899947 0.903655 0.907576
0.899947 0.903655 0.907576
0.899962 0.90367 0.907576
0.899962 0.90367 0.907576
0.899962 0.90367 0.907591
0.899962 0.90367 0.907591
0.899977 0.90367 0.907591
0.0356298 0.0443275 0.129458
0.382177 0.00456245 0.122484
0.3019 0.606485 0.103319
0.69221 0.187915 0.0723735
0.824643 0 0.0425574
0.829953 0 0.175921
0.934524 0.626795 0.829358
0.923125 0.628031 0.877943
0.377707 0.605829 0.33257
0.0163272 0.111879 0.164736
0.130297 0.125551 0.136339
0.524102 0.00123598 0.0208133
0.871702 0.351675 0.0881208
0.823865 0 0.0372625
0.902174 0.421668 0.46067
0.934585 0.626947 0.829587
0.92314 0.628061 0.877958
0.377707 0.605829 0.33257
0.610651 0.685634 0.0967269
0 0.344366 0.0130007
0.409461 0.453056 0.0523537
0.86598 0.246036 0.0872053
0.901457 0.160159 0.111345
0.934462 0.586679 0.673167
0.934707 0.627176 0.829969
0.923171 0.628077 0.877989
0.377707 0.605829 0.33257
0.626688 0.842069 0.611185
0.0571298 0.677302 0.0631418
0.0796063 0.756786 0.233799
0.71928 0.764508 0.087068
0.905974 0.715129 0.15935
0.931182 0.779919 0.694926
0.96614 0.717632 0.878126
0.923247 0.628183 0.87808
0.895582 0.326253 0.846326
0.0878309 0.870619 0.111772
0.093431 0.886427 0.116182
0.0949416 0.887968 0.121233
0.558312 0.894881 0.18146
0.851713 0.880339 0.561242
0.876982 0.896132 0.70695
0.89398 0.901534 0.82884
0.93164 0.864546 0.918364
0.922911 0.627787 0.877714
0.640742 0.915572 0.755993
0.647913 0.917342 0.758297
0.654139 0.917815 0.760784
0.724041 0.917876 0.763973
0.882704 0.899123 0.74078
0.88835 0.90103 0.772824
0.895338 0.901427 0.853361
0.899886 0.903578 0.907515
0.899962 0.90367 0.907591
0.80975 0.916365 0.891554
0.822553 0.914305 0.889723
0.839368 0.911513 0.887617
0.878325 0.904494 0.881254
0.896117 0.901595 0.877501
0.89659 0.901854 0.883528
0.898238 0.902678 0.899245
0.899916 0.903609 0.90753
0.899962 0.90367 0.907576
0.899855 0.903578 0.9075
0.899855 0.903578 0.9075
0.899855 0.903578 0.9075
0.899855 0.903578 0.9075
0.89987 0.903593 0.9075
0.899886 0.903593 0.907515
0.899916 0.903624 0.907546
0.899947 0.903655 0.907576
0.899962 0.90367 0.907591
0.899947 0.903655 0.907576
0.899947 0.903655 0.907576
0.899947 0.903655 0.907576
0.899947 0.903655 0.907576
0.899962 0.90367 0.907576
0.899962 0.90367 0.907576
0.899962 0.90367 0.907591
0.899962 0.90367 0.907591
0.899977 0.90367 0.907591
0.0800488 0.622126 0.236103
0.0877241 0.6177 0.670924
0.293324 0.607828 0.302876
0.357427 0.605295 0.204334
0.831357 0 0.271397
0.83328 0 0.362402
0.933135 0.626841 0.837842
0.923125 0.628031 0.877943
0.377707 0.605829 0.33257
0.0157931 0.0788586 0.548119
0.0289158 0.0567636 0.444923
0.733104 0 0.46833
0.759243 0.603296 0.348348
0.831449 0 0.264897
0.910643 0.372519 0.521874
0.933196 0.626993 0.838102
0.92314 0.628061 0.877958
0.377707 0.605829 0.33257
0.0307774 0.466651 0.467445
0.0329442 0.47628 0.487953
0.466209 0.444663 0.482673
0.806882 0.0793317 0.195804
0.844358 0.0196841 0.190158
0.938155 0.581399 0.719783
0.933318 0.627237 0.838483
0.923171 0.628092 0.877989
0.377707 0.605829 0.33257
0.626307 0.846677 0.686366
0.601205 0.800183 0.422415
0.0818036 0.768353 0.175128
0.774914 0.781292 0.267353
0.904601 0.712261 0.366812
0.93695 0.779507 0.746593
0.966506 0.717403 0.889113
0.923247 0.628183 0.87808
0.889677 0.394217 0.83505
0.0894026 0.874342 0.170855
0.0964218 0.893889 0.211978
0.0958114 0.896925 0.273182
0.54258 0.890639 0.457679
0.866972 0.885954 0.652857
0.884199 0.897704 0.748196
0.895003 0.90132 0.845106
0.931991 0.864073 0.918578
0.922942 0.627802 0.877745
0.640375 0.916732 0.793973
0.647608 0.91873 0.797208
0.654978 0.919738 0.799374
0.737346 0.91902 0.80293
0.887205 0.899733 0.776074
0.891173 0.900954 0.801129
0.895705 0.901564 0.864698
0.899886 0.903578 0.907515
0.899962 0.90367 0.907591
0.808164 0.916533 0.897581
0.822278 0.914366 0.895552
0.84094 0.911315 0.893004
0.87985 0.904479 0.887404
0.896437 0.901717 0.884138
0.896895 0.901976 0.888823
0.898695 0.902892 0.901457
0.899916 0.903609 0.90753
0.899962 0.90367 0.907576
0.899855 0.903578 0.9075
0.899855 0.903578 0.9075
0.899855 0.903578 0.9075
0.899855 0.903578 0.9075
0.89987 0.903593 0.9075
0.899886 0.903593 0.907515
0.899916 0.903624 0.907546
0.899947 0.903655 0.907576
0.899962 0.90367 0.907591
0.899947 0.903655 0.907576
0.899947 0.903655 0.907576
0.899947 0.903655 0.907576
0.899947 0.903655 0.907576
0.899962 0.90367 0.907576
0.899962 0.90367 0.907576
0.899962 0.90367 0.907591
0.899962 0.90367 0.907591
0.899977 0.90367 0.907591
0.0797284 0.625086 0.309773
0.62739 0.646235 0.862898
0.802136 0.632471 0.854185
0.346181 0.605875 0.299825
0.388846 0.605432 0.290425
0.828321 0 0.672679
0.92845 0.62707 0.860594
0.923125 0.628031 0.877943
0.377707 0.605829 0.33257
0.0071107 0.0426795 0.698375
0.00968948 0.0398718 0.675593
0.2533 0.614725 0.314687
0.720195 0.608301 0.770703
0.828733 0 0.704295
0.907439 0.364767 0.685069
0.928496 0.627222 0.860777
0.92314 0.628061 0.877958
0.377707 0.605829 0.33257
0.608942 0.276616 0.811597
0.0263981 0.29189 0.766094
0.18558 0.163622 0.733303
0.805829 0.0799573 0.758022
0.849058 0.0155337 0.661753
0.939437 0.560922 0.781918
0.928649 0.627451 0.861036
0.923171 0.628077 0.877989
0.377707 0.605829 0.33257
0.610025 0.717815 0.663203
0.0778668 0.799435 0.773663
0.0853742 0.811917 0.798535
0.798779 0.78587 0.809552
0.920928 0.560311 0.658991
0.944503 0.780835 0.839765
0.963958 0.71574 0.912612
0.923247 0.628183 0.878096
0.895323 0.449821 0.834913
0.0763867 0.872755 0.65893
0.0850538 0.887831 0.697871
0.0886091 0.894072 0.703853
0.468406 0.897642 0.73164
0.881773 0.888121 0.811597
0.892821 0.89749 0.848356
0.896605 0.901701 0.885832
0.932052 0.863981 0.918608
0.922927 0.627802 0.877729
0.639475 0.916289 0.867674
0.646525 0.918837 0.872145
0.654658 0.920897 0.876738
0.75845 0.919402 0.880171
0.893095 0.89929 0.859342
0.895033 0.90071 0.869062
0.897261 0.902068 0.89337
0.899886 0.903578 0.907515
0.899962 0.90367 0.907591
0.803143 0.917037 0.912062
0.817075 0.914977 0.910277
0.83714 0.911788 0.907485
0.885924 0.904067 0.901183
0.898146 0.902495 0.900526
0.898711 0.902831 0.902434
0.899794 0.903502 0.907423
0.899916 0.903609 0.90753
0.899962 0.90367 0.907576
0.899855 0.903578 0.9075
0.899855 0.903578 0.9075
0.899855 0.903578 0.9075
0.899855 0.903578 0.9075
0.89987 0.903593 0.9075
0.899886 0.903593 0.907515
0.899916 0.903624 0.907546
0.899947 0.903655 0.907576
0.899962 0.90367 0.907591
0.899947 0.903655 0.907576
0.899947 0.903655 0.907576
0.899947 0.903655 0.907576
0.899962 0.90367 0.907576
0.899962 0.90367 0.907576
0.899962 0.90367 0.907576
0.899962 0.90367 0.907591
0.899962 0.90367 0.907591
0.899977 0.90367 0.907591
0.00607309 0.0327459 0.749279
0.00805676 0.0313878 0.747219
0.760647 0.632944 0.886244
0.280095 0.0293584 0.280507
0.817121 0 0.771984
0.817121 0 0.771984
0.922576 0.627283 0.877241
0.92314 0.628046 0.877958
0.377707 0.605829 0.33257
0.00781262 0.0433509 0.789548
0.00894179 0.0382391 0.779858
0.211841 0.608148 0.851041
0.880629 0.629816 0.88098
0.817121 0 0.771984
0.901747 0.467247 0.83888
0.922621 0.627405 0.877348
0.923156 0.628061 0.877974
0.377707 0.605829 0.33257
0.0283207 0.290486 0.820188
0.0278782 0.268315 0.822324
0.146685 0.161318 0.828016
0.353109 0.684825 0.366155
0.834913 0.00935378 0.793851
0.922683 0.585901 0.862135
0.922774 0.627619 0.877546
0.923171 0.628092 0.878004
0.377707 0.605829 0.33257
0.0822461 0.765881 0.865049
0.0822156 0.775311 0.871336
0.0914626 0.767834 0.882918
0.701473 0.654169 0.886168
0.912764 0.626459 0.891981
0.946929 0.79266 0.910582
0.958129 0.704051 0.922194
0.923262 0.628183 0.878096
0.888747 0.400793 0.841596
0.0840772 0.874388 0.86128
0.0900282 0.88542 0.876143
0.359075 0.885176 0.87686
0.616327 0.916228 0.912947
0.890547 0.893614 0.898711
0.897597 0.899626 0.903639
0.899458 0.903105 0.907057
0.932296 0.863661 0.918746
0.922942 0.627802 0.877745
0.641306 0.914092 0.91043
0.648081 0.916594 0.913588
0.655375 0.918914 0.916762
0.755642 0.919234 0.919661
0.897322 0.901198 0.905135
0.898695 0.902419 0.906355
0.89958 0.903273 0.90721
0.899886 0.903578 0.907515
0.899962 0.90367 0.907591
0.808682 0.915587 0.916686
0.821134 0.913756 0.915099
0.840269 0.910719 0.912322
0.88603 0.90396 0.90695
0.899413 0.903181 0.907103
0.899596 0.903334 0.907256
0.899794 0.903502 0.907423
0.899916 0.903624 0.907546
0.899962 0.90367 0.907576
0.899855 0.903578 0.9075
0.89987 0.903578 0.9075
0.89987 0.903578 0.9075
0.89987 0.903578 0.9075
0.89987 0.903593 0.9075
0.899886 0.903609 0.90753
0.899916 0.903624 0.907546
0.899947 0.903655 0.907576
0.899962 0.90367 0.907591
0.899962 0.90367 0.907576
0.899962 0.90367 0.907576
0.899962 0.90367 0.907576
0.899962 0.90367 0.907576
0.899962 0.90367 0.907576
0.899962 0.90367 0.907576
0.899962 0.90367 0.907591
0.899962 0.90367 0.907591
0.899977 0.90367 0.907591
0.00486763 0.0314794 0.791501
0.0620432 0.0173648 0.796704
0.301534 0.00929274 0.789197
0.882918 0.629618 0.881041
0.377707 0.605829 0.33257
0.902541 0.245884 0.857404
0.922683 0.62742 0.877409
0.923156 0.628061 0.877974
0.377707 0.605829 0.33257
0.00491341 0.0313878 0.791699
0.0638743 0.0167849 0.796353
0.227909 0.0138247 0.790417
0.882994 0.629618 0.881041
0.923461 0.628428 0.878309
0.924453 0.516152 0.879316
0.922713 0.627497 0.87747
0.923171 0.628077 0.877989
0.377707 0.605829 0.33257
0.0187381 0.139467 0.809491
0.0348058 0.134798 0.817136
0.260594 0.110246 0.829801
0.895705 0.65565 0.901442
0.933852 0.631464 0.889555
0.918608 0.597589 0.872282
0.92282 0.627649 0.877607
0.923186 0.628092 0.878019
0.377707 0.605829 0.33257
0.0850843 0.72961 0.873457
0.0883345 0.730175 0.881086
0.2056 0.722774 0.888472
0.714504 0.603601 0.888395
0.922255 0.502632 0.899992
0.952956 0.800137 0.926574
0.946181 0.651911 0.906157
0.923262 0.628183 0.878096
0.89659 0.457679 0.851453
0.0889448 0.883238 0.876143
0.264485 0.885496 0.880751
0.441306 0.890684 0.887404
0.65713 0.913375 0.918822
0.891096 0.895155 0.904112
0.898192 0.900999 0.90547
0.899519 0.903166 0.907134
0.93579 0.85771 0.920516
0.922942 0.627802 0.87776
0.647196 0.916838 0.913756
0.652689 0.918639 0.916197
0.6589 0.920531 0.918761
0.769406 0.918547 0.919234
0.897841 0.901701 0.905699
0.898894 0.902617 0.906584
0.899611 0.903304 0.907256
0.899886 0.903593 0.907515
0.899962 0.90367 0.907591
0.818235 0.914275 0.915557
0.830121 0.91249 0.914076
0.846387 0.909819 0.911681
0.888212 0.903822 0.906874
0.899489 0.903243 0.907164
0.899626 0.903365 0.907286
0.899809 0.903517 0.907439
0.899916 0.903624 0.907546
0.899962 0.90367 0.907576
0.89987 0.903593 0.907515
0.89987 0.903593 0.907515
0.89987 0.903593 0.907515
0.89987 0.903593 0.907515
0.89987 0.903593 0.907515
0.899886 0.903609 0.90753
0.899916 0.903624 0.907546
0.899947 0.903655 0.907576
0.899962 0.90367 0.907591
0.899962 0.90367 0.907576
0.899962 0.90367 0.907576
0.899962 0.90367 0.907576
0.899962 0.90367 0.907576
0.899962 0.90367 0.907576
0.899962 0.90367 0.907576
0.899962 0.90367 0.907591
0.899962 0.90367 0.907591
0.899977 0.90367 0.907591
0.267384 0.609598 0.336202
0.29395 0.609049 0.334249
0.316777 0.60824 0.333516
0.346593 0.606714 0.33579
0.923461 0.628428 0.878309
0.923201 0.510781 0.87805
0.922713 0.627558 0.877546
0.923156 0.628061 0.877989
0.377707 0.605829 0.33257
0.267735 0.609583 0.336172
0.294072 0.609033 0.334234
0.317037 0.608225 0.333516
0.346685 0.606714 0.33579
0.923461 0.628428 0.878309
0.919524 0.562203 0.874388
0.922728 0.627604 0.877577
0.923156 0.628077 0.878004
0.377707 0.605829 0.33257
0.292988 0.0113985 0.789334
0.41146 0.00102235 0.780224
0.580407 0 0.770779
0.78616 0 0.775204
0.923461 0.628428 0.878309
0.919768 0.605631 0.874632
0.922789 0.627665 0.877638
0.923186 0.628092 0.878019
0.377707 0.605829 0.33257
0.28307 0.513359 0.876249
0.408637 0.504463 0.876371
0.547066 0.495171 0.87892
0.806226 0.470375 0.892332
0.934066 0.430625 0.90428
0.959792 0.725231 0.926207
0.923095 0.628016 0.877943
0.923262 0.628183 0.878111
0.895552 0.453681 0.850401
0.62443 0.913283 0.913283
0.632242 0.915099 0.915801
0.641932 0.917311 0.918685
0.76173 0.91603 0.919585
0.895842 0.90042 0.906065
0.89865 0.902281 0.906416
0.901488 0.901381 0.907454
0.951507 0.8206 0.928634
0.922927 0.627802 0.87776
0.661387 0.921874 0.920394
0.664103 0.922362 0.92137
0.674266 0.923674 0.923049
0.817166 0.913283 0.914672
0.89865 0.902449 0.906462
0.899214 0.902953 0.90692
0.899687 0.903395 0.907332
0.899901 0.903593 0.90753
0.899962 0.90367 0.907591
0.850858 0.909285 0.91133
0.858671 0.908125 0.910277
0.86981 0.906447 0.908888
0.895125 0.903563 0.907103
0.899596 0.903334 0.907271
0.899702 0.903426 0.907362
0.899825 0.903532 0.907469
0.899916 0.903624 0.907546
0.899962 0.90367 0.907591
0.899886 0.903593 0.90753
0.899886 0.903593 0.90753
0.899886 0.903593 0.907515
0.899886 0.903593 0.907515
0.899886 0.903609 0.90753
0.899901 0.903609 0.90753
0.899931 0.903639 0.907561
0.899947 0.903655 0.907576
0.899962 0.90367 0.907591
0.899962 0.90367 0.907576
0.899962 0.90367 0.907576
0.899962 0.90367 0.907576
0.899962 0.90367 0.907576
0.899962 0.90367 0.907591
0.899962 0.90367 0.907591
0.899962 0.90367 0.907591
0.899962 0.90367 0.907591
0.899977 0.90367 0.907591
0.354818 0.60618 0.33547
0.357061 0.606104 0.335378
0.360265 0.606043 0.335256
0.371389 0.605875 0.333974
0.377707 0.605829 0.33257
0.916823 0.581353 0.871687
0.922499 0.627237 0.87747
0.922972 0.627909 0.877852
0.923461 0.628428 0.878309
0.355032 0.606165 0.335439
0.357229 0.606104 0.335378
0.360372 0.606043 0.335256
0.371435 0.605859 0.333959
0.377707 0.605829 0.33257
0.918273 0.596139 0.873121
0.922545 0.627314 0.877501
0.923003 0.627924 0.877882
0.923461 0.628428 0.878309
0.355123 0.606165 0.335439
0.357031 0.606104 0.335378
0.360403 0.606043 0.335256
0.37142 0.605859 0.333974
0.377707 0.605829 0.33257
0.918776 0.608576 0.875135
0.922606 0.627436 0.877531
0.923033 0.627955 0.877897
0.923461 0.628428 0.878309
0.355398 0.606134 0.335424
0.357412 0.606104 0.335378
0.360632 0.606058 0.335256
0.371618 0.605859 0.333913
0.377707 0.605829 0.33257
0.920958 0.623316 0.877195
0.922835 0.627756 0.877729
0.92314 0.628077 0.878004
0.923461 0.628428 0.878309
0.866712 0.89546 0.909255
0.873564 0.894636 0.908736
0.880781 0.894026 0.908232
0.900069 0.891768 0.908171
0.911055 0.889067 0.908751
0.914046 0.887175 0.910033
0.927565 0.870512 0.916274
0.923369 0.628336 0.878233
0.92256 0.627314 0.877455
0.854856 0.908339 0.910445
0.862547 0.90721 0.909392
0.87248 0.905653 0.908248
0.895613 0.903258 0.906905
0.899336 0.90309 0.907073
0.89955 0.903273 0.90724
0.899794 0.903487 0.907423
0.899916 0.903624 0.907546
0.899962 0.90367 0.907591
0.899702 0.903441 0.907378
0.899702 0.903441 0.907378
0.899702 0.903441 0.907378
0.899718 0.903441 0.907378
0.899733 0.903456 0.907408
0.899794 0.903517 0.907439
0.89987 0.903578 0.9075
0.899931 0.903639 0.907561
0.899962 0.90367 0.907591
0.899901 0.903624 0.907546
0.899901 0.903624 0.907546
0.899901 0.903624 0.907546
0.899901 0.903624 0.907546
0.899901 0.903624 0.907546
0.899916 0.903624 0.907546
0.899931 0.903639 0.907561
0.899947 0.903655 0.907576
0.899962 0.90367 0.907591
0.899962 0.90367 0.907591
0.899962 0.90367 0.907591
0.899962 0.90367 0.907591
0.899962 0.90367 0.907591
0.899962 0.90367 0.907591
0.899962 0.90367 0.907591
0.899962 0.90367 0.907591
0.899962 0.90367 0.907591
0.899977 0.90367 0.907591
0.375326 0.595285 0.853651
0.374975 0.595193 0.853544
0.374975 0.595071 0.853559
0.377279 0.595941 0.854017
0.38761 0.59852 0.856596
0.395544 0.59997 0.857923
0.792615 0.608209 0.870527
0.865797 0.608606 0.872175
0.923461 0.628428 0.878309
0.405997 0.60119 0.858839
0.408255 0.601343 0.858991
0.412375 0.601709 0.859312
0.417594 0.602304 0.859709
0.426352 0.602853 0.860197
0.437446 0.603357 0.860563
0.800504 0.609812 0.871778
0.876646 0.611383 0.872618
0.923461 0.628428 0.878309
0.4663 0.602533 0.859342
0.466011 0.602609 0.859373
0.467323 0.602457 0.859236
0.47628 0.601801 0.858427
0.480308 0.601328 0.857969
0.516808 0.596414 0.852918
0.821088 0.612634 0.873365
0.88864 0.615122 0.873884
0.923461 0.628428 0.878309
0.658274 0.592508 0.846815
0.657877 0.592462 0.846799
0.657298 0.592371 0.846784
0.6607 0.592584 0.846906
0.6645 0.59263 0.846891
0.776593 0.605463 0.862119
0.88426 0.618067 0.873457
0.911559 0.622827 0.876738
0.923461 0.628428 0.878309
0.896895 0.622492 0.874937
0.897078 0.622507 0.874952
0.897459 0.622553 0.874998
0.898436 0.62269 0.875135
0.903334 0.623407 0.875776
0.915877 0.62565 0.87747
0.921935 0.627222 0.877745
0.922606 0.627588 0.877699
0.374548 0.603006 0.847974
0.899702 0.903426 0.907378
0.899702 0.903426 0.907378
0.899702 0.903426 0.907378
0.899702 0.903426 0.907378
0.899718 0.903456 0.907393
0.899779 0.903502 0.907439
0.89987 0.903578 0.907515
0.899931 0.903639 0.907561
0.92343 0.628382 0.878279
0.89984 0.903563 0.9075
0.899855 0.903563 0.9075
0.899855 0.903563 0.9075
0.899855 0.903563 0.9075
0.899855 0.903563 0.9075
0.89987 0.903593 0.907515
0.899916 0.903624 0.907546
0.899947 0.903655 0.907576
0.899962 0.90367 0.907591
0.899931 0.903639 0.907561
0.899931 0.903639 0.907561
0.899931 0.903639 0.907561
0.899931 0.903639 0.907561
0.899931 0.903639 0.907561
0.899931 0.903639 0.907561
0.899947 0.903655 0.907576
0.899962 0.90367 0.907591
0.899962 0.90367 0.907591
0.899962 0.90367 0.907591
0.899962 0.90367 0.907591
0.899962 0.90367 0.907591
0.899962 0.90367 0.907591
0.899962 0.90367 0.907591
0.899962 0.90367 0.907591
0.899962 0.90367 0.907591
0.899962 0.90367 0.907591
0.899977 0.90367 0.907591
